; generated by PrusaSlicer 2.9.4 on 2026-05-17 at 14:20:49 UTC

; 

; external perimeters extrusion width = 0.45mm
; perimeters extrusion width = 0.45mm
; infill extrusion width = 0.45mm
; solid infill extrusion width = 0.45mm
; top infill extrusion width = 0.40mm
; first layer extrusion width = 0.70mm

M104 S200 ; set temperature
;TYPE:Custom
G28 ; home all axes
G1 Z5 F5000 ; lift nozzle
M109 S200 ; set temperature and wait for it to be reached
G21 ; set units to millimeters
G90 ; use absolute coordinates
M82 ; use absolute distances for extrusion
G92 E0
; Filament gcode
M107
;LAYER_CHANGE
;Z:0.35
;HEIGHT:0.35
G1 E-2 F2400
G92 E0
G1 Z.35 F7800
G1 X47.84 Y50.942
G1 E2 F2400
;TYPE:Skirt/Brim
;WIDTH:0.7
G1 F1800
G1 X99.456 Y2.47 E8.43852
G1 X100.296 Y1.743 E8.53953
G1 X101.515 Y.866 E8.67608
G1 X102.822 Y.128 E8.81256
G1 X104.202 Y-.465 E8.94914
G1 X105.637 Y-.904 E9.08559
G1 X107.112 Y-1.184 E9.22211
G1 X108.609 Y-1.303 E9.35866
G1 X110.373 Y-1.304 E9.51906
G1 X111.815 Y-1.194 E9.65056
G1 X113.994 Y-.73 E9.85314
G1 X115.356 Y-.245 E9.9846
G1 X117.231 Y.711 E10.17598
G1 X119.034 Y2.021 E10.37863
G1 X120.08 Y3.018 E10.51003
G1 X121.405 Y4.654 E10.70146
G1 X122.163 Y5.884 E10.83284
G1 X168.012 Y96.755 E20.08788
G1 X168.4 Y97.704 E20.18111
G1 X168.656 Y98.715 E20.27594
G1 X168.769 Y100.083 E20.40076
G1 X168.656 Y101.284 E20.51045
G1 X168.4 Y102.296 E20.60537
G1 X168.012 Y103.245 E20.6986
G1 X121.832 Y194.688 E30.01363
G1 X120.656 Y196.326 E30.19698
G1 X119.525 Y197.537 E30.34765
G1 X118.424 Y198.473 E30.47905
G1 X116.659 Y199.62 E30.67045
G1 X115.356 Y200.245 E30.80186
G1 X113.236 Y200.933 E31.00453
G1 X111.157 Y201.263 E31.19594
G1 X108.952 Y201.312 E31.39649
G1 X107.794 Y201.259 E31.5019
G1 X106.307 Y201.052 E31.63842
G1 X104.201 Y200.465 E31.83722
G1 X102.822 Y199.872 E31.97371
G1 X101.515 Y199.134 E32.11019
G1 X99.676 Y197.728 E32.32068
G1 X35.257 Y137.241 E40.35573
G1 X34.261 Y136.125 E40.49174
G1 X33.392 Y134.909 E40.62764
G1 X32.659 Y133.606 E40.76358
G1 X31.853 Y131.584 E40.96151
G1 X31.489 Y130.133 E41.09754
G1 X31.24 Y127.842 E41.30709
G1 X31.231 Y72.5 E46.33931
G1 X31.284 Y71.347 E46.44426
G1 X31.489 Y69.866 E46.58021
G1 X31.853 Y68.416 E46.71615
G1 X32.372 Y67.014 E46.85209
G1 X33.392 Y65.091 E47.05002
G1 X34.261 Y63.875 E47.18592
G1 X35.257 Y62.759 E47.32193
G1 X47.797 Y50.983 E48.88615
G1 E46.88615 F2400
G92 E0
G92 E0
G1 X89.303 Y99.111 F7800
G1 E2 F2400
;TYPE:Perimeter
;WIDTH:0.7
G1 F1800
G1 X152.452 Y99.109 E7.74211
G1 X157.809 Y100 E8.23591
G1 X152.411 Y100.9 E8.73352
G1 X89.303 Y100.889 E14.4719
G1 X89.17 Y100.349 E14.52247
G1 X88.958 Y100 E14.5596
G1 X89.17 Y99.651 E14.59673
G1 X89.289 Y99.17 E14.64179
G1 E12.64179 F2400
G92 E0
G1 X50.847 Y100.889 F7800
G1 E2 F2400
G1 F1800
G1 X39.143 Y100.889 E3.06424
G1 X39.143 Y99.111 E3.22591
G1 X50.958 Y99.111 E4.30024
G1 X51.069 Y99.651 E4.35037
G1 X51.281 Y100 E4.3875
G1 X51.069 Y100.349 E4.42463
G1 X50.958 Y100.889 E4.47476
G1 X50.907 Y100.889 E4.4794
G1 E2.4794 F2400
G92 E0
G1 X38.518 Y101.513 F7800
G1 E2 F2400
G1 F1800
G1 X38.518 Y98.487 E2.27515
G1 X51.568 Y98.487 E3.46178
G1 X51.568 Y99.038 E3.51188
G1 X51.644 Y99.406 E3.54605
G1 X51.793 Y99.646 E3.57174
G1 X52.032 Y99.846 E3.60008
G1 X52.111 Y99.844 E3.60727
;WIDTH:0.652111
G1 X52.19 Y99.841 E3.61391
;WIDTH:0.604222
G1 X52.269 Y99.839 E3.61999
;WIDTH:0.556333
G1 X52.348 Y99.836 E3.62553
;WIDTH:0.508444
G1 X52.427 Y99.834 E3.63051
;WIDTH:0.460555
G1 X52.506 Y99.831 E3.63494
;WIDTH:0.412667
G1 X88.225 Y99.831 E5.38942
;WIDTH:0.460555
G1 X88.262 Y99.8 E5.39213
;WIDTH:0.508444
G1 X88.299 Y99.77 E5.39513
;WIDTH:0.556333
G1 X88.335 Y99.739 E5.39846
;WIDTH:0.604222
G1 X88.372 Y99.708 E5.40218
;WIDTH:0.652111
G1 X88.409 Y99.677 E5.40623
;WIDTH:0.7
G1 X88.548 Y99.501 E5.42662
G1 X88.659 Y99.184 E5.45716
G1 X88.769 Y98.487 E5.52132
G1 X152.503 Y98.484 E11.31662
G1 X161.475 Y99.977 E12.14366
G1 X161.472 Y100.001 E12.14586
G1 X161.383 Y100.038 E12.15462
G1 X152.462 Y101.525 E12.97699
G1 X88.769 Y101.514 E18.76856
G1 X88.595 Y100.594 E18.8537
G1 X88.446 Y100.354 E18.87939
G1 X88.207 Y100.154 E18.90773
G1 X88.128 Y100.156 E18.91492
;WIDTH:0.652111
G1 X88.049 Y100.159 E18.92156
;WIDTH:0.604222
G1 X87.97 Y100.161 E18.92764
;WIDTH:0.556333
G1 X87.891 Y100.164 E18.93318
;WIDTH:0.508444
G1 X87.812 Y100.166 E18.93816
;WIDTH:0.460555
G1 X87.733 Y100.169 E18.94259
;WIDTH:0.412667
G1 X52.014 Y100.169 E20.69707
;WIDTH:0.460555
G1 X51.977 Y100.2 E20.69978
;WIDTH:0.508444
G1 X51.94 Y100.23 E20.70278
;WIDTH:0.556333
G1 X51.903 Y100.261 E20.70616
;WIDTH:0.604222
G1 X51.866 Y100.292 E20.70988
;WIDTH:0.652111
G1 X51.83 Y100.323 E20.71387
;WIDTH:0.7
G1 X51.691 Y100.499 E20.73426
G1 X51.568 Y100.962 E20.77782
G1 X51.568 Y101.513 E20.82792
G1 X38.578 Y101.513 E22.00909
G1 X37.893 Y102.138 F7800
;TYPE:External perimeter
G1 F1800
G1 X37.893 Y97.862 E22.3979
G1 X52.193 Y97.862 E23.69819
G1 X52.193 Y99.132 E23.81367
G1 X52.348 Y99.307 E23.83493
G1 X52.506 Y99.35 E23.84982
G1 X87.733 Y99.35 E27.05299
G1 X87.891 Y99.307 E27.06788
G1 X87.971 Y99.24 E27.07737
G1 X88.042 Y99.086 E27.09279
G1 X88.235 Y97.862 E27.20546
G1 X152.555 Y97.859 E33.05405
G1 X161.54 Y99.354 E33.88228
G1 X161.851 Y99.498 E33.91344
G1 X162.051 Y99.741 E33.94206
G1 X162.095 Y100.053 E33.97071
G1 X162.001 Y100.353 E33.9993
G1 X161.763 Y100.56 E34.02798
G1 X161.486 Y100.655 E34.05461
G1 X152.514 Y102.15 E34.88168
G1 X88.235 Y102.138 E40.72654
G1 X88.032 Y100.853 E40.84483
G1 X87.891 Y100.693 E40.86422
G1 X87.733 Y100.65 E40.87911
G1 X52.481 Y100.65 E44.08456
G1 X52.268 Y100.76 E44.10636
G1 X52.193 Y100.962 E44.12595
G1 X52.193 Y102.138 E44.23288
G1 X37.953 Y102.138 E45.52772
G1 X37.894 Y101.743 F7800
G1 E43.52772 F2400
G92 E0
G1 X49.475 Y99.299 F7800
G1 E2 F2400
;TYPE:Solid infill
;WIDTH:0.731858
G1 F1800
G1 X50.582 Y100.42 E2.15056
G1 X49.668 Y100.42 E2.23791
G1 X48.828 Y99.58 E2.35144
G1 X47.899 Y99.58 E2.44022
G1 X48.739 Y100.42 E2.55375
G1 X47.81 Y100.42 E2.64253
G1 X46.97 Y99.58 E2.75606
G1 X46.042 Y99.58 E2.84474
G1 X46.881 Y100.42 E2.9582
G1 X45.952 Y100.42 E3.04698
G1 X45.113 Y99.58 E3.16044
G1 X44.184 Y99.58 E3.24922
G1 X45.024 Y100.42 E3.36275
G1 X44.095 Y100.42 E3.45153
G1 X43.255 Y99.58 E3.56506
G1 X42.326 Y99.58 E3.65384
G1 X43.166 Y100.42 E3.76737
G1 X42.237 Y100.42 E3.85615
G1 X41.398 Y99.58 E3.96961
G1 X40.469 Y99.58 E4.05839
G1 X41.309 Y100.42 E4.17192
G1 X40.38 Y100.42 E4.2607
G1 X39.33 Y99.37 E4.40261
G1 E2.40261 F2400
G92 E0
G1 X153.541 Y99.48 F7800
G1 E2 F2400
;WIDTH:0.703842
G1 F1800
G1 X154.186 Y100.126 E2.08352
G1 X153.423 Y100.251 E2.15426
G1 X152.816 Y99.645 E2.23273
G1 X152.46 Y99.585 E2.26576
G1 X151.868 Y99.585 E2.31992
G1 X152.659 Y100.377 E2.42233
G1 X152.327 Y100.432 E2.45312
G1 X151.825 Y100.431 E2.49905
G1 X150.979 Y99.585 E2.60851
G1 X150.089 Y99.585 E2.68993
G1 X150.936 Y100.431 E2.79945
G1 X150.046 Y100.431 E2.88087
G1 X149.2 Y99.585 E2.99033
G1 X148.311 Y99.585 E3.07166
G1 X149.157 Y100.431 E3.18112
G1 X148.268 Y100.431 E3.26245
G1 X147.422 Y99.585 E3.37191
G1 X146.532 Y99.585 E3.45333
G1 X147.378 Y100.431 E3.56279
G1 X146.489 Y100.43 E3.64412
G1 X145.643 Y99.585 E3.75351
G1 X144.754 Y99.585 E3.83484
G1 X145.6 Y100.43 E3.94423
G1 X144.71 Y100.43 E4.02565
G1 X143.865 Y99.585 E4.13498
G1 X142.976 Y99.585 E4.21631
G1 X143.821 Y100.43 E4.32564
G1 X142.932 Y100.43 E4.40697
G1 X142.086 Y99.585 E4.51636
G1 X141.197 Y99.584 E4.59769
G1 X142.042 Y100.43 E4.70708
G1 X141.153 Y100.43 E4.78841
G1 X140.308 Y99.584 E4.8978
G1 X139.419 Y99.584 E4.97913
G1 X140.264 Y100.429 E5.08846
G1 X139.374 Y100.429 E5.16988
G1 X138.529 Y99.584 E5.27921
G1 X137.64 Y99.584 E5.36054
G1 X138.485 Y100.429 E5.46987
G1 X137.596 Y100.429 E5.5512
G1 X136.751 Y99.584 E5.66053
G1 X135.862 Y99.584 E5.74186
G1 X136.706 Y100.429 E5.85113
G1 X135.817 Y100.429 E5.93246
G1 X134.972 Y99.584 E6.04179
G1 X134.083 Y99.584 E6.12312
G1 X134.928 Y100.428 E6.23239
G1 X134.038 Y100.428 E6.31381
G1 X133.194 Y99.584 E6.42301
G1 X132.305 Y99.584 E6.50434
G1 X133.149 Y100.428 E6.61354
G1 X132.26 Y100.428 E6.69487
G1 X131.415 Y99.584 E6.80414
G1 X130.526 Y99.584 E6.88547
G1 X131.37 Y100.428 E6.99467
G1 X130.481 Y100.428 E7.076
G1 X129.637 Y99.583 E7.18527
G1 X128.748 Y99.583 E7.2666
G1 X129.592 Y100.427 E7.3758
G1 X128.702 Y100.427 E7.45722
G1 X127.859 Y99.583 E7.56636
G1 X126.969 Y99.583 E7.64778
G1 X127.813 Y100.427 E7.75698
G1 X126.924 Y100.427 E7.83831
G1 X126.08 Y99.583 E7.94751
G1 X125.191 Y99.583 E8.02884
G1 X126.035 Y100.427 E8.13804
G1 X125.145 Y100.427 E8.21946
G1 X124.302 Y99.583 E8.3286
G1 X123.412 Y99.583 E8.41002
G1 X124.256 Y100.426 E8.51916
G1 X123.367 Y100.426 E8.60049
G1 X122.523 Y99.583 E8.70963
G1 X121.634 Y99.583 E8.79096
G1 X122.477 Y100.426 E8.90003
G1 X121.588 Y100.426 E8.98136
G1 X120.745 Y99.583 E9.09043
G1 X119.855 Y99.583 E9.17185
G1 X120.699 Y100.426 E9.28099
G1 X119.809 Y100.426 E9.36241
G1 X118.966 Y99.583 E9.47148
G1 X118.077 Y99.582 E9.55281
G1 X118.92 Y100.425 E9.66188
G1 X118.031 Y100.425 E9.74321
G1 X117.188 Y99.582 E9.85228
G1 X116.298 Y99.582 E9.9337
G1 X117.141 Y100.425 E10.04277
G1 X116.252 Y100.425 E10.1241
G1 X115.409 Y99.582 E10.23317
G1 X114.52 Y99.582 E10.3145
G1 X115.363 Y100.425 E10.42357
G1 X114.473 Y100.425 E10.50499
G1 X113.631 Y99.582 E10.614
G1 X112.742 Y99.582 E10.69533
G1 X113.584 Y100.425 E10.80434
G1 X112.695 Y100.424 E10.88567
G1 X111.852 Y99.582 E10.99468
G1 X110.963 Y99.582 E11.07601
G1 X111.805 Y100.424 E11.18495
G1 X110.916 Y100.424 E11.26628
G1 X110.074 Y99.582 E11.37522
G1 X109.185 Y99.582 E11.45655
G1 X110.027 Y100.424 E11.56549
G1 X109.137 Y100.424 E11.64691
G1 X108.295 Y99.582 E11.75585
G1 X107.406 Y99.582 E11.83718
G1 X108.248 Y100.424 E11.94612
G1 X107.359 Y100.423 E12.02745
G1 X106.517 Y99.582 E12.13633
G1 X105.628 Y99.581 E12.21766
G1 X106.469 Y100.423 E12.32654
G1 X105.58 Y100.423 E12.40787
G1 X104.738 Y99.581 E12.51681
G1 X103.849 Y99.581 E12.59814
G1 X104.691 Y100.423 E12.70708
G1 X103.801 Y100.423 E12.7885
G1 X102.96 Y99.581 E12.89738
G1 X102.071 Y99.581 E12.97871
G1 X102.912 Y100.423 E13.08759
G1 X102.023 Y100.422 E13.16892
G1 X101.181 Y99.581 E13.2778
G1 X100.292 Y99.581 E13.35913
G1 X101.134 Y100.422 E13.46801
G1 X100.244 Y100.422 E13.54943
G1 X99.403 Y99.581 E13.65824
G1 X98.514 Y99.581 E13.73957
G1 X99.355 Y100.422 E13.84838
G1 X98.466 Y100.422 E13.92971
G1 X97.625 Y99.581 E14.03852
G1 X96.735 Y99.581 E14.11994
G1 X97.576 Y100.422 E14.22875
G1 X96.687 Y100.421 E14.31008
G1 X95.846 Y99.581 E14.41883
G1 X94.957 Y99.581 E14.50016
G1 X95.798 Y100.421 E14.60891
G1 X94.908 Y100.421 E14.69033
G1 X94.068 Y99.58 E14.79908
G1 X93.178 Y99.58 E14.8805
G1 X94.019 Y100.421 E14.98931
G1 X93.13 Y100.421 E15.07064
G1 X92.289 Y99.58 E15.17945
G1 X91.4 Y99.58 E15.26078
G1 X92.24 Y100.421 E15.36953
G1 X91.351 Y100.42 E15.45086
G1 X90.511 Y99.58 E15.55954
G1 X89.675 Y99.58 E15.63602
G1 X89.663 Y99.622 E15.64002
G1 X90.743 Y100.702 E15.77976
G1 E13.77976 F2400
G92 E0
G1 X115.943 Y104.288 F7800
G1 E2 F2400
;TYPE:Perimeter
;WIDTH:0.7
G1 F1800
G1 X115.943 Y187.458 E9.56261
G1 X115.909 Y188.117 E9.62261
G1 X115.812 Y188.726 E9.67868
G1 X115.652 Y189.323 E9.73488
G1 X115.431 Y189.899 E9.79098
G1 X115.151 Y190.449 E9.8471
G1 X114.815 Y190.967 E9.90324
G1 X114.426 Y191.447 E9.95942
G1 X113.99 Y191.883 E10.01549
G1 X113.51 Y192.272 E10.07167
G1 X112.992 Y192.608 E10.12781
G1 X112.442 Y192.888 E10.18393
G1 X111.866 Y193.109 E10.24003
G1 X111.269 Y193.269 E10.29623
G1 X110.66 Y193.366 E10.3523
G1 X110.001 Y193.4 E10.4123
G1 X108.995 Y193.4 E10.50378
G1 X108.311 Y193.363 E10.56607
G1 X107.679 Y193.259 E10.62431
G1 X107.061 Y193.087 E10.68264
G1 X106.466 Y192.848 E10.74094
G1 X105.9 Y192.547 E10.79923
G1 X105.37 Y192.186 E10.85754
G1 X104.882 Y191.769 E10.91591
G1 X104.443 Y191.302 E10.97419
G1 X104.057 Y190.79 E11.03249
G1 X103.729 Y190.239 E11.0908
G1 X103.462 Y189.656 E11.14911
G1 X103.26 Y189.047 E11.20745
G1 X103.117 Y188.377 E11.26974
G1 X89.84 Y104.288 E19.01064
G1 X115.883 Y104.288 E21.37872
G1 X116.568 Y103.663 F7800
G1 F1800
G1 X116.568 Y187.474 E28.99961
G1 X116.531 Y188.182 E29.06408
G1 X116.424 Y188.856 E29.12613
G1 X116.248 Y189.516 E29.18824
G1 X116.003 Y190.153 E29.2503
G1 X115.693 Y190.762 E29.31244
G1 X115.321 Y191.335 E29.37456
G1 X114.891 Y191.865 E29.43662
G1 X114.408 Y192.348 E29.49873
G1 X113.878 Y192.778 E29.56079
G1 X113.305 Y193.15 E29.62291
G1 X112.697 Y193.46 E29.68497
G1 X112.059 Y193.704 E29.74708
G1 X111.399 Y193.881 E29.80921
G1 X110.725 Y193.988 E29.87126
G1 X110.018 Y194.025 E29.93564
G1 X108.978 Y194.025 E30.03021
G1 X108.244 Y193.985 E30.09705
G1 X107.544 Y193.87 E30.16155
G1 X106.86 Y193.679 E30.22613
G1 X106.202 Y193.416 E30.29056
G1 X105.576 Y193.082 E30.35508
G1 X104.99 Y192.683 E30.41954
G1 X104.45 Y192.222 E30.4841
G1 X103.964 Y191.705 E30.54862
G1 X103.537 Y191.139 E30.61309
G1 X103.174 Y190.53 E30.67756
G1 X102.879 Y189.884 E30.74214
G1 X102.657 Y189.211 E30.80658
G1 X102.502 Y188.491 E30.87355
G1 X89.108 Y103.663 E38.68248
G1 X116.508 Y103.663 E41.17395
G1 X117.193 Y103.038 F7800
;TYPE:External perimeter
G1 F1800
G1 X117.193 Y187.491 E48.85322
G1 X117.153 Y188.247 E48.92206
G1 X117.036 Y188.986 E48.99009
G1 X116.843 Y189.709 E49.05813
G1 X116.575 Y190.408 E49.1262
G1 X116.235 Y191.075 E49.19428
G1 X115.827 Y191.702 E49.2623
G1 X115.356 Y192.284 E49.33038
G1 X114.827 Y192.813 E49.39841
G1 X114.245 Y193.284 E49.46649
G1 X113.618 Y193.692 E49.53451
G1 X112.951 Y194.031 E49.60254
G1 X112.252 Y194.3 E49.67064
G1 X111.53 Y194.493 E49.7386
G1 X110.79 Y194.61 E49.80672
G1 X110.034 Y194.65 E49.87556
G1 X108.961 Y194.65 E49.97313
G1 X108.176 Y194.607 E50.04462
G1 X107.409 Y194.481 E50.1153
G1 X106.66 Y194.272 E50.18601
G1 X105.938 Y193.983 E50.25673
G1 X105.252 Y193.618 E50.32739
G1 X104.61 Y193.18 E50.39806
G1 X104.019 Y192.675 E50.46875
G1 X103.486 Y192.109 E50.53944
G1 X103.018 Y191.488 E50.61015
G1 X102.62 Y190.82 E50.68085
G1 X102.297 Y190.113 E50.75153
G1 X102.053 Y189.375 E50.82221
G1 X101.888 Y188.606 E50.89373
G1 X88.377 Y103.038 E58.77078
G1 X117.133 Y103.038 E61.38555
G1 X117.192 Y103.434 F7800
G1 E59.38555 F2400
G92 E0
G1 X115.756 Y105.75 F7800
G1 E2 F2400
;TYPE:Solid infill
;WIDTH:0.705132
G1 F1800
G1 X114.763 Y104.757 E2.12874
G1 X113.872 Y104.757 E2.21042
G1 X115.475 Y106.359 E2.41818
G1 X115.475 Y107.25 E2.49986
G1 X112.981 Y104.757 E2.82314
G1 X112.09 Y104.757 E2.90482
G1 X115.475 Y108.141 E3.34362
G1 X115.475 Y109.032 E3.4253
G1 X111.199 Y104.757 E3.97962
G1 X110.308 Y104.757 E4.0613
G1 X115.475 Y109.923 E4.73114
G1 X115.475 Y110.814 E4.81282
G1 X109.417 Y104.757 E5.59817
G1 X108.526 Y104.757 E5.67985
G1 X115.475 Y111.705 E6.58072
G1 X115.475 Y112.596 E6.6624
G1 X107.635 Y104.757 E7.67879
G1 X106.744 Y104.757 E7.76047
G1 X115.475 Y113.487 E8.89238
G1 X115.475 Y114.378 E8.97406
G1 X105.853 Y104.757 E10.22149
G1 X104.962 Y104.757 E10.30317
G1 X115.475 Y115.269 E11.66611
G1 X115.475 Y116.16 E11.74779
G1 X104.071 Y104.757 E13.22625
G1 X103.18 Y104.757 E13.30793
G1 X115.475 Y117.051 E14.90191
G1 X115.475 Y117.942 E14.98359
G1 X102.289 Y104.757 E16.69309
G1 X101.398 Y104.757 E16.77477
G1 X115.475 Y118.833 E18.59979
G1 X115.475 Y119.724 E18.68147
G1 X100.507 Y104.757 E20.622
G1 X99.616 Y104.757 E20.70368
G1 X115.475 Y120.615 E22.75973
G1 X115.475 Y121.506 E22.84141
G1 X98.725 Y104.757 E25.01298
G1 X97.834 Y104.757 E25.09466
G1 X115.475 Y122.397 E27.38175
G1 X115.475 Y123.288 E27.46343
G1 X96.943 Y104.757 E29.86604
G1 X96.052 Y104.757 E29.94772
G1 X115.475 Y124.179 E32.46584
G1 X115.475 Y125.07 E32.54752
G1 X95.161 Y104.757 E35.18116
G1 X94.27 Y104.757 E35.26284
G1 X115.475 Y125.961 E38.012
G1 X115.475 Y126.852 E38.09368
G1 X93.379 Y104.757 E40.95836
G1 X92.488 Y104.757 E41.04004
G1 X115.475 Y127.743 E44.02024
G1 X115.475 Y128.634 E44.10192
G1 X91.597 Y104.757 E47.19763
G1 X90.706 Y104.757 E47.27931
G1 X115.475 Y129.525 E50.49054
G1 X115.475 Y130.416 E50.57222
G1 X90.496 Y105.437 E53.81074
G1 X90.663 Y106.495 E53.90893
G1 X115.475 Y131.307 E57.1258
G1 X115.475 Y132.198 E57.20748
G1 X90.83 Y107.553 E60.4027
G1 X90.997 Y108.611 E60.50089
G1 X115.475 Y133.089 E63.67446
