
; 

; external perimeters extrusion width = 0.40mm
; perimeters extrusion width = 0.45mm
; infill extrusion width = 0.45mm
; solid infill extrusion width = 0.45mm
; top infill extrusion width = 0.40mm
; first layer extrusion width = 0.50mm

;TYPE:Custom
;===== date: 2022,09,19 =====================
;===== reset machine status =================
G91
M17 Z0.3 ; lower the z-motor current
G0 Z7 F300 ; lower the hotbed , to prevent the nozzle is below the hotbed
G90
M17 X1.2 Y1.2 Z0.75 ; reset motor current to default
M960 S5 P1 ; turn on logo lamp
G90
M220 S100 ;Reset Feedrate
M221 S100 ;Reset Flowrate
M73.2   R1.0 ;Reset left time magnitude
M1002 set_gcode_claim_speed_level : 5
M221 X0 Y0 Z0 ; turn off soft endstop to prevent protential logic problem

;===== heatbed preheat ====================
M1002 gcode_claim_action : 2
M140 S35 ;set bed temp
M190 S35 ;wait for bed temp

;=============turn on fans to prevent PLA jamming=================

    ;Prevent PLA from jamming

M106 P2 S100 ; turn on big fan ,to cool down toolhead

;===== prepare print temperature and material ==========
M104 S220 ;set extruder temp
G91
G0 Z2 F1200
G90
G28 X
M975 S1 ; turn on 
G1 X60 F12000
G1 Y245
G1 Y265 F3000
M620 M
M620 S0A   ; switch material if AMS exist
    M109 S220
    G1 X120 F12000

    G1 X20 Y50 F12000
    G1 Y-3
    T0
    G1 X54 F12000
    G1 Y265
    M400
M621 S0A

M412 S1 ; ===turn on filament runout detection===

M109 S250 ;set nozzle to common flush temp
M106 P1 S0
G92 E0
G1 E50 F200
M400
M104 S220
G92 E0
G1 E50 F200
M400
M106 P1 S255
G92 E0
G1 E5 F300
M109 S200 ; drop nozzle temp, make filament shink a bit
G92 E0
G1 E-0.5 F300

G1 X70 F9000
G1 X76 F15000
G1 X65 F15000
G1 X76 F15000
G1 X65 F15000; shake to put down garbage
G1 X80 F6000
G1 X95 F15000
G1 X80 F15000
G1 X165 F15000; wipe and shake
M400
M106 P1 S0
;===== prepare print temperature and material end =====


;===== wipe nozzle ===============================
M1002 gcode_claim_action : 14
M975 S1
M106 S255
G1 X65 Y230 F18000
G1 Y264 F6000
M109 S200
G1 X100 F18000 ; first wipe mouth

G0 X135 Y261 F20000  ; move to exposed steel surface edge
G28 Z P0 T300; home z with low precision,permit 300deg temperature
G29.2 S0 ; turn off ABL
G0 Z2 F20000

G1 X60 Y265
G92 E0
G1 E-0.5 F300 ; retrack more
G1 X100 F5000; second wipe mouth
G1 X70 F15000
G1 X100 F5000
G1 X70 F15000
G1 X100 F5000
G1 X70 F15000
G1 X100 F5000
G1 X70 F15000
G1 X90 F5000
G0 X128 Y261 Z-1.5 F20000  ; move to exposed steel surface and stop the nozzle
M104 S140 ; set temp down to heatbed acceptable
M106 S255 ; turn on fan (G28 has turn off fan)

M221 S; push soft endstop status
M221 Z0 ;turn off Z axis endstop
G0 Z0.5 F20000
G0 X125 Y259.5 Z-1.01
G0 X131 F211
G0 X124
G0 Z0.5 F20000
G0 X125 Y262.5
G0 Z-1.01
G0 X131 F211
G0 X124
G0 Z0.5 F20000
G0 X125 Y260.0
G0 Z-1.01
G0 X131 F211
G0 X124
G0 Z0.5 F20000
G0 X125 Y262.0
G0 Z-1.01
G0 X131 F211
G0 X124
G0 Z0.5 F20000
G0 X125 Y260.5
G0 Z-1.01
G0 X131 F211
G0 X124
G0 Z0.5 F20000
G0 X125 Y261.5
G0 Z-1.01
G0 X131 F211
G0 X124
G0 Z0.5 F20000
G0 X125 Y261.0
G0 Z-1.01
G0 X131 F211
G0 X124
G0 X128
G2 I0.5 J0 F300
G2 I0.5 J0 F300
G2 I0.5 J0 F300
G2 I0.5 J0 F300

M109 S140 ; wait nozzle temp down to heatbed acceptable
G2 I0.5 J0 F3000
G2 I0.5 J0 F3000
G2 I0.5 J0 F3000
G2 I0.5 J0 F3000

M221 R; pop softend status
G1 Z10 F1200
M400
G1 Z10
G1 F30000
G1 X230 Y15
G29.2 S1 ; turn on ABL
;G28 ; home again after hard wipe mouth
M106 S0 ; turn off fan , too noisy
;===== wipe nozzle end ================================


;===== bed leveling ==================================
M1002 judge_flag g29_before_print_flag
M622 J1

    M1002 gcode_claim_action : 1
    G29 A X97.3907 Y94.4459 I55.2185 J61.1082
    M400
    M500 ; save cali data

M623
;===== bed leveling end ================================

;===== home after wipe mouth============================
M1002 judge_flag g29_before_print_flag
M622 J0

    M1002 gcode_claim_action : 13
    G28

M623
;===== home after wipe mouth end =======================

M975 S1 ; turn on vibration supression

=============turn on fans to prevent PLA jamming=================

    ;Prevent PLA from jamming

M106 P2 S100 ; turn on big fan ,to cool down toolhead


M104 S220 ; set extrude temp earlier, to reduce wait time

;===== mech mode fast check============================
G1 X128 Y128 Z5 F20000
M400 P200
M970.3 Q1 A7 B30 C80  H15 K0
M974 Q1 S2 P0

G1 X128 Y128 Z5 F20000
M400 P200
M970.3 Q0 A7 B30 C90 Q0 H15 K0
M974 Q0 S2 P0

M975 S1
G1 F30000
G1 X230 Y15
G28 X ; re-home XY 
;===== fmech mode fast check============================


;===== noozle load line ===============================
M975 S1
G90 
M83
T1000
G1 X18.0 Y5.0 Z0.3 F18000;Move to start position
M109 S220
G0 E3 F300
G0 X240 E15 F6400 
G0 Y5.5 
G0 X18 E15
M400

;========turn off light and wait extrude temperature =============
M1002 gcode_claim_action : 0
M973 S4 ; turn off scanner
M400 ; wait all motion done before implement the emprical L parameters
;M900 L500.0 ; Empirical parameters
M109 S220
M960 S1 P0 ; turn off laser
M960 S2 P0 ; turn off laser
M106 S0 ; turn off fan
M106 P2 S0 ; turn off big fan 
M106 P3 S0 ; turn off chamber fan

M975 S1 ; turn on mech mode supression
G90 
M83
T1000
G1 X128.0 Y253.0 Z0.2 F6000.0;Move to start position
M109 S220
G0 X253 E6.4 F5333.33 
G0 Y128 E6.4
G0 X252.5
G0 Y252.5 E6.4
G0 X128 E6.4
G21 ; set units to millimeters
G90 ; use absolute coordinates
M83 ; use relative distances for extrusion
M107
;LAYER_CHANGE
;Z:0.2
;HEIGHT:0.2
G1 E-2 F3600
G1 Z.6 F28800
G1 X100.461 Y107.737
G1 Z.2
G1 E2 F1800
;TYPE:Skirt/Brim
;WIDTH:0.5
G1 F6300
G1 X101.153 Y107.193 E.03279
G1 X121.207 Y95.589 E.86297
G1 X122.264 Y95.137 E.04282
G1 X123.246 Y94.861 E.03799
G1 X124.836 Y94.676 E.05962
G1 X125.754 Y94.709 E.03421
G1 X127.322 Y95.003 E.05942
G1 X128.498 Y95.445 E.04679
G1 X129.124 Y95.765 E.02619
G1 X148.232 Y106.796 E.82178
G1 X149.317 Y107.55 E.04921
G1 X149.858 Y108.03 E.02694
G1 X150.662 Y108.936 E.04512
G1 X151.18 Y109.696 E.03426
G1 X151.704 Y110.718 E.04278
G1 X152.019 Y111.582 E.03425
G1 X152.257 Y112.58 E.03821
G1 X152.362 Y113.482 E.03382
G1 X152.381 Y136.017 E.83934
G1 X152.27 Y137.334 E.04923
G1 X152.126 Y138.042 E.02691
G1 X151.742 Y139.192 E.04516
G1 X151.344 Y140.02 E.03422
G1 X150.856 Y140.799 E.03424
G1 X150.286 Y141.519 E.0342
G1 X149.539 Y142.263 E.03927
G1 X148.847 Y142.807 E.03279
G1 X128.793 Y154.411 E.86297
G1 X127.954 Y154.784 E.0342
G1 X126.952 Y155.094 E.03907
G1 X125.851 Y155.282 E.0416
G1 X124.933 Y155.326 E.03423
G1 X124.016 Y155.267 E.03423
G1 X122.732 Y155.012 E.04876
G1 X121.502 Y154.555 E.04887
G1 X120.876 Y154.235 E.02619
G1 X101.426 Y142.991 E.83678
G1 X100.683 Y142.45 E.03423
G1 X99.914 Y141.738 E.03903
G1 X98.821 Y140.304 E.06716
G1 X98.39 Y139.493 E.03421
G1 X97.981 Y138.418 E.04284
G1 X97.743 Y137.42 E.03821
G1 X97.638 Y136.518 E.03382
G1 X97.619 Y113.983 E.83934
G1 X97.73 Y112.666 E.04923
G1 X97.875 Y111.958 E.02692
G1 X98.258 Y110.808 E.04515
G1 X98.656 Y109.98 E.03422
G1 X99.144 Y109.201 E.03424
G1 X99.715 Y108.481 E.03423
G1 X100.419 Y107.779 E.03703
;WIPE_START
G1 F23040
G1 X100.461 Y107.737 E-.00882
G1 X101.153 Y107.193 E-.13066
G1 X112.002 Y100.915 E-1.86052
;WIPE_END
G1 Z.6 F28800
G1 X112.023 Y123.167
G1 Z.2
G1 E2 F1800
;TYPE:Perimeter
;WIDTH:0.499999
G1 F6300
G1 X112.115 Y122.598 E.02147
G1 X112.241 Y122.001 E.02273
G1 X112.394 Y121.411 E.0227
G1 X112.575 Y120.828 E.02274
G1 X113.011 Y119.705 E.04487
G1 X113.277 Y119.138 E.02333
G1 X113.563 Y118.598 E.02276
G1 X113.873 Y118.073 E.02271
G1 X114.208 Y117.562 E.02276
G1 X114.566 Y117.067 E.02275
G1 X114.947 Y116.59 E.02274
G1 X115.35 Y116.131 E.02275
G1 X115.774 Y115.691 E.02276
G1 X116.218 Y115.271 E.02276
G1 X116.681 Y114.872 E.02276
G1 X117.162 Y114.495 E.02276
G1 X117.66 Y114.141 E.02276
G1 X118.174 Y113.811 E.02275
G1 X118.703 Y113.505 E.02276
G1 X119.246 Y113.224 E.02277
G1 X119.802 Y112.968 E.0228
G1 X120.368 Y112.739 E.02274
G1 X120.945 Y112.536 E.02278
G1 X121.531 Y112.361 E.02278
G1 X122.124 Y112.213 E.02276
G1 X122.724 Y112.092 E.0228
G1 X123.328 Y112 E.02276
G1 X123.936 Y111.936 E.02277
G1 X124.547 Y111.901 E.02279
G1 X125.158 Y111.894 E.02276
G1 X125.761 Y111.916 E.02247
G1 X126.897 Y112.033 E.04254
G1 X127.515 Y112.137 E.02334
G1 X128.126 Y112.272 E.02331
G1 X128.72 Y112.432 E.02291
G1 X129.303 Y112.62 E.02282
G1 X129.876 Y112.834 E.02278
G1 X130.44 Y113.075 E.02284
G1 X130.991 Y113.342 E.02281
G1 X131.517 Y113.628 E.0223
G1 X132.045 Y113.947 E.02298
G1 X132.56 Y114.293 E.02311
G1 X133.053 Y114.659 E.02287
G1 X133.527 Y115.046 E.02279
G1 X133.983 Y115.456 E.02284
G1 X134.419 Y115.885 E.02278
G1 X134.834 Y116.335 E.0228
G1 X135.227 Y116.803 E.02276
G1 X135.599 Y117.289 E.0228
G1 X135.947 Y117.792 E.02278
G1 X136.271 Y118.311 E.02279
G1 X136.571 Y118.844 E.02278
G1 X136.846 Y119.391 E.0228
G1 X137.095 Y119.95 E.02279
G1 X137.317 Y120.52 E.02278
G1 X137.513 Y121.099 E.02277
G1 X137.681 Y121.687 E.02278
G1 X137.822 Y122.283 E.02281
G1 X137.927 Y122.836 E.02097
G1 X138.014 Y123.441 E.02277
G1 X138.072 Y124.05 E.02279
G1 X138.102 Y124.661 E.02278
G1 X138.104 Y125.272 E.02276
G1 X138.077 Y125.884 E.02282
G1 X138.022 Y126.493 E.02278
G1 X137.938 Y127.099 E.02279
G1 X137.826 Y127.7 E.02277
G1 X137.686 Y128.296 E.0228
G1 X137.518 Y128.884 E.02278
G1 X137.306 Y129.51 E.02462
G1 X137.081 Y130.08 E.02282
G1 X136.853 Y130.594 E.02094
G1 X136.383 Y131.491 E.03772
G1 X136.002 Y132.121 E.02742
G1 X135.648 Y132.64 E.0234
G1 X135.279 Y133.13 E.02285
G1 X134.883 Y133.608 E.02312
G1 X134.504 Y134.022 E.02091
G1 X134.028 Y134.5 E.02513
G1 X133.563 Y134.922 E.02339
G1 X133.083 Y135.317 E.02315
G1 X132.586 Y135.688 E.0231
G1 X132.071 Y136.036 E.02315
G1 X131.592 Y136.327 E.02088
G1 X131.053 Y136.625 E.02294
G1 X130.505 Y136.895 E.02275
G1 X129.944 Y137.139 E.02279
G1 X129.372 Y137.356 E.02279
G1 X128.791 Y137.547 E.02278
G1 X128.201 Y137.71 E.0228
G1 X127.604 Y137.845 E.0228
G1 X127.002 Y137.953 E.02278
G1 X126.396 Y138.032 E.02276
G1 X125.786 Y138.083 E.0228
G1 X125.175 Y138.106 E.02277
G1 X124.563 Y138.1 E.0228
G1 X123.952 Y138.065 E.02279
G1 X123.343 Y138.002 E.0228
G1 X122.67 Y137.898 E.02536
G1 X122.073 Y137.776 E.0227
G1 X121.483 Y137.626 E.02267
G1 X120.901 Y137.449 E.02266
G1 X120.105 Y137.152 E.03164
G1 X119.01 Y136.655 E.04479
G1 X118.516 Y136.388 E.02092
G1 X117.988 Y136.07 E.02296
G1 X117.472 Y135.726 E.0231
G1 X116.974 Y135.358 E.02306
G1 X116.494 Y134.968 E.02304
G1 X116.034 Y134.556 E.023
G1 X115.594 Y134.123 E.02299
G1 X115.176 Y133.671 E.02293
G1 X114.779 Y133.2 E.02294
G1 X114.406 Y132.712 E.02288
G1 X114.019 Y132.15 E.02542
G1 X113.729 Y131.684 E.02044
G1 X113.334 Y130.971 E.03036
G1 X112.85 Y129.91 E.04344
G1 X112.589 Y129.212 E.02776
G1 X112.416 Y128.661 E.02151
G1 X112.256 Y128.06 E.02316
G1 X112.125 Y127.453 E.02313
G1 X112.023 Y126.843 E.02304
G1 X111.957 Y126.283 E.021
G1 X111.908 Y125.632 E.02432
G1 X111.893 Y125.023 E.02269
G1 X111.906 Y124.422 E.02239
G1 X111.948 Y123.806 E.023
G1 X112.014 Y123.227 E.02171
G1 X112.014 Y123.227 F28800
G1 X112.473 Y123.241
;TYPE:External perimeter
G1 F4200
G1 X112.566 Y122.671 E.02151
G1 X112.688 Y122.096 E.02189
G1 X112.836 Y121.526 E.02193
G1 X113.011 Y120.964 E.02192
G1 X113.437 Y119.871 E.04369
G1 X113.69 Y119.333 E.02214
G1 X113.966 Y118.813 E.02193
G1 X114.267 Y118.305 E.02199
G1 X114.59 Y117.813 E.02192
G1 X114.936 Y117.336 E.02195
G1 X115.304 Y116.875 E.02197
G1 X115.693 Y116.432 E.02196
G1 X116.103 Y116.008 E.02197
G1 X116.531 Y115.603 E.02195
G1 X116.979 Y115.218 E.022
G1 X117.443 Y114.855 E.02194
G1 X117.925 Y114.514 E.02199
G1 X118.421 Y114.195 E.02197
G1 X118.932 Y113.901 E.02196
G1 X119.456 Y113.63 E.02197
G1 X119.992 Y113.384 E.02197
G1 X120.539 Y113.163 E.02197
G1 X121.096 Y112.967 E.02199
G1 X121.662 Y112.799 E.02199
G1 X122.234 Y112.656 E.02196
G1 X122.813 Y112.541 E.02199
G1 X123.397 Y112.452 E.022
G1 X123.983 Y112.391 E.02194
G1 X124.573 Y112.357 E.02201
G1 X125.163 Y112.351 E.02198
G1 X125.744 Y112.372 E.02165
G1 X126.341 Y112.422 E.02231
G1 X127.436 Y112.587 E.04124
G1 X128.027 Y112.718 E.02255
G1 X128.6 Y112.873 E.02211
G1 X129.162 Y113.055 E.022
G1 X129.716 Y113.262 E.02203
G1 X130.259 Y113.495 E.02201
G1 X130.791 Y113.754 E.02204
G1 X131.298 Y114.03 E.0215
G1 X131.807 Y114.338 E.02216
G1 X132.305 Y114.672 E.02233
G1 X132.78 Y115.026 E.02206
G1 X133.238 Y115.4 E.02202
G1 X133.677 Y115.795 E.022
G1 X134.097 Y116.21 E.02199
G1 X134.498 Y116.644 E.02201
G1 X134.877 Y117.097 E.022
G1 X135.235 Y117.566 E.02198
G1 X135.571 Y118.052 E.02201
G1 X135.884 Y118.553 E.022
G1 X136.173 Y119.068 E.022
G1 X136.437 Y119.595 E.02195
G1 X136.677 Y120.135 E.02201
G1 X136.891 Y120.685 E.02198
G1 X137.08 Y121.245 E.02201
G1 X137.242 Y121.813 E.022
G1 X137.377 Y122.387 E.02196
G1 X137.478 Y122.921 E.02024
G1 X137.561 Y123.505 E.02197
G1 X137.617 Y124.093 E.022
G1 X137.646 Y124.683 E.022
G1 X137.647 Y125.273 E.02198
G1 X137.62 Y125.863 E.022
G1 X137.566 Y126.451 E.02199
G1 X137.485 Y127.036 E.022
G1 X137.376 Y127.616 E.02198
G1 X137.241 Y128.191 E.022
G1 X137.079 Y128.759 E.022
G1 X136.873 Y129.362 E.02373
G1 X136.656 Y129.912 E.02202
G1 X136.436 Y130.408 E.02021
G1 X135.924 Y131.374 E.04072
G1 X135.615 Y131.878 E.02202
G1 X135.271 Y132.381 E.0227
G1 X134.916 Y132.852 E.02197
G1 X134.533 Y133.314 E.02235
G1 X134.169 Y133.712 E.02009
G1 X133.707 Y134.175 E.02436
G1 X133.258 Y134.582 E.02257
G1 X132.794 Y134.963 E.02236
G1 X132.313 Y135.321 E.02233
G1 X131.816 Y135.656 E.02232
G1 X130.833 Y136.224 E.04229
G1 X130.304 Y136.484 E.02195
G1 X129.762 Y136.719 E.022
G1 X129.21 Y136.929 E.022
G1 X128.649 Y137.112 E.02198
G1 X128.08 Y137.269 E.02199
G1 X127.504 Y137.4 E.022
G1 X126.922 Y137.503 E.02201
G1 X126.337 Y137.579 E.02197
G1 X125.748 Y137.628 E.02201
G1 X125.158 Y137.649 E.02199
G1 X124.568 Y137.643 E.02198
G1 X123.978 Y137.609 E.02201
G1 X123.391 Y137.547 E.02199
G1 X122.74 Y137.446 E.02454
G1 X122.165 Y137.328 E.02186
G1 X121.596 Y137.183 E.02187
G1 X121.035 Y137.012 E.02184
G1 X120.265 Y136.724 E.03062
G1 X119.222 Y136.25 E.04267
G1 X118.746 Y135.993 E.02015
G1 X118.236 Y135.686 E.02217
G1 X117.738 Y135.354 E.02229
G1 X117.256 Y134.999 E.0223
G1 X116.793 Y134.622 E.02224
G1 X116.348 Y134.225 E.02221
G1 X115.924 Y133.807 E.02218
G1 X115.52 Y133.371 E.02214
G1 X115.137 Y132.916 E.02215
G1 X114.776 Y132.444 E.02213
G1 X114.401 Y131.9 E.02461
G1 X114.122 Y131.451 E.01969
G1 X113.738 Y130.757 E.02954
G1 X113.277 Y129.746 E.04139
G1 X113.017 Y129.052 E.0276
G1 X112.852 Y128.525 E.02057
G1 X112.698 Y127.945 E.02235
G1 X112.572 Y127.358 E.02236
G1 X112.474 Y126.769 E.02224
G1 X112.411 Y126.23 E.02021
G1 X112.364 Y125.6 E.02353
G1 X112.35 Y125.012 E.02191
G1 X112.363 Y124.432 E.02161
G1 X112.404 Y123.838 E.02218
G1 X112.466 Y123.301 E.02013
;WIPE_START
G1 F23040
G1 X112.473 Y123.241 E-.00897
G1 X112.566 Y122.671 E-.08573
G1 X112.688 Y122.096 E-.08725
G1 X112.836 Y121.526 E-.08741
G1 X113.011 Y120.964 E-.08737
G1 X113.437 Y119.871 E-.17413
G1 X113.69 Y119.333 E-.08825
G1 X113.966 Y118.813 E-.08739
G1 X114.267 Y118.305 E-.08765
G1 X114.59 Y117.813 E-.08736
G1 X114.936 Y117.336 E-.08747
G1 X115.304 Y116.875 E-.08756
G1 X115.693 Y116.432 E-.08751
G1 X116.103 Y116.008 E-.08755
G1 X116.531 Y115.603 E-.08747
G1 X116.979 Y115.218 E-.08768
G1 X117.443 Y114.855 E-.08745
G1 X117.925 Y114.514 E-.08764
G1 X118.421 Y114.195 E-.08754
G1 X118.932 Y113.901 E-.08751
G1 X119.456 Y113.63 E-.08757
G1 X119.992 Y113.384 E-.08754
G1 X120.417 Y113.212 E-.068
;WIPE_END
G1 Z.6 F28800
G1 X143.356 Y116.881
G1 Z.2
G1 E2 F1800
;TYPE:Perimeter
G1 F6300
G1 X143.337 Y116.906 E.00117
G1 X142.978 Y117.415 E.0232
G1 X142.643 Y117.94 E.0232
G1 X142.332 Y118.479 E.02318
G1 X142.047 Y119.031 E.02314
G1 X141.81 Y119.544 E.02105
G1 X141.407 Y120.583 E.04151
G1 X141.223 Y121.162 E.02263
G1 X141.065 Y121.75 E.02268
G1 X140.933 Y122.34 E.02252
G1 X140.836 Y122.891 E.02084
G1 X140.754 Y123.499 E.02285
G1 X140.701 Y124.109 E.02281
G1 X140.674 Y124.717 E.02267
G1 X140.675 Y125.333 E.02294
G1 X140.704 Y125.949 E.02297
G1 X140.761 Y126.561 E.02289
G1 X140.845 Y127.171 E.02293
G1 X140.957 Y127.776 E.02292
G1 X141.097 Y128.377 E.02298
G1 X141.266 Y128.98 E.02332
G1 X141.431 Y129.485 E.01979
G1 X141.645 Y130.056 E.02271
G1 X142.091 Y131.055 E.04075
G1 X142.375 Y131.598 E.02282
G1 X142.659 Y132.087 E.02106
G1 X142.995 Y132.611 E.02318
G1 X143.362 Y133.128 E.02361
G1 X143.775 Y133.653 E.02488
G1 X144.145 Y134.085 E.02119
G1 X144.969 Y134.943 E.04431
G1 X145.134 Y135.143 E.00966
G1 X145.377 Y135.577 E.01853
G1 X145.441 Y136.008 E.01623
G1 X145.348 Y136.476 E.01777
G1 X145.109 Y136.904 E.01826
G1 X144.775 Y137.185 E.01626
G1 X144.329 Y137.352 E.01774
G1 X143.848 Y137.374 E.01793
G1 X142.406 Y137.03 E.05522
G1 X141.178 Y136.833 E.04632
G1 X140.558 Y136.777 E.02319
G1 X139.936 Y136.749 E.02319
G1 X139.217 Y136.754 E.02678
G1 X138.661 Y136.781 E.02073
G1 X137.994 Y136.847 E.02496
G1 X137.388 Y136.934 E.0228
G1 X136.783 Y137.05 E.02294
G1 X136.185 Y137.194 E.02291
G1 X135.6 Y137.359 E.02264
G1 X135.019 Y137.554 E.02283
G1 X134.447 Y137.775 E.02284
G1 X133.886 Y138.021 E.02282
G1 X133.334 Y138.294 E.02294
G1 X132.799 Y138.591 E.02279
G1 X132.314 Y138.885 E.02112
G1 X131.797 Y139.231 E.02317
G1 X131.297 Y139.602 E.02319
G1 X130.813 Y139.995 E.02322
G1 X130.308 Y140.448 E.02527
G1 X129.905 Y140.843 E.02102
G1 X129.48 Y141.298 E.02319
G1 X129.077 Y141.772 E.02317
G1 X128.695 Y142.264 E.0232
G1 X128.337 Y142.773 E.02318
G1 X128.001 Y143.301 E.02331
G1 X127.692 Y143.837 E.02304
G1 X127.406 Y144.39 E.02319
G1 X127.142 Y144.966 E.0236
G1 X126.894 Y145.586 E.02487
G1 X126.705 Y146.123 E.0212
G1 X126.307 Y147.461 E.05199
G1 X126.139 Y147.782 E.01349
G1 X125.812 Y148.126 E.01768
G1 X125.528 Y148.284 E.0121
G1 X125.089 Y148.377 E.01671
G1 X124.612 Y148.333 E.01784
G1 X124.212 Y148.132 E.01667
G1 X123.962 Y147.907 E.01253
G1 X123.709 Y147.512 E.01747
G1 X123.284 Y146.089 E.05531
G1 X122.841 Y144.927 E.04632
G1 X122.58 Y144.362 E.02318
G1 X122.293 Y143.809 E.02321
G1 X121.982 Y143.271 E.02315
G1 X121.678 Y142.796 E.02101
G1 X121.286 Y142.239 E.02537
G1 X120.903 Y141.748 E.02319
G1 X120.499 Y141.275 E.02317
G1 X120.073 Y140.821 E.02319
G1 X119.627 Y140.387 E.02318
G1 X119.162 Y139.974 E.02316
G1 X118.545 Y139.484 E.02935
G1 X117.85 Y138.995 E.03165
G1 X117.333 Y138.669 E.02276
G1 X116.8 Y138.368 E.0228
G1 X116.257 Y138.092 E.02269
G1 X115.7 Y137.839 E.02279
G1 X114.655 Y137.444 E.04161
G1 X114.076 Y137.266 E.02256
G1 X113.491 Y137.113 E.02252
G1 X112.9 Y136.987 E.02251
G1 X112.31 Y136.889 E.02228
G1 X111.22 Y136.773 E.04083
G1 X110.652 Y136.749 E.02117
G1 X110.033 Y136.75 E.02306
G1 X109.411 Y136.779 E.02319
G1 X108.789 Y136.837 E.02327
G1 X108.119 Y136.933 E.02521
G1 X107.559 Y137.038 E.02122
G1 X106.288 Y137.341 E.04867
G1 X106.007 Y137.379 E.01056
G1 X105.521 Y137.321 E.01823
G1 X105.225 Y137.186 E.01212
G1 X104.883 Y136.876 E.01719
G1 X104.644 Y136.478 E.01729
G1 X104.569 Y136.03 E.01692
G1 X104.63 Y135.561 E.01762
G1 X104.847 Y135.15 E.01731
G1 X105.855 Y134.085 E.05462
G1 X106.244 Y133.63 E.0223
G1 X106.663 Y133.094 E.02534
G1 X107.022 Y132.585 E.0232
G1 X107.357 Y132.06 E.0232
G1 X107.722 Y131.417 E.02754
G1 X108.19 Y130.456 E.03981
G1 X108.448 Y129.826 E.02536
G1 X108.67 Y129.19 E.02509
G1 X108.845 Y128.607 E.02267
G1 X108.993 Y128.016 E.02269
G1 X109.115 Y127.42 E.02266
G1 X109.21 Y126.815 E.02281
G1 X109.277 Y126.209 E.02271
G1 X109.32 Y125.577 E.02359
G1 X109.332 Y124.956 E.02313
G1 X109.318 Y124.378 E.02153
G1 X109.276 Y123.769 E.02274
G1 X109.206 Y123.153 E.02309
G1 X109.108 Y122.538 E.0232
G1 X108.981 Y121.929 E.02317
G1 X108.827 Y121.326 E.02318
G1 X108.642 Y120.722 E.02353
G1 X108.436 Y120.144 E.02285
G1 X108.201 Y119.568 E.02317
G1 X107.939 Y119.001 E.02326
G1 X107.625 Y118.402 E.02519
G1 X107.341 Y117.913 E.02106
G1 X107.005 Y117.389 E.02318
G1 X106.638 Y116.872 E.02361
G1 X106.225 Y116.347 E.02488
G1 X105.855 Y115.915 E.02119
G1 X105.031 Y115.057 E.04431
G1 X104.769 Y114.734 E.01549
G1 X104.588 Y114.289 E.01789
G1 X104.577 Y113.847 E.01647
G1 X104.657 Y113.516 E.01268
G1 X104.89 Y113.097 E.01786
G1 X105.225 Y112.815 E.01631
G1 X105.671 Y112.648 E.01774
G1 X106.152 Y112.626 E.01793
G1 X107.594 Y112.97 E.05522
G1 X108.823 Y113.167 E.04636
G1 X109.442 Y113.223 E.02315
G1 X110.064 Y113.251 E.02319
G1 X110.686 Y113.25 E.02317
G1 X111.308 Y113.221 E.02319
G1 X111.928 Y113.164 E.02319
G1 X112.544 Y113.078 E.02317
G1 X113.155 Y112.965 E.02314
G1 X113.705 Y112.837 E.02103
G1 X114.361 Y112.654 E.02537
G1 X114.951 Y112.457 E.02317
G1 X115.532 Y112.234 E.02318
G1 X116.102 Y111.984 E.02318
G1 X116.66 Y111.709 E.02317
G1 X117.204 Y111.409 E.02314
G1 X117.686 Y111.115 E.02103
G1 X118.203 Y110.769 E.02317
G1 X118.703 Y110.398 E.02319
G1 X119.187 Y110.005 E.02322
G1 X119.692 Y109.552 E.02527
G1 X120.095 Y109.157 E.02102
G1 X120.52 Y108.702 E.02319
G1 X120.923 Y108.228 E.02317
G1 X121.305 Y107.736 E.0232
G1 X121.663 Y107.227 E.02318
G1 X121.999 Y106.7 E.02328
G1 X122.308 Y106.163 E.02308
G1 X122.594 Y105.61 E.02319
G1 X122.858 Y105.034 E.0236
G1 X123.106 Y104.414 E.02487
G1 X123.295 Y103.877 E.0212
G1 X123.668 Y102.624 E.04869
G1 X123.776 Y102.341 E.01128
G1 X124.057 Y101.995 E.0166
G1 X124.329 Y101.795 E.01257
G1 X124.76 Y101.632 E.01716
G1 X125.235 Y101.64 E.01769
G1 X125.686 Y101.793 E.01774
G1 X126.038 Y102.093 E.01723
G1 X126.291 Y102.488 E.01747
G1 X126.716 Y103.911 E.05531
G1 X127.159 Y105.073 E.04632
G1 X127.42 Y105.638 E.02318
G1 X127.707 Y106.191 E.02321
G1 X128.085 Y106.834 E.02778
G1 X128.425 Y107.35 E.02302
G1 X128.776 Y107.841 E.02248
G1 X129.51 Y108.734 E.04305
G1 X129.93 Y109.182 E.02287
G1 X130.373 Y109.613 E.02302
G1 X130.838 Y110.026 E.02316
G1 X131.322 Y110.418 E.0232
G1 X131.823 Y110.787 E.02318
G1 X132.339 Y111.131 E.0231
G1 X132.84 Y111.434 E.02181
G1 X133.378 Y111.729 E.02285
G1 X133.929 Y111.999 E.02285
G1 X134.497 Y112.246 E.02307
G1 X135.078 Y112.468 E.02317
G1 X135.669 Y112.663 E.02318
G1 X136.268 Y112.831 E.02317
G1 X136.875 Y112.971 E.0232
G1 X137.487 Y113.083 E.02317
G1 X138.106 Y113.168 E.02327
G1 X138.78 Y113.227 E.0252
G1 X139.349 Y113.251 E.02121
G1 X139.967 Y113.25 E.02302
G1 X140.589 Y113.221 E.02319
G1 X141.211 Y113.163 E.02327
G1 X141.881 Y113.067 E.02521
G1 X142.441 Y112.962 E.02122
G1 X143.712 Y112.659 E.04867
G1 X143.993 Y112.621 E.01056
G1 X144.479 Y112.679 E.01823
G1 X144.775 Y112.814 E.01212
G1 X145.117 Y113.124 E.01719
G1 X145.356 Y113.522 E.01729
G1 X145.431 Y113.968 E.01685
G1 X145.37 Y114.439 E.01769
G1 X145.153 Y114.85 E.01731
G1 X144.122 Y115.941 E.05591
G1 X143.756 Y116.37 E.021
G1 X143.393 Y116.834 E.02194
G1 X143.717 Y117.162 F28800
;TYPE:External perimeter
G1 F4200
G1 X143.71 Y117.17 E.0004
G1 X143.363 Y117.662 E.02242
G1 X143.039 Y118.168 E.02238
G1 X142.738 Y118.689 E.02241
G1 X142.462 Y119.223 E.02239
G1 X142.233 Y119.717 E.02028
G1 X141.838 Y120.736 E.04071
G1 X141.66 Y121.295 E.02185
G1 X141.508 Y121.862 E.02186
G1 X141.381 Y122.432 E.02175
G1 X141.208 Y123.551 E.04217
G1 X141.157 Y124.14 E.02202
G1 X141.131 Y124.727 E.02188
G1 X141.132 Y125.323 E.0222
G1 X141.16 Y125.919 E.02222
G1 X141.215 Y126.51 E.02211
G1 X141.297 Y127.099 E.02215
G1 X141.405 Y127.684 E.02216
G1 X141.54 Y128.264 E.02218
G1 X141.704 Y128.847 E.02256
G1 X142.068 Y129.883 E.0409
G1 X142.496 Y130.843 E.03915
G1 X142.771 Y131.369 E.02211
G1 X143.044 Y131.841 E.02031
G1 X143.369 Y132.347 E.0224
G1 X143.723 Y132.847 E.02282
G1 X144.122 Y133.356 E.02409
G1 X144.477 Y133.771 E.02034
G1 X145.298 Y134.627 E.04418
G1 X145.623 Y135.025 E.01914
G1 X145.809 Y135.421 E.0163
G1 X145.901 Y136.015 E.02239
G1 X145.847 Y136.443 E.01607
G1 X145.708 Y136.823 E.01507
G1 X145.469 Y137.189 E.01628
G1 X145.012 Y137.58 E.0224
G1 X144.619 Y137.76 E.0161
G1 X144.223 Y137.841 E.01505
G1 X143.789 Y137.83 E.01617
G1 X142.323 Y137.48 E.05614
G1 X141.136 Y137.288 E.04479
G1 X140.537 Y137.233 E.0224
G1 X139.936 Y137.206 E.02241
G1 X139.238 Y137.211 E.026
G1 X138.703 Y137.237 E.01995
G1 X138.057 Y137.3 E.02418
G1 X137.471 Y137.384 E.02205
G1 X136.886 Y137.495 E.02218
G1 X136.308 Y137.634 E.02214
G1 X135.744 Y137.793 E.02183
G1 X135.183 Y137.981 E.02204
G1 X134.63 Y138.194 E.02207
G1 X134.088 Y138.432 E.02205
G1 X133.553 Y138.695 E.0222
G1 X133.035 Y138.982 E.02206
G1 X132.568 Y139.264 E.02032
G1 X132.069 Y139.599 E.02239
G1 X131.585 Y139.957 E.02242
G1 X131.118 Y140.336 E.0224
G1 X130.628 Y140.775 E.0245
G1 X130.239 Y141.156 E.02028
G1 X129.828 Y141.595 E.0224
G1 X129.438 Y142.053 E.02241
G1 X129.069 Y142.528 E.0224
G1 X128.722 Y143.019 E.02239
G1 X128.396 Y143.529 E.02254
G1 X128.098 Y144.047 E.02226
G1 X127.821 Y144.581 E.02241
G1 X127.566 Y145.138 E.02282
G1 X127.325 Y145.738 E.02408
G1 X127.143 Y146.253 E.02034
G1 X126.715 Y147.693 E.05595
G1 X126.399 Y148.207 E.02247
G1 X126.082 Y148.499 E.01605
G1 X125.705 Y148.709 E.01607
G1 X125.316 Y148.821 E.01508
G1 X124.911 Y148.846 E.01511
G1 X124.485 Y148.775 E.01609
G1 X124.111 Y148.621 E.01506
G1 X123.76 Y148.371 E.01605
G1 X123.476 Y148.046 E.01608
G1 X123.284 Y147.687 E.01516
G1 X122.854 Y146.242 E.05615
G1 X122.426 Y145.118 E.0448
G1 X122.174 Y144.572 E.0224
G1 X121.897 Y144.038 E.02241
G1 X121.597 Y143.517 E.02239
G1 X121.303 Y143.058 E.0203
G1 X120.925 Y142.519 E.02452
G1 X120.556 Y142.045 E.02237
G1 X120.165 Y141.587 E.02243
G1 X119.754 Y141.148 E.0224
G1 X119.323 Y140.728 E.02241
G1 X118.874 Y140.329 E.02237
G1 X118.385 Y139.934 E.02341
G1 X117.923 Y139.593 E.02139
G1 X117.423 Y139.259 E.0224
G1 X116.958 Y138.976 E.02027
G1 X116.431 Y138.687 E.02239
G1 X115.891 Y138.421 E.02242
G1 X115.34 Y138.181 E.02238
G1 X114.778 Y137.966 E.02241
G1 X114.207 Y137.777 E.0224
G1 X113.628 Y137.615 E.02239
G1 X113.042 Y137.479 E.02241
G1 X112.451 Y137.37 E.02238
G1 X111.854 Y137.288 E.02244
G1 X111.199 Y137.23 E.02449
G1 X110.652 Y137.206 E.02039
G1 X110.054 Y137.206 E.02227
G1 X109.453 Y137.234 E.02241
G1 X108.853 Y137.29 E.02244
G1 X108.203 Y137.382 E.02445
G1 X107.666 Y137.482 E.02035
G1 X106.21 Y137.83 E.05576
G1 X105.804 Y137.842 E.01513
G1 X105.38 Y137.759 E.01609
G1 X104.988 Y137.58 E.01605
G1 X104.667 Y137.334 E.01506
G1 X104.393 Y137 E.01609
G1 X104.212 Y136.637 E.01511
G1 X104.115 Y136.244 E.01508
G1 X104.109 Y135.812 E.01609
G1 X104.194 Y135.415 E.01512
G1 X104.49 Y134.861 E.02339
G1 X105.523 Y133.771 E.05593
G1 X105.884 Y133.348 E.02071
G1 X106.29 Y132.83 E.02451
G1 X106.637 Y132.338 E.02242
G1 X106.961 Y131.832 E.02238
G1 X107.262 Y131.311 E.02241
G1 X107.538 Y130.777 E.02239
G1 X107.767 Y130.283 E.02028
G1 X108.017 Y129.674 E.02452
G1 X108.233 Y129.057 E.02435
G1 X108.402 Y128.494 E.02189
G1 X108.545 Y127.924 E.02189
G1 X108.664 Y127.348 E.02191
G1 X108.756 Y126.763 E.02206
G1 X108.821 Y126.178 E.02192
G1 X108.863 Y125.567 E.02281
G1 X108.875 Y124.967 E.02235
G1 X108.861 Y124.408 E.02083
G1 X108.822 Y123.82 E.02195
G1 X108.755 Y123.225 E.0223
G1 X108.66 Y122.631 E.02241
G1 X108.538 Y122.042 E.0224
G1 X108.389 Y121.459 E.02241
G1 X108.211 Y120.874 E.02278
G1 X108.013 Y120.317 E.02202
G1 X107.786 Y119.76 E.0224
G1 X107.533 Y119.213 E.02245
G1 X107.229 Y118.631 E.02446
G1 X106.956 Y118.159 E.02031
G1 X106.631 Y117.653 E.0224
G1 X106.277 Y117.153 E.02282
G1 X105.878 Y116.644 E.02409
G1 X105.523 Y116.229 E.02034
G1 X104.702 Y115.373 E.04418
G1 X104.377 Y114.975 E.01914
G1 X104.191 Y114.579 E.0163
G1 X104.099 Y113.985 E.02239
G1 X104.153 Y113.557 E.01607
G1 X104.304 Y113.154 E.01603
G1 X104.531 Y112.811 E.01532
G1 X104.988 Y112.42 E.0224
G1 X105.381 Y112.24 E.0161
G1 X105.777 Y112.159 E.01505
G1 X106.211 Y112.17 E.01617
G1 X107.677 Y112.52 E.05614
G1 X108.864 Y112.712 E.04479
G1 X109.463 Y112.767 E.0224
G1 X110.064 Y112.794 E.02241
G1 X110.666 Y112.794 E.02242
G1 X111.266 Y112.766 E.02237
G1 X111.865 Y112.711 E.0224
G1 X112.461 Y112.629 E.02241
G1 X113.052 Y112.519 E.02239
G1 X113.583 Y112.396 E.0203
G1 X114.217 Y112.22 E.02451
G1 X114.788 Y112.03 E.02241
G1 X115.349 Y111.815 E.02238
G1 X115.901 Y111.574 E.02243
G1 X116.44 Y111.308 E.02239
G1 X116.966 Y111.019 E.02235
G1 X117.432 Y110.736 E.02031
G1 X117.931 Y110.401 E.02239
G1 X118.415 Y110.043 E.02242
G1 X118.882 Y109.664 E.0224
G1 X119.372 Y109.225 E.0245
G1 X119.761 Y108.844 E.02028
G1 X120.172 Y108.405 E.0224
G1 X120.562 Y107.947 E.02241
G1 X120.931 Y107.472 E.0224
G1 X121.278 Y106.981 E.02239
G1 X121.603 Y106.471 E.02252
G1 X121.902 Y105.953 E.02228
G1 X122.179 Y105.419 E.02241
G1 X122.434 Y104.862 E.02282
G1 X122.675 Y104.261 E.02412
G1 X122.857 Y103.747 E.02031
G1 X123.285 Y102.307 E.05595
G1 X123.601 Y101.793 E.02247
G1 X123.918 Y101.501 E.01605
G1 X124.295 Y101.291 E.01607
G1 X124.683 Y101.179 E.01504
G1 X125.115 Y101.155 E.01612
G1 X125.513 Y101.224 E.01505
G1 X125.911 Y101.392 E.01609
G1 X126.239 Y101.629 E.01507
G1 X126.524 Y101.954 E.0161
G1 X126.716 Y102.313 E.01516
G1 X127.146 Y103.758 E.05615
G1 X127.574 Y104.882 E.0448
G1 X127.826 Y105.428 E.0224
G1 X128.103 Y105.962 E.02241
G1 X128.471 Y106.588 E.02705
G1 X129.137 Y107.56 E.04389
G1 X129.844 Y108.422 E.04152
G1 X130.249 Y108.855 E.02208
G1 X130.677 Y109.272 E.02226
G1 X131.126 Y109.671 E.02237
G1 X131.593 Y110.05 E.0224
G1 X132.077 Y110.407 E.0224
G1 X132.577 Y110.741 E.0224
G1 X133.06 Y111.033 E.02102
G1 X133.58 Y111.318 E.02209
G1 X134.112 Y111.58 E.02209
G1 X134.66 Y111.819 E.02227
G1 X135.222 Y112.034 E.02241
G1 X135.793 Y112.223 E.0224
G1 X136.372 Y112.385 E.02239
G1 X136.958 Y112.521 E.02241
G1 X137.549 Y112.63 E.02238
G1 X138.146 Y112.712 E.02244
G1 X138.801 Y112.77 E.02449
G1 X139.348 Y112.794 E.02039
G1 X139.946 Y112.794 E.02227
G1 X140.547 Y112.766 E.02241
G1 X141.147 Y112.71 E.02244
G1 X141.797 Y112.618 E.02445
G1 X142.334 Y112.518 E.02035
G1 X143.79 Y112.17 E.05576
G1 X144.196 Y112.158 E.01513
G1 X144.62 Y112.241 E.01609
G1 X144.816 Y112.331 E.00803
G1 X145.171 Y112.543 E.0154
G1 X145.462 Y112.824 E.01507
G1 X145.698 Y113.183 E.016
G1 X145.836 Y113.557 E.01485
G1 X145.888 Y113.962 E.01521
G1 X145.891 Y114.188 E.00842
G1 X145.806 Y114.585 E.01512
G1 X145.51 Y115.139 E.02339
G1 X144.469 Y116.238 E.05638
G1 X144.116 Y116.652 E.02026
G1 X143.754 Y117.114 E.02186
;WIPE_START
G1 F23040
G1 X143.717 Y117.162 E-.009
G1 X143.71 Y117.17 E-.00158
G1 X143.363 Y117.662 E-.08937
G1 X143.039 Y118.168 E-.08919
G1 X142.738 Y118.689 E-.08931
G1 X142.462 Y119.223 E-.08923
G1 X142.233 Y119.717 E-.08082
G1 X141.838 Y120.736 E-.16222
G1 X141.66 Y121.295 E-.08708
G1 X141.508 Y121.862 E-.08714
G1 X141.381 Y122.432 E-.08668
G1 X141.208 Y123.551 E-.16807
G1 X141.157 Y124.14 E-.08776
G1 X141.131 Y124.727 E-.08722
G1 X141.132 Y125.323 E-.08847
G1 X141.16 Y125.919 E-.08857
G1 X141.215 Y126.51 E-.08811
G1 X141.297 Y127.099 E-.08827
G1 X141.405 Y127.684 E-.0883
G1 X141.54 Y128.264 E-.0884
G1 X141.704 Y128.847 E-.0899
G1 X142.068 Y129.883 E-.163
G1 X142.074 Y129.897 E-.00231
;WIPE_END
G1 Z.6 F28800
G1 X143.684 Y112.806
G1 Z.2
G1 E2 F1800
;TYPE:Solid infill
;WIDTH:0.502582
G1 F5250
G1 X145.072 Y114.194 E.07352
G1 X145.043 Y114.33 E.00521
G1 X144.936 Y114.561 E.00954
G1 X144.874 Y114.646 E.00394
G1 X143.33 Y113.102 E.08179
G1 X142.805 Y113.228 E.02022
G1 X144.558 Y114.98 E.09283
G1 X144.242 Y115.314 E.01722
G1 X142.27 Y113.343 E.10443
G1 X141.715 Y113.437 E.02108
G1 X143.926 Y115.648 E.11712
G1 X143.624 Y115.996 E.01726
G1 X141.141 Y113.514 E.1315
G1 X140.544 Y113.566 E.02245
G1 X143.333 Y116.355 E.14774
G1 X143.049 Y116.721 E.01735
G1 X139.92 Y113.593 E.16572
G1 X139.269 Y113.592 E.02438
G1 X142.779 Y117.102 E.18593
G1 X142.521 Y117.494 E.01758
G1 X138.581 Y113.554 E.20871
G1 X137.857 Y113.48 E.02726
G1 X142.273 Y117.896 E.23392
G1 X142.035 Y118.308 E.01782
G1 X137.085 Y113.358 E.26221
G1 X136.257 Y113.18 E.03172
G1 X141.813 Y118.736 E.29431
G1 X141.603 Y119.176 E.01826
G1 X135.343 Y112.916 E.3316
G1 X134.963 Y112.79 E.015
G1 X134.319 Y112.542 E.02585
G1 X141.405 Y119.629 E.37538
G1 X141.219 Y120.092 E.01869
G1 X132.542 Y111.415 E.45964
;WIPE_START
G1 F23040
G1 X141.219 Y120.092 E-1.8215
G1 X141.405 Y119.629 E-.07406
G1 X140.908 Y119.131 E-.10444
;WIPE_END
G1 Z.6 F28800
G1 X126.395 Y103.318
G1 Z.2
G1 E2 F1800
G1 F5250
G1 X125.038 Y101.961 E.07188
G1 X124.818 Y101.973 E.00825
G1 X124.605 Y102.034 E.0083
G1 X124.513 Y102.086 E.00396
G1 X126.365 Y103.938 E.0981
G1 X126.578 Y104.549 E.02424
G1 X126.747 Y104.97 E.01699
G1 X124.163 Y102.386 E.13688
G1 X124.034 Y102.595 E.0092
G1 X123.963 Y102.836 E.00941
G1 X127.865 Y106.738 E.2067
;WIPE_START
G1 F23040
G1 X123.963 Y102.836 E-.81912
G1 X124.034 Y102.595 E-.03729
G1 X124.163 Y102.386 E-.03646
G1 X126.747 Y104.97 E-.54244
G1 X126.578 Y104.549 E-.06734
G1 X126.365 Y103.938 E-.09605
G1 X124.513 Y102.086 E-.38878
G1 X124.586 Y102.045 E-.01252
;WIPE_END
G1 Z.6 F28800
G1 X123.648 Y103.171
G1 Z.2
G1 E2 F1800
G1 F5250
G1 X141.048 Y120.571 E.92171
G1 X140.894 Y121.067 E.01945
G1 X123.665 Y103.838 E.91265
G1 X123.501 Y104.324 E.01921
G1 X140.755 Y121.578 E.91397
G1 X140.632 Y122.106 E.02031
G1 X136.406 Y117.88 E.22386
G1 X135.883 Y117.097 E.03527
G1 X135.502 Y116.597 E.02355
G1 X135.097 Y116.115 E.02358
G1 X134.67 Y115.652 E.02359
G1 X134.221 Y115.209 E.02363
G1 X133.752 Y114.787 E.02363
G1 X133.262 Y114.387 E.02369
G1 X132.769 Y114.021 E.023
G1 X132.119 Y113.592 E.02917
G1 X123.324 Y104.797 E.46589
G1 X123.133 Y105.257 E.01866
G1 X130.695 Y112.818 E.40055
G1 X130.008 Y112.518 E.02808
G1 X129.586 Y112.36 E.01688
G1 X122.929 Y105.702 E.35266
G1 X122.709 Y106.132 E.01809
G1 X128.629 Y112.053 E.31362
G1 X127.767 Y111.841 E.03325
G1 X122.479 Y106.553 E.28011
G1 X122.239 Y106.963 E.01779
G1 X126.975 Y111.698 E.25085
G1 X126.237 Y111.611 E.02783
G1 X121.985 Y107.359 E.22524
G1 X121.719 Y107.743 E.0175
G1 X125.542 Y111.565 E.20248
G1 X124.881 Y111.555 E.02476
G1 X121.443 Y108.117 E.18212
G1 X121.157 Y108.481 E.01734
G1 X124.251 Y111.575 E.16389
G1 X123.648 Y111.622 E.02265
G1 X120.859 Y108.833 E.14774
G1 X120.549 Y109.173 E.01723
G1 X123.069 Y111.693 E.13349
G1 X122.511 Y111.785 E.02118
G1 X120.23 Y109.504 E.12083
G1 X119.901 Y109.825 E.01722
G1 X121.973 Y111.897 E.10976
G1 X121.453 Y112.027 E.02008
G1 X119.558 Y110.133 E.10035
G1 X119.206 Y110.431 E.01728
G1 X120.952 Y112.176 E.09246
G1 X120.467 Y112.341 E.01919
G1 X118.845 Y110.719 E.08592
G1 X118.472 Y110.996 E.0174
G1 X119.996 Y112.52 E.08073
G1 X119.538 Y112.712 E.0186
G1 X118.085 Y111.26 E.07694
G1 X117.69 Y111.514 E.01759
G1 X119.093 Y112.917 E.07432
G1 X118.664 Y113.139 E.01809
G1 X117.282 Y111.757 E.07321
G1 X116.863 Y111.988 E.01792
G1 X118.248 Y113.372 E.07334
G1 X117.842 Y113.617 E.01776
G1 X116.43 Y112.205 E.0748
G1 X115.983 Y112.408 E.01839
G1 X117.447 Y113.872 E.07755
G1 X117.067 Y114.142 E.01746
G1 X115.525 Y112.6 E.08168
G1 X115.05 Y112.775 E.01896
G1 X116.698 Y114.423 E.0873
G1 X116.339 Y114.714 E.01731
G1 X114.569 Y112.944 E.09376
G1 X114.067 Y113.092 E.0196
G1 X115.99 Y115.015 E.10186
G1 X115.655 Y115.33 E.01722
G1 X113.55 Y113.225 E.11151
G1 X113.014 Y113.339 E.02053
G1 X115.331 Y115.656 E.12274
G1 X115.017 Y115.992 E.01723
G1 X112.461 Y113.436 E.1354
G1 X111.887 Y113.513 E.02169
G1 X114.712 Y116.337 E.14962
G1 X114.422 Y116.698 E.01734
G1 X111.291 Y113.566 E.16588
G1 X110.668 Y113.594 E.02336
G1 X114.143 Y117.068 E.18405
G1 X113.873 Y117.449 E.01749
G1 X110.017 Y113.593 E.20426
G1 X109.333 Y113.558 E.02565
G1 X113.615 Y117.84 E.22682
G1 X113.372 Y118.247 E.01776
G1 X108.608 Y113.483 E.25236
G1 X107.837 Y113.363 E.02923
G1 X113.14 Y118.665 E.28088
G1 X112.919 Y119.094 E.01808
G1 X107.007 Y113.183 E.31314
G1 X106.153 Y112.979 E.03289
G1 X112.71 Y119.536 E.34734
G1 X112.528 Y120.003 E.01877
G1 X105.562 Y113.037 E.369
G1 X105.404 Y113.109 E.0065
G1 X105.175 Y113.301 E.01119
G1 X112.345 Y120.471 E.37981
G1 X112.177 Y120.953 E.01912
G1 X104.946 Y113.722 E.38304
G1 X104.904 Y113.994 E.01031
G1 X104.949 Y114.312 E.01203
G1 X105.006 Y114.432 E.00498
G1 X112.029 Y121.455 E.37202
G1 X111.896 Y121.972 E.02
G1 X107.59 Y117.666 E.2281
G1 X107.929 Y118.243 E.02507
G1 X108.352 Y119.078 E.03506
G1 X111.783 Y122.509 E.18175
G1 X111.692 Y123.068 E.02121
G1 X108.818 Y120.195 E.15221
G1 X109.135 Y121.161 E.03808
G1 X111.621 Y123.647 E.13169
G1 X111.573 Y124.249 E.02262
G1 X109.352 Y122.029 E.11762
G1 X109.501 Y122.827 E.03041
G1 X111.553 Y124.879 E.1087
G1 X111.563 Y125.539 E.02472
G1 X109.599 Y123.575 E.10404
G1 X109.654 Y124.28 E.02649
G1 X111.607 Y126.234 E.10348
G1 X111.698 Y126.974 E.02793
G1 X109.675 Y124.951 E.10716
G1 X109.662 Y125.589 E.0239
G1 X111.841 Y127.768 E.11543
G1 X112.05 Y128.626 E.03308
G1 X109.621 Y126.198 E.12864
G1 X109.558 Y126.785 E.02211
G1 X112.365 Y129.592 E.14869
G1 X112.531 Y130.035 E.01772
G1 X112.833 Y130.709 E.02766
G1 X109.293 Y127.17 E.18749
;WIPE_START
G1 F23040
G1 X112.833 Y130.709 E-.74302
G1 X112.531 Y130.035 E-.10963
G1 X112.365 Y129.592 E-.07022
G1 X109.558 Y126.785 E-.58925
G1 X109.621 Y126.198 E-.08763
G1 X111.528 Y128.105 E-.40025
;WIPE_END
G1 Z.6 F28800
G1 X140.707 Y122.83
G1 Z.2
G1 E2 F1800
G1 F5250
G1 X137.185 Y119.309 E.18654
G1 X137.426 Y119.853 E.02229
G1 X137.644 Y120.418 E.02268
G1 X140.442 Y123.215 E.14819
G1 X140.379 Y123.802 E.02211
G1 X137.947 Y121.37 E.12883
G1 X138.162 Y122.235 E.03339
G1 X140.339 Y124.412 E.11532
G1 X140.325 Y125.049 E.02387
G1 X138.299 Y123.023 E.10732
G1 X138.389 Y123.762 E.02788
G1 X140.345 Y125.719 E.10364
G1 X140.401 Y126.425 E.02653
G1 X138.435 Y124.459 E.10414
G1 X138.446 Y125.12 E.02476
G1 X140.499 Y127.173 E.10875
G1 X140.648 Y127.972 E.03044
G1 X138.426 Y125.749 E.11773
G1 X138.378 Y126.352 E.02266
G1 X140.866 Y128.84 E.13179
G1 X141.018 Y129.342 E.01965
G1 X141.183 Y129.807 E.01848
G1 X138.307 Y126.931 E.15235
G1 X138.214 Y127.488 E.02115
G1 X141.649 Y130.923 E.18196
G1 X142.071 Y131.757 E.03501
G1 X142.41 Y132.335 E.0251
G1 X138.101 Y128.025 E.22828
G1 X137.971 Y128.545 E.02008
G1 X144.994 Y135.568 E.37202
G1 X145.051 Y135.688 E.00498
G1 X145.096 Y136.006 E.01203
G1 X145.055 Y136.279 E.01034
G1 X137.824 Y129.048 E.38304
G1 X137.66 Y129.534 E.01921
G1 X144.825 Y136.699 E.37954
G1 X144.596 Y136.891 E.01119
G1 X144.438 Y136.963 E.0065
G1 X137.48 Y130.004 E.3686
G1 X137.287 Y130.461 E.01858
G1 X143.847 Y137.021 E.34749
G1 X142.993 Y136.817 E.03289
G1 X137.08 Y130.905 E.31319
G1 X136.861 Y131.336 E.01811
G1 X142.163 Y136.637 E.28083
G1 X141.392 Y136.517 E.02923
G1 X136.629 Y131.753 E.25233
G1 X136.383 Y132.158 E.01775
G1 X140.667 Y136.442 E.22693
G1 X139.982 Y136.407 E.02569
G1 X136.126 Y132.55 E.20429
G1 X135.86 Y132.934 E.0175
G1 X139.331 Y136.406 E.18389
G1 X138.709 Y136.434 E.02332
G1 X135.578 Y133.303 E.16585
G1 X135.286 Y133.661 E.0173
G1 X138.113 Y136.488 E.14975
G1 X137.539 Y136.564 E.02169
G1 X134.984 Y134.009 E.13534
G1 X134.671 Y134.346 E.01723
G1 X136.985 Y136.66 E.12258
G1 X136.45 Y136.775 E.0205
G1 X134.344 Y134.669 E.11156
G1 X134.008 Y134.983 E.01723
G1 X135.933 Y136.908 E.10197
G1 X135.43 Y137.055 E.01963
G1 X133.662 Y135.287 E.09365
G1 X133.304 Y135.579 E.0173
G1 X134.942 Y137.217 E.08677
G1 X134.472 Y137.397 E.01885
G1 X132.932 Y135.857 E.08158
G1 X132.551 Y136.126 E.01747
G1 X134.015 Y137.59 E.07755
G1 X133.57 Y137.795 E.01835
G1 X132.159 Y136.384 E.07474
G1 X131.754 Y136.629 E.01773
G1 X133.137 Y138.012 E.07326
G1 X132.717 Y138.242 E.01794
G1 X131.335 Y136.861 E.07318
G1 X130.905 Y137.08 E.01807
G1 X132.31 Y138.486 E.07445
G1 X131.914 Y138.74 E.01762
G1 X130.461 Y137.287 E.07697
G1 X130.006 Y137.482 E.01854
G1 X131.529 Y139.004 E.08065
G1 X131.155 Y139.28 E.01741
G1 X129.535 Y137.661 E.08579
G1 X129.047 Y137.823 E.01926
G1 X130.793 Y139.569 E.09249
G1 X130.442 Y139.868 E.01727
G1 X128.544 Y137.97 E.10054
G1 X128.026 Y138.102 E.02002
G1 X130.099 Y140.175 E.10981
G1 X129.77 Y140.496 E.01722
G1 X127.489 Y138.215 E.12083
G1 X126.932 Y138.308 E.02115
G1 X129.451 Y140.827 E.13344
G1 X129.142 Y141.168 E.01724
G1 X126.354 Y138.38 E.14769
G1 X125.752 Y138.428 E.02262
G1 X128.843 Y141.519 E.16374
G1 X128.557 Y141.883 E.01734
G1 X125.122 Y138.449 E.18193
G1 X124.461 Y138.437 E.02476
G1 X128.281 Y142.257 E.20235
G1 X128.015 Y142.641 E.0175
G1 X123.763 Y138.39 E.22521
G1 X123.022 Y138.299 E.02796
G1 X127.761 Y143.037 E.25101
G1 X127.521 Y143.447 E.01779
G1 X122.231 Y138.158 E.28019
G1 X121.374 Y137.951 E.03302
G1 X127.291 Y143.868 E.31343
G1 X127.071 Y144.298 E.01809
G1 X120.401 Y137.627 E.35335
G1 X119.81 Y137.406 E.02363
G1 X119.298 Y137.175 E.02104
G1 X126.867 Y144.744 E.40094
G1 X126.676 Y145.203 E.01862
G1 X117.883 Y136.41 E.46578
G1 X117.45 Y136.13 E.01931
G1 X116.907 Y135.742 E.025
G1 X116.418 Y135.355 E.02336
G1 X115.947 Y134.946 E.02337
G1 X115.495 Y134.516 E.02337
G1 X115.064 Y134.065 E.02337
G1 X114.654 Y133.594 E.02339
G1 X114.27 Y133.109 E.02317
G1 X113.908 Y132.607 E.02318
G1 X113.585 Y132.112 E.02214
G1 X109.368 Y127.895 E.22338
G1 X109.245 Y128.422 E.02027
G1 X126.499 Y145.676 E.91397
G1 X126.335 Y146.162 E.01921
G1 X109.106 Y128.933 E.91265
G1 X108.952 Y129.429 E.01945
G1 X126.186 Y146.663 E.91291
G1 X126.037 Y147.164 E.01958
G1 X122.677 Y143.804 E.17798
G1 X122.904 Y144.244 E.01854
G1 X123.253 Y145.03 E.03221
G1 X125.837 Y147.614 E.13688
G1 X125.794 Y147.677 E.00286
G1 X125.61 Y147.846 E.00936
G1 X125.487 Y147.914 E.00526
G1 X123.635 Y146.062 E.0981
G1 X123.91 Y146.987 E.03615
G1 X125.158 Y148.236 E.06614
;WIPE_START
G1 F23040
G1 X123.91 Y146.987 E-.26209
G1 X123.635 Y146.062 E-.14324
G1 X125.487 Y147.914 E-.38878
G1 X125.61 Y147.846 E-.02086
G1 X125.794 Y147.677 E-.03708
G1 X125.837 Y147.614 E-.01132
G1 X123.253 Y145.03 E-.54244
G1 X122.904 Y144.244 E-.12766
G1 X122.677 Y143.804 E-.07349
G1 X124.549 Y145.676 E-.39304
;WIPE_END
G1 Z.6 F28800
G1 X117.459 Y138.586
G1 Z.2
G1 E2 F1800
G1 F5250
G1 X108.781 Y129.908 E.45969
G1 X108.594 Y130.372 E.01874
G1 X115.681 Y137.458 E.37538
G1 X115.032 Y137.208 E.02605
G1 X114.657 Y137.084 E.01479
G1 X108.398 Y130.825 E.33155
G1 X108.187 Y131.264 E.01824
G1 X113.743 Y136.82 E.29431
G1 X112.915 Y136.642 E.03172
G1 X107.965 Y131.692 E.26221
G1 X107.727 Y132.104 E.01782
G1 X112.143 Y136.52 E.23392
G1 X111.419 Y136.446 E.02726
G1 X107.479 Y132.506 E.20871
G1 X107.221 Y132.898 E.01758
G1 X110.731 Y136.408 E.18593
G1 X110.08 Y136.407 E.02438
G1 X106.951 Y133.279 E.16572
G1 X106.667 Y133.645 E.01735
G1 X109.456 Y136.434 E.14774
G1 X108.859 Y136.486 E.02245
G1 X106.376 Y134.004 E.1315
G1 X106.074 Y134.352 E.01726
G1 X108.285 Y136.563 E.11712
G1 X107.729 Y136.657 E.02112
G1 X105.758 Y134.686 E.10441
G1 X105.442 Y135.02 E.01722
G1 X107.195 Y136.772 E.09283
G1 X106.67 Y136.898 E.02022
G1 X105.126 Y135.354 E.08179
G1 X105.064 Y135.439 E.00394
G1 X104.957 Y135.67 E.00954
G1 X104.928 Y135.806 E.00521
G1 X106.316 Y137.194 E.07352
M106 S255
;LAYER_CHANGE
;Z:0.4
;HEIGHT:0.2
G92 E0
M971 S11 C10 O0
;WIPE_START
G1 F23040
G1 X104.928 Y135.806 E-.29137
G1 X104.957 Y135.67 E-.02064
G1 X105.064 Y135.439 E-.03779
G1 X105.126 Y135.354 E-.01562
G1 X106.67 Y136.898 E-.32412
G1 X107.195 Y136.772 E-.08014
G1 X105.442 Y135.02 E-.36789
G1 X105.758 Y134.686 E-.06825
G1 X107.729 Y136.657 E-.41376
G1 X108.285 Y136.563 E-.0837
G1 X106.872 Y135.15 E-.29672
;WIPE_END
G1 Z.4 F28800
"G92 E0"
G1 Z.8
G1 X112.344 Y123.221
G1 Z.4
G1 E2 F1800
;TYPE:Perimeter
;WIDTH:0.449999
G1 F8843.491
G1 X112.43 Y122.682 E.01811
G1 X112.554 Y122.089 E.0201
G1 X112.703 Y121.513 E.01974
G1 X112.879 Y120.944 E.01976
G1 X113.093 Y120.375 E.02017
G1 X113.559 Y119.301 E.03884
G1 X113.842 Y118.766 E.02008
G1 X114.145 Y118.251 E.01982
G1 X114.472 Y117.752 E.01979
G1 X114.822 Y117.268 E.01981
G1 X115.194 Y116.801 E.01981
G1 X115.588 Y116.352 E.01982
G1 X116.002 Y115.922 E.0198
G1 X116.437 Y115.511 E.01985
G1 X116.891 Y115.12 E.01988
G1 X117.362 Y114.751 E.01985
G1 X117.85 Y114.405 E.01984
G1 X118.354 Y114.082 E.01986
G1 X118.872 Y113.783 E.01984
G1 X119.404 Y113.508 E.01987
G1 X119.948 Y113.259 E.01985
G1 X120.504 Y113.035 E.01988
G1 X121.07 Y112.837 E.01989
G1 X121.598 Y112.68 E.01827
G1 X122.226 Y112.523 E.02147
G1 X122.814 Y112.407 E.01988
G1 X123.406 Y112.318 E.01986
G1 X124.002 Y112.257 E.01987
G1 X124.601 Y112.225 E.0199
G1 X125.201 Y112.22 E.0199
G1 X125.8 Y112.244 E.01989
G1 X126.398 Y112.295 E.01991
G1 X127.534 Y112.474 E.03815
G1 X128.025 Y112.582 E.01668
G1 X128.582 Y112.731 E.01913
G1 X129.156 Y112.913 E.01997
G1 X129.721 Y113.122 E.01998
G1 X130.275 Y113.358 E.01998
G1 X130.818 Y113.619 E.01999
G1 X131.82 Y114.191 E.03827
G1 X132.328 Y114.528 E.02022
G1 X132.818 Y114.889 E.02019
G1 X133.291 Y115.272 E.02019
G1 X133.744 Y115.678 E.02018
G1 X134.178 Y116.105 E.0202
G1 X134.592 Y116.552 E.02021
G1 X134.982 Y117.017 E.02013
G1 X135.346 Y117.495 E.01993
G1 X135.687 Y117.989 E.01991
G1 X136.005 Y118.498 E.01991
G1 X136.298 Y119.022 E.01991
G1 X136.566 Y119.559 E.01991
G1 X136.808 Y120.108 E.0199
G1 X137.025 Y120.668 E.01992
G1 X137.215 Y121.237 E.0199
G1 X137.378 Y121.815 E.01992
G1 X137.653 Y123.215 E.04733
G1 X137.726 Y123.838 E.02081
G1 X137.767 Y124.447 E.02025
G1 X137.779 Y125.056 E.02021
G1 X137.754 Y125.835 E.02585
G1 X137.701 Y126.433 E.01991
G1 X137.62 Y127.028 E.01992
G1 X137.511 Y127.618 E.0199
G1 X137.374 Y128.202 E.0199
G1 X137.21 Y128.78 E.01993
G1 X136.967 Y129.485 E.02474
G1 X136.436 Y130.702 E.04405
G1 X136.055 Y131.411 E.0267
G1 X135.715 Y131.967 E.02162
G1 X135.37 Y132.47 E.02023
G1 X135.003 Y132.956 E.0202
G1 X134.585 Y133.456 E.02162
G1 X134.244 Y133.825 E.01667
G1 X133.782 Y134.286 E.02165
G1 X133.314 Y134.708 E.0209
G1 X132.842 Y135.093 E.02021
G1 X132.354 Y135.454 E.02014
G1 X131.855 Y135.787 E.0199
G1 X131.341 Y136.097 E.01991
G1 X130.416 Y136.577 E.03457
G1 X129.857 Y136.823 E.02026
G1 X129.296 Y137.038 E.01993
G1 X128.727 Y137.226 E.01988
G1 X128.148 Y137.388 E.01994
G1 X127.563 Y137.522 E.01991
G1 X126.973 Y137.629 E.01989
G1 X126.378 Y137.707 E.01991
G1 X125.78 Y137.758 E.01991
G1 X125.18 Y137.781 E.01992
G1 X124.579 Y137.775 E.01994
G1 X123.98 Y137.741 E.0199
G1 X123.383 Y137.679 E.01991
G1 X122.79 Y137.589 E.0199
G1 X121.85 Y137.403 E.03179
G1 X121.3 Y137.274 E.01874
G1 X120.365 Y136.959 E.03273
G1 X119.851 Y136.747 E.01844
G1 X119.205 Y136.443 E.02368
G1 X118.717 Y136.182 E.01836
G1 X118.144 Y135.839 E.02215
G1 X117.281 Y135.243 E.03479
G1 X116.85 Y134.903 E.01821
G1 X116.352 Y134.473 E.02183
G1 X115.936 Y134.074 E.01912
G1 X115.492 Y133.609 E.02133
G1 X115.002 Y133.022 E.02536
G1 X114.675 Y132.601 E.01768
G1 X114.36 Y132.156 E.01809
G1 X113.569 Y130.718 E.05444
G1 X113.109 Y129.685 E.03751
G1 X112.897 Y129.11 E.02033
G1 X112.715 Y128.529 E.0202
G1 X112.565 Y127.959 E.01955
G1 X112.449 Y127.413 E.01852
G1 X112.346 Y126.801 E.02059
G1 X112.276 Y126.215 E.01958
G1 X112.233 Y125.625 E.01962
G1 X112.218 Y125.033 E.01964
G1 X112.23 Y124.441 E.01964
G1 X112.265 Y123.927 E.01709
G1 X112.334 Y123.284 E.02145
G1 X112.335 Y123.28 E.00014
G1 X112.335 Y123.28 F28800
G1 X112.721 Y123.282
;TYPE:External perimeter
;WIDTH:0.399999
G1 F10081.802
G1 X112.807 Y122.743 E.01588
G1 X112.928 Y122.167 E.01713
G1 X113.073 Y121.609 E.01678
G1 X113.244 Y121.057 E.01681
G1 X113.45 Y120.51 E.01701
G1 X113.907 Y119.459 E.03335
G1 X114.179 Y118.944 E.01695
G1 X114.474 Y118.446 E.01684
G1 X114.791 Y117.961 E.01686
G1 X115.131 Y117.493 E.01683
G1 X115.492 Y117.04 E.01685
G1 X115.875 Y116.604 E.01689
G1 X116.277 Y116.187 E.01685
G1 X116.699 Y115.788 E.0169
G1 X117.139 Y115.41 E.01688
G1 X117.597 Y115.052 E.01691
G1 X118.071 Y114.717 E.01689
G1 X118.56 Y114.404 E.01689
G1 X119.062 Y114.114 E.01687
G1 X119.579 Y113.848 E.01692
G1 X120.107 Y113.606 E.0169
G1 X120.646 Y113.39 E.0169
G1 X121.195 Y113.198 E.01692
G1 X121.707 Y113.046 E.01554
G1 X122.317 Y112.894 E.01829
G1 X122.888 Y112.781 E.01694
G1 X123.462 Y112.696 E.01688
G1 X124.041 Y112.637 E.01693
G1 X124.621 Y112.606 E.0169
G1 X125.203 Y112.602 E.01694
G1 X125.785 Y112.625 E.01695
G1 X126.365 Y112.676 E.01694
G1 X126.917 Y112.76 E.01625
G1 X127.453 Y112.848 E.01581
G1 X128.027 Y112.978 E.01712
G1 X128.595 Y113.135 E.01715
G1 X129.155 Y113.32 E.01716
G1 X129.706 Y113.531 E.01717
G1 X130.28 Y113.784 E.01825
G1 X131.085 Y114.198 E.02634
G1 X131.623 Y114.518 E.01821
G1 X132.115 Y114.845 E.01719
G1 X132.59 Y115.196 E.01719
G1 X133.049 Y115.568 E.01719
G1 X133.489 Y115.962 E.01719
G1 X133.91 Y116.376 E.01718
G1 X134.31 Y116.81 E.01717
G1 X134.69 Y117.262 E.01718
G1 X135.042 Y117.726 E.01695
G1 X135.372 Y118.205 E.01693
G1 X135.68 Y118.7 E.01696
G1 X135.964 Y119.208 E.01693
G1 X136.224 Y119.729 E.01694
G1 X136.459 Y120.262 E.01695
G1 X136.669 Y120.805 E.01694
G1 X136.853 Y121.358 E.01696
G1 X137.01 Y121.918 E.01692
G1 X137.275 Y123.27 E.04009
G1 X137.345 Y123.876 E.01775
G1 X137.385 Y124.466 E.01721
G1 X137.397 Y125.058 E.01723
G1 X137.373 Y125.819 E.02215
G1 X137.321 Y126.399 E.01694
G1 X137.241 Y126.975 E.01692
G1 X137.135 Y127.548 E.01696
G1 X137.002 Y128.115 E.01695
G1 X136.843 Y128.675 E.01694
G1 X136.606 Y129.36 E.02109
G1 X136.095 Y130.53 E.03715
G1 X135.722 Y131.224 E.02293
G1 X135.391 Y131.764 E.01843
G1 X135.056 Y132.252 E.01722
G1 X134.699 Y132.724 E.01722
G1 X134.293 Y133.21 E.01843
G1 X133.897 Y133.637 E.01695
G1 X133.514 Y134.014 E.01564
G1 X133.059 Y134.423 E.0178
G1 X132.601 Y134.797 E.01721
G1 X132.128 Y135.146 E.0171
G1 X131.643 Y135.47 E.01697
G1 X131.144 Y135.77 E.01694
G1 X130.24 Y136.238 E.02962
G1 X129.704 Y136.473 E.01703
G1 X129.16 Y136.681 E.01695
G1 X128.607 Y136.863 E.01694
G1 X128.046 Y137.02 E.01695
G1 X127.478 Y137.15 E.01695
G1 X126.905 Y137.253 E.01694
G1 X126.328 Y137.329 E.01693
G1 X125.748 Y137.377 E.01693
G1 X125.166 Y137.399 E.01695
G1 X124.583 Y137.393 E.01696
G1 X124.002 Y137.36 E.01693
G1 X123.423 Y137.299 E.01694
G1 X122.847 Y137.212 E.01695
G1 X121.422 Y136.912 E.04237
G1 X120.487 Y136.597 E.02871
G1 X119.998 Y136.394 E.01541
G1 X119.369 Y136.097 E.02024
G1 X118.897 Y135.845 E.01557
G1 X118.34 Y135.511 E.0189
G1 X117.437 Y134.879 E.03207
G1 X116.596 Y134.178 E.03186
G1 X116.2 Y133.798 E.01597
G1 X115.769 Y133.346 E.01817
G1 X115.296 Y132.778 E.02151
G1 X114.686 Y131.955 E.02981
G1 X113.904 Y130.534 E.04719
G1 X113.661 Y130.019 E.01657
G1 X113.257 Y128.98 E.03244
G1 X113.08 Y128.415 E.01723
G1 X112.935 Y127.862 E.01663
G1 X112.822 Y127.334 E.01571
G1 X112.723 Y126.739 E.01755
G1 X112.655 Y126.17 E.01667
G1 X112.614 Y125.598 E.01669
G1 X112.6 Y125.024 E.01671
G1 X112.612 Y124.449 E.01673
G1 X112.651 Y123.874 E.01677
G1 X112.712 Y123.341 E.01561
;WIPE_START
G1 F23040
G1 X112.721 Y123.282 E-.00886
G1 X112.807 Y122.743 E-.08102
G1 X112.928 Y122.167 E-.08737
G1 X113.073 Y121.609 E-.08558
G1 X113.244 Y121.057 E-.08578
G1 X113.45 Y120.51 E-.08676
G1 X113.907 Y119.459 E-.17012
G1 X114.179 Y118.944 E-.08645
G1 X114.474 Y118.446 E-.08592
G1 X114.791 Y117.961 E-.08601
G1 X115.131 Y117.493 E-.08587
G1 X115.492 Y117.04 E-.08598
G1 X115.875 Y116.604 E-.08614
G1 X116.277 Y116.187 E-.08598
G1 X116.699 Y115.788 E-.08621
G1 X117.139 Y115.41 E-.0861
G1 X117.597 Y115.052 E-.08629
G1 X118.071 Y114.717 E-.08616
G1 X118.56 Y114.404 E-.08618
G1 X119.062 Y114.114 E-.08606
G1 X119.579 Y113.848 E-.0863
G1 X120.107 Y113.606 E-.08621
G1 X120.646 Y113.39 E-.08619
G1 X120.751 Y113.353 E-.01646
;WIPE_END
G1 Z.8 F28800
G1 X143.613 Y117.081
G1 Z.4
G1 E2 F1800
;TYPE:Perimeter
;WIDTH:0.449999
G1 F8843.491
G1 X143.593 Y117.106 E.00106
G1 X143.241 Y117.606 E.02028
G1 X142.913 Y118.121 E.02025
G1 X142.621 Y118.628 E.01941
G1 X142.131 Y119.625 E.03685
G1 X141.903 Y120.173 E.01969
G1 X141.7 Y120.733 E.01976
G1 X141.521 Y121.301 E.01976
G1 X141.372 Y121.889 E.02012
G1 X141.166 Y122.9 E.03423
G1 X141.083 Y123.482 E.0195
G1 X141.028 Y124.08 E.01992
G1 X141 Y124.681 E.01996
G1 X141.001 Y125.257 E.01911
G1 X141.043 Y126.145 E.02949
G1 X141.109 Y126.752 E.02025
G1 X141.204 Y127.356 E.02028
G1 X141.326 Y127.954 E.02025
G1 X141.475 Y128.547 E.02028
G1 X141.652 Y129.132 E.02027
G1 X141.855 Y129.708 E.02026
G1 X142.124 Y130.359 E.02337
G1 X142.343 Y130.834 E.01735
G1 X142.696 Y131.503 E.02509
G1 X143.256 Y132.416 E.03553
G1 X143.653 Y132.973 E.02269
G1 X143.984 Y133.397 E.01784
G1 X144.383 Y133.864 E.02038
G1 X145.198 Y134.713 E.03904
G1 X145.497 Y135.077 E.01563
G1 X145.685 Y135.475 E.0146
G1 X145.766 Y135.979 E.01693
G1 X145.717 Y136.326 E.01162
G1 X145.592 Y136.756 E.01485
G1 X145.405 Y137.044 E.01139
G1 X145.053 Y137.368 E.01587
G1 X144.722 Y137.568 E.01283
G1 X144.228 Y137.705 E.01701
G1 X143.792 Y137.695 E.01447
G1 X142.326 Y137.346 E.04999
G1 X141.133 Y137.155 E.04008
G1 X140.458 Y137.097 E.02247
G1 X139.914 Y137.074 E.01806
G1 X139.222 Y137.079 E.02296
G1 X138.621 Y137.111 E.01996
G1 X138.022 Y137.171 E.01997
G1 X137.47 Y137.249 E.01849
G1 X136.236 Y137.519 E.0419
G1 X135.672 Y137.677 E.01943
G1 X135.102 Y137.87 E.01996
G1 X134.541 Y138.088 E.01997
G1 X133.99 Y138.332 E.01999
G1 X133.435 Y138.609 E.02058
G1 X132.539 Y139.127 E.03433
G1 X132.03 Y139.466 E.02029
G1 X131.537 Y139.827 E.02027
G1 X131.058 Y140.214 E.02043
G1 X130.574 Y140.649 E.02159
G1 X129.748 Y141.487 E.03903
G1 X129.35 Y141.951 E.02028
G1 X128.975 Y142.433 E.02026
G1 X128.622 Y142.932 E.02028
G1 X128.277 Y143.473 E.02128
G1 X127.987 Y143.975 E.01923
G1 X127.706 Y144.518 E.02028
G1 X127.422 Y145.141 E.02271
G1 X127.22 Y145.639 E.01783
G1 X127.015 Y146.218 E.02037
G1 X126.594 Y147.636 E.04907
G1 X126.417 Y147.954 E.01207
G1 X126.009 Y148.386 E.01971
G1 X125.707 Y148.561 E.01158
G1 X125.294 Y148.689 E.01434
G1 X124.946 Y148.713 E.01157
G1 X124.52 Y148.646 E.0143
G1 X124.197 Y148.514 E.01157
G1 X123.848 Y148.269 E.01414
G1 X123.57 Y147.945 E.01416
G1 X123.403 Y147.627 E.01191
G1 X122.971 Y146.178 E.05016
G1 X122.54 Y145.049 E.04009
G1 X122.283 Y144.494 E.02029
G1 X122.013 Y143.975 E.01941
G1 X121.459 Y143.056 E.0356
G1 X121.01 Y142.412 E.02604
G1 X120.633 Y141.931 E.02027
G1 X120.235 Y141.468 E.02025
G1 X119.816 Y141.023 E.02028
G1 X119.377 Y140.598 E.02027
G1 X118.919 Y140.194 E.02026
G1 X118.442 Y139.811 E.02029
G1 X117.949 Y139.451 E.02025
G1 X117.44 Y139.114 E.02025
G1 X116.907 Y138.796 E.02059
G1 X115.987 Y138.321 E.03435
G1 X115.428 Y138.075 E.02026
G1 X114.858 Y137.855 E.02027
G1 X114.278 Y137.661 E.02029
G1 X113.691 Y137.495 E.02024
G1 X113.096 Y137.355 E.02028
G1 X112.137 Y137.193 E.03226
G1 X111.097 Y137.093 E.03466
G1 X110.06 Y137.074 E.0344
G1 X109.45 Y137.102 E.02026
G1 X108.795 Y137.165 E.02183
G1 X107.633 Y137.354 E.03905
G1 X106.365 Y137.657 E.04325
G1 X105.844 Y137.71 E.01737
G1 X105.425 Y137.632 E.01414
G1 X105.232 Y137.542 E.00706
G1 X104.902 Y137.347 E.01272
G1 X104.652 Y137.101 E.01163
G1 X104.41 Y136.737 E.0145
G1 X104.25 Y136.241 E.01729
G1 X104.244 Y135.809 E.01433
G1 X104.319 Y135.463 E.01174
G1 X104.6 Y134.937 E.01978
G1 X105.617 Y133.863 E.04906
G1 X106.407 Y132.894 E.04147
G1 X106.759 Y132.394 E.02028
G1 X107.124 Y131.816 E.02268
G1 X107.391 Y131.349 E.01784
G1 X107.714 Y130.712 E.02369
G1 X107.953 Y130.183 E.01926
G1 X108.169 Y129.641 E.01935
G1 X108.362 Y129.087 E.01946
G1 X108.534 Y128.513 E.01988
G1 X108.792 Y127.36 E.03919
G1 X108.894 Y126.727 E.02127
G1 X108.96 Y126.119 E.02029
G1 X108.997 Y125.509 E.02027
G1 X109.006 Y124.889 E.02057
G1 X108.953 Y123.811 E.0358
G1 X108.886 Y123.219 E.01976
G1 X108.794 Y122.631 E.01974
G1 X108.674 Y122.046 E.01981
G1 X108.525 Y121.453 E.02028
G1 X108.344 Y120.858 E.02063
G1 X108.145 Y120.292 E.0199
G1 X107.915 Y119.726 E.02027
G1 X107.657 Y119.166 E.02045
G1 X107.304 Y118.497 E.02509
G1 X106.744 Y117.584 E.03553
G1 X106.347 Y117.027 E.02269
G1 X106.016 Y116.603 E.01784
G1 X105.617 Y116.136 E.02038
G1 X104.802 Y115.287 E.03904
G1 X104.503 Y114.923 E.01563
G1 X104.315 Y114.525 E.0146
G1 X104.234 Y114.021 E.01693
G1 X104.283 Y113.674 E.01162
G1 X104.408 Y113.244 E.01485
G1 X104.595 Y112.956 E.01139
G1 X104.947 Y112.632 E.01587
G1 X105.278 Y112.432 E.01283
G1 X105.772 Y112.295 E.01701
G1 X106.208 Y112.305 E.01447
G1 X107.674 Y112.654 E.04999
G1 X108.867 Y112.845 E.04008
G1 X109.542 Y112.903 E.02247
G1 X110.385 Y112.926 E.02797
G1 X111.119 Y112.905 E.02436
G1 X111.708 Y112.858 E.0196
G1 X112.294 Y112.785 E.01959
G1 X113.547 Y112.541 E.04234
G1 X114.303 Y112.331 E.02603
G1 X114.882 Y112.136 E.02027
G1 X115.452 Y111.915 E.02028
G1 X116.01 Y111.668 E.02024
G1 X116.565 Y111.391 E.02058
G1 X117.349 Y110.938 E.03004
G1 X117.832 Y110.627 E.01906
G1 X118.322 Y110.277 E.01997
G1 X118.797 Y109.904 E.02003
G1 X119.242 Y109.516 E.01958
G1 X119.651 Y109.133 E.01859
G1 X120.252 Y108.513 E.02864
G1 X120.65 Y108.049 E.02028
G1 X121.025 Y107.567 E.02026
G1 X121.378 Y107.068 E.02028
G1 X121.723 Y106.528 E.02126
G1 X122.013 Y106.025 E.01926
G1 X122.294 Y105.482 E.02028
G1 X122.578 Y104.859 E.02271
G1 X122.78 Y104.361 E.01783
G1 X122.985 Y103.782 E.02037
G1 X123.35 Y102.553 E.04253
G1 X123.49 Y102.218 E.01204
G1 X123.727 Y101.866 E.01408
G1 X123.987 Y101.634 E.01156
G1 X124.366 Y101.417 E.01449
G1 X124.888 Y101.288 E.01784
G1 X125.47 Y101.352 E.01942
G1 X125.867 Y101.522 E.01433
G1 X126.149 Y101.728 E.01158
G1 X126.43 Y102.056 E.01433
G1 X126.597 Y102.373 E.01189
G1 X127.029 Y103.822 E.05016
G1 X127.46 Y104.951 E.04009
G1 X127.717 Y105.506 E.02029
G1 X128.004 Y106.056 E.02058
G1 X128.341 Y106.614 E.02162
G1 X128.633 Y107.076 E.01813
G1 X128.99 Y107.588 E.0207
G1 X129.367 Y108.069 E.02027
G1 X129.765 Y108.532 E.02025
G1 X130.184 Y108.977 E.02028
G1 X130.623 Y109.402 E.02027
G1 X131.081 Y109.806 E.02026
G1 X131.558 Y110.189 E.02029
G1 X132.059 Y110.554 E.02056
G1 X132.984 Y111.141 E.03634
G1 X133.513 Y111.431 E.02001
G1 X134.056 Y111.698 E.02007
G1 X134.61 Y111.94 E.02005
G1 X135.174 Y112.156 E.02003
G1 X135.748 Y112.346 E.02006
G1 X136.328 Y112.51 E.01999
G1 X136.915 Y112.647 E.02
G1 X137.507 Y112.757 E.01997
G1 X138.115 Y112.842 E.02036
G1 X138.903 Y112.907 E.02623
G1 X139.94 Y112.926 E.0344
G1 X140.55 Y112.898 E.02026
G1 X141.205 Y112.835 E.02183
G1 X142.367 Y112.646 E.03905
G1 X143.635 Y112.343 E.04325
G1 X144.156 Y112.29 E.01737
G1 X144.575 Y112.368 E.01414
G1 X144.962 Y112.547 E.01414
G1 X145.238 Y112.761 E.01159
G1 X145.509 Y113.097 E.01432
G1 X145.706 Y113.581 E.01733
G1 X145.752 Y113.943 E.0121
G1 X145.756 Y114.191 E.00823
G1 X145.681 Y114.537 E.01174
G1 X145.4 Y115.063 E.01978
G1 X144.383 Y116.137 E.04906
G1 X143.651 Y117.035 E.03843
G1 X143.914 Y117.315 F28800
;TYPE:External perimeter
;WIDTH:0.399999
G1 F10081.802
G1 X143.905 Y117.326 E.00041
G1 X143.563 Y117.811 E.01727
G1 X143.244 Y118.312 E.01728
G1 X142.952 Y118.819 E.01702
G1 X142.478 Y119.784 E.03128
G1 X142.257 Y120.317 E.01679
G1 X142.06 Y120.859 E.01678
G1 X141.887 Y121.411 E.01683
G1 X141.744 Y121.976 E.01696
G1 X141.543 Y122.961 E.02925
G1 X141.463 Y123.523 E.01652
G1 X141.409 Y124.104 E.01698
G1 X141.382 Y124.687 E.01698
G1 X141.382 Y125.239 E.01606
G1 X141.422 Y126.103 E.02517
G1 X141.487 Y126.694 E.0173
G1 X141.578 Y127.28 E.01726
G1 X141.696 Y127.861 E.01725
G1 X141.841 Y128.437 E.01728
G1 X142.012 Y129.005 E.01726
G1 X142.209 Y129.565 E.01727
G1 X142.573 Y130.421 E.02707
G1 X142.822 Y130.923 E.01631
G1 X143.568 Y132.195 E.04291
G1 X144.274 Y133.149 E.03453
G1 X144.66 Y133.601 E.0173
G1 X145.474 Y134.448 E.03418
G1 X145.824 Y134.874 E.01604
G1 X146.047 Y135.346 E.01519
G1 X146.151 Y135.988 E.01892
G1 X146.066 Y136.582 E.01746
G1 X145.866 Y137.047 E.01473
G1 X145.564 Y137.453 E.01472
G1 X145.092 Y137.823 E.01745
G1 X144.692 Y137.999 E.01272
G1 X144.263 Y138.088 E.01275
G1 X143.743 Y138.076 E.01513
G1 X142.266 Y137.723 E.04419
G1 X141.098 Y137.536 E.03442
G1 X140.441 Y137.479 E.01919
G1 X139.914 Y137.456 E.01535
G1 X139.24 Y137.46 E.01961
G1 X138.657 Y137.491 E.01699
G1 X137.547 Y137.623 E.03253
G1 X136.338 Y137.888 E.03601
G1 X135.793 Y138.04 E.01646
G1 X135.24 Y138.226 E.01698
G1 X134.695 Y138.438 E.01702
G1 X134.16 Y138.674 E.01701
G1 X133.626 Y138.94 E.01736
G1 X132.75 Y139.446 E.02944
G1 X132.255 Y139.774 E.01728
G1 X131.777 Y140.125 E.01726
G1 X131.316 Y140.496 E.01722
G1 X130.829 Y140.933 E.01904
G1 X130.038 Y141.735 E.03278
G1 X129.652 Y142.186 E.01727
G1 X129.287 Y142.654 E.01727
G1 X128.943 Y143.138 E.01728
G1 X128.607 Y143.664 E.01816
G1 X128.326 Y144.151 E.01636
G1 X128.053 Y144.678 E.01727
G1 X127.58 Y145.766 E.03452
G1 X127.382 Y146.327 E.01731
G1 X127.011 Y147.574 E.03786
G1 X126.887 Y147.907 E.01034
G1 X126.617 Y148.336 E.01475
G1 X126.239 Y148.694 E.01515
G1 X125.861 Y148.913 E.01271
G1 X125.365 Y149.067 E.01511
G1 X124.93 Y149.097 E.01269
G1 X124.417 Y149.016 E.01511
G1 X124.012 Y148.851 E.01272
G1 X123.589 Y148.553 E.01506
G1 X123.252 Y148.16 E.01506
G1 X123.048 Y147.771 E.01278
G1 X122.614 Y146.314 E.04424
G1 X122.193 Y145.209 E.03441
G1 X121.944 Y144.67 E.01728
G1 X121.42 Y143.729 E.03134
G1 X121.145 Y143.275 E.01544
G1 X120.709 Y142.647 E.02225
G1 X120.343 Y142.18 E.01726
G1 X119.957 Y141.729 E.01727
G1 X119.55 Y141.297 E.01727
G1 X119.124 Y140.885 E.01724
G1 X118.679 Y140.492 E.01727
G1 X118.217 Y140.12 E.01726
G1 X117.738 Y139.769 E.01728
G1 X117.243 Y139.442 E.01726
G1 X116.732 Y139.135 E.01735
G1 X115.833 Y138.671 E.02944
G1 X115.29 Y138.431 E.01727
G1 X114.737 Y138.217 E.01725
G1 X114.174 Y138.029 E.01727
G1 X113.603 Y137.866 E.01728
G1 X113.025 Y137.731 E.01727
G1 X112.442 Y137.621 E.01726
G1 X111.853 Y137.539 E.0173
G1 X111.089 Y137.475 E.02231
G1 X110.077 Y137.456 E.02945
G1 X109.485 Y137.483 E.01724
G1 X108.851 Y137.543 E.01853
G1 X107.721 Y137.726 E.03331
G1 X106.256 Y138.076 E.04383
G1 X105.816 Y138.094 E.01281
G1 X105.308 Y137.999 E.01504
G1 X104.838 Y137.781 E.01508
G1 X104.493 Y137.513 E.01271
G1 X104.167 Y137.109 E.01511
G1 X103.974 Y136.715 E.01277
G1 X103.869 Y136.29 E.01274
G1 X103.861 Y135.77 E.01513
G1 X103.91 Y135.549 E.00659
G1 X104.041 Y135.15 E.01222
G1 X104.302 Y134.697 E.01521
G1 X105.34 Y133.601 E.04392
G1 X106.095 Y132.674 E.03479
G1 X106.437 Y132.189 E.01727
G1 X107.052 Y131.174 E.03453
G1 X107.367 Y130.553 E.02026
G1 X107.598 Y130.04 E.01637
G1 X107.809 Y129.514 E.01649
G1 X107.996 Y128.977 E.01655
G1 X108.161 Y128.429 E.01665
G1 X108.414 Y127.299 E.03369
G1 X108.514 Y126.686 E.01807
G1 X108.578 Y126.095 E.0173
G1 X108.615 Y125.503 E.01726
G1 X108.624 Y124.907 E.01734
G1 X108.573 Y123.853 E.0307
G1 X108.509 Y123.278 E.01683
G1 X108.419 Y122.707 E.01682
G1 X108.304 Y122.139 E.01686
G1 X108.159 Y121.563 E.01728
G1 X107.984 Y120.984 E.0176
G1 X107.791 Y120.435 E.01693
G1 X107.568 Y119.885 E.01727
G1 X107.319 Y119.345 E.0173
G1 X107.013 Y118.764 E.01911
G1 X106.432 Y117.805 E.03263
G1 X105.726 Y116.851 E.03453
G1 X105.34 Y116.399 E.0173
G1 X104.526 Y115.552 E.03418
G1 X104.176 Y115.126 E.01604
G1 X103.953 Y114.654 E.01519
G1 X103.849 Y114.012 E.01892
G1 X103.934 Y113.418 E.01746
G1 X104.134 Y112.953 E.01473
G1 X104.436 Y112.547 E.01472
G1 X104.908 Y112.177 E.01745
G1 X105.308 Y112.001 E.01272
G1 X105.737 Y111.912 E.01275
G1 X106.257 Y111.924 E.01513
G1 X107.734 Y112.277 E.04419
G1 X108.902 Y112.464 E.03442
G1 X109.559 Y112.521 E.01919
G1 X110.384 Y112.544 E.02401
G1 X111.101 Y112.523 E.02087
G1 X111.672 Y112.478 E.01667
G1 X112.241 Y112.407 E.01668
G1 X112.756 Y112.314 E.01523
G1 X113.445 Y112.172 E.02047
G1 X114.182 Y111.969 E.02224
G1 X114.744 Y111.78 E.01725
G1 X115.298 Y111.566 E.01728
G1 X115.84 Y111.326 E.01725
G1 X116.374 Y111.06 E.01736
G1 X117.158 Y110.608 E.02633
G1 X117.621 Y110.308 E.01605
G1 X118.096 Y109.968 E.017
G1 X118.557 Y109.606 E.01706
G1 X118.987 Y109.232 E.01658
G1 X119.377 Y108.866 E.01556
G1 X119.962 Y108.265 E.0244
G1 X120.348 Y107.814 E.01727
G1 X120.713 Y107.346 E.01727
G1 X121.057 Y106.862 E.01728
G1 X121.392 Y106.336 E.01815
G1 X121.674 Y105.849 E.01637
G1 X121.947 Y105.322 E.01727
G1 X122.42 Y104.234 E.03452
G1 X122.618 Y103.673 E.01731
G1 X123.047 Y102.23 E.0438
G1 X123.297 Y101.774 E.01513
G1 X123.588 Y101.448 E.01272
G1 X124.012 Y101.149 E.0151
G1 X124.418 Y100.983 E.01276
G1 X125 Y100.906 E.01708
G1 X125.58 Y100.983 E.01702
G1 X126.057 Y101.188 E.01511
G1 X126.41 Y101.445 E.01271
G1 X126.748 Y101.84 E.01513
G1 X126.952 Y102.229 E.01278
G1 X127.386 Y103.686 E.04424
G1 X127.807 Y104.791 E.03441
G1 X128.056 Y105.329 E.01725
G1 X128.33 Y105.856 E.01728
G1 X128.668 Y106.417 E.01906
G1 X128.947 Y106.858 E.01518
G1 X129.291 Y107.353 E.01754
G1 X129.657 Y107.82 E.01726
G1 X130.043 Y108.271 E.01727
G1 X130.45 Y108.703 E.01727
G1 X130.876 Y109.115 E.01724
G1 X131.321 Y109.508 E.01727
G1 X131.783 Y109.88 E.01726
G1 X132.265 Y110.232 E.01737
G1 X133.169 Y110.807 E.03117
G1 X133.683 Y111.089 E.01706
G1 X134.21 Y111.348 E.01709
G1 X134.747 Y111.583 E.01706
G1 X135.295 Y111.794 E.01709
G1 X135.852 Y111.979 E.01708
G1 X136.415 Y112.138 E.01702
G1 X136.985 Y112.271 E.01703
G1 X137.56 Y112.379 E.01702
G1 X138.145 Y112.461 E.01719
G1 X138.863 Y112.521 E.02096
G1 X139.389 Y112.534 E.01531
G1 X139.922 Y112.544 E.01551
G1 X140.515 Y112.517 E.01727
G1 X141.149 Y112.457 E.01853
G1 X142.279 Y112.274 E.03331
G1 X143.744 Y111.924 E.04383
G1 X144.184 Y111.906 E.01281
G1 X144.692 Y112.001 E.01504
G1 X145.162 Y112.219 E.01508
G1 X145.507 Y112.487 E.01271
G1 X145.833 Y112.891 E.01511
G1 X146.026 Y113.285 E.01277
G1 X146.131 Y113.71 E.01274
G1 X146.134 Y113.938 E.00663
G1 X146.139 Y114.23 E.0085
G1 X146.09 Y114.451 E.00659
G1 X145.959 Y114.85 E.01222
G1 X145.698 Y115.303 E.01521
G1 X144.66 Y116.399 E.04392
G1 X143.952 Y117.269 E.03264
;WIPE_START
G1 F23040
G1 X143.914 Y117.315 E-.00886
G1 X143.905 Y117.326 E-.00211
G1 X143.563 Y117.811 E-.08809
G1 X143.244 Y118.312 E-.08816
G1 X142.952 Y118.819 E-.08685
G1 X142.478 Y119.784 E-.15959
G1 X142.257 Y120.317 E-.08565
G1 X142.06 Y120.859 E-.0856
G1 X141.887 Y121.411 E-.08587
G1 X141.744 Y121.976 E-.08651
G1 X141.543 Y122.961 E-.14922
G1 X141.463 Y123.523 E-.08426
G1 X141.409 Y124.104 E-.08661
G1 X141.382 Y124.687 E-.08663
G1 X141.382 Y125.239 E-.08194
G1 X141.422 Y126.103 E-.12839
G1 X141.487 Y126.694 E-.08826
G1 X141.578 Y127.28 E-.08803
G1 X141.696 Y127.861 E-.088
G1 X141.841 Y128.437 E-.08817
G1 X142.012 Y129.005 E-.08805
G1 X142.209 Y129.565 E-.08812
G1 X142.412 Y130.043 E-.07703
;WIPE_END
G1 Z.8 F28800
G1 X123.774 Y102.11
G1 Z.4
G1 E2 F1800
;TYPE:Solid infill
;WIDTH:0.38292
G1 F10588.235
G1 X124.278 Y101.64 E.01909
;WIDTH:0.41646
G1 F9637.536
G1 X124.474 Y101.638 E.00597
;WIDTH:0.449999
G1 F8843.491
G1 X124.67 Y101.637 E.0065
G1 X123.632 Y102.675 E.04869
;WIPE_START
G1 F23040
G1 X124.67 Y101.637 E-.2179
G1 X124.474 Y101.638 E-.02909
G1 X124.278 Y101.64 E-.0291
G1 X123.774 Y102.11 E-.10229
;WIPE_END
G1 E-1.62162 F3600
G1 Z.8 F28800
G1 X123.247 Y103.812
G1 Z.4
G1 E2 F1800
;WIDTH:0.38292
G1 F10588.235
G1 X123.206 Y103.823 E.00118
G1 X123.187 Y103.752 E.00204
G1 X123.258 Y103.771 E.00204
;WIDTH:0.41646
G1 F9637.536
G1 X123.323 Y103.632 E.00467
;WIDTH:0.449999
G1 F8843.491
G1 X123.389 Y103.494 E.00507
G1 X125.259 Y101.624 E.08773
G1 X125.683 Y101.775 E.01493
G1 X123.107 Y104.351 E.12085
G1 X123.035 Y104.49 E.00519
;WIDTH:0.41646
G1 F9637.536
G1 X122.962 Y104.628 E.00475
;WIDTH:0.38292
G1 F10588.235
G1 X122.891 Y104.609 E.00204
G1 X122.91 Y104.68 E.00204
G1 X122.951 Y104.669 E.00118
;WIPE_START
G1 F23040
G1 X122.91 Y104.68 E-.0063
G1 X122.891 Y104.609 E-.01091
G1 X122.962 Y104.628 E-.01091
G1 X123.035 Y104.49 E-.02317
G1 X123.107 Y104.351 E-.02324
G1 X125.683 Y101.775 E-.54076
G1 X125.259 Y101.624 E-.06681
G1 X123.389 Y103.494 E-.39255
G1 X123.323 Y103.632 E-.02271
G1 X123.258 Y103.771 E-.02278
G1 X123.187 Y103.752 E-.01091
G1 X123.206 Y103.823 E-.01091
G1 X123.247 Y103.812 E-.0063
;WIPE_END
G1 E-.85174 F3600
G1 Z.8 F28800
G1 X122.526 Y105.655
G1 Z.4
G1 E2 F1800
G1 F10588.235
G1 X122.485 Y105.666 E.00118
G1 X122.466 Y105.595 E.00204
G1 X122.537 Y105.614 E.00204
;WIDTH:0.41646
G1 F9637.536
G1 X122.617 Y105.475 E.00488
;WIDTH:0.449999
G1 F8843.491
G1 X122.697 Y105.337 E.00529
G1 X126.005 Y102.029 E.15518
G1 X126.246 Y102.363 E.01366
G1 X122.065 Y106.545 E.19616
G1 X121.952 Y106.689 E.00607
;WIDTH:0.41646
G1 F9637.536
G1 X121.838 Y106.833 E.00559
;WIDTH:0.38292
G1 F10588.235
G1 X121.083 Y107.743 E.03276
;WIPE_START
G1 F23040
G1 X121.838 Y106.833 E-.17552
G1 X121.952 Y106.689 E-.02726
G1 X122.065 Y106.545 E-.02717
G1 X126.246 Y102.363 E-.87779
G1 X126.005 Y102.029 E-.06114
G1 X122.697 Y105.337 E-.69442
G1 X122.617 Y105.475 E-.02368
G1 X122.537 Y105.614 E-.02381
G1 X122.466 Y105.595 E-.01091
G1 X122.485 Y105.666 E-.01091
G1 X122.526 Y105.655 E-.0063
;WIPE_END
G1 E-.06109 F3600
G1 Z.8 F28800
G1 X106.168 Y112.61
G1 Z.4
G1 E2 F1800
;WIDTH:0.449999
G1 F8843.491
G1 X107.597 Y112.95 E.04873
G1 X108.591 Y113.111 E.0334
G1 X105.807 Y115.895 E.1306
G1 X105.011 Y115.064 E.03817
G1 X104.853 Y114.872 E.00825
G1 X104.607 Y114.43 E.01678
G1 X104.542 Y114.022 E.0137
G1 X104.602 Y113.597 E.01424
G1 X104.855 Y113.12 E.01791
G1 X105.265 Y112.771 E.01786
G1 X105.658 Y112.63 E.01385
G1 X105.965 Y112.618 E.01019
G1 X105.913 Y113.024 E.01358
G1 X105.726 Y113.032 E.00621
G1 X105.476 Y113.123 E.00883
G1 X105.128 Y113.43 E.01539
G1 X104.997 Y113.713 E.01034
G1 X104.954 Y114.018 E.01022
G1 X105.054 Y114.421 E.01377
G1 X105.305 Y114.783 E.01461
G1 X105.813 Y115.313 E.02435
G1 X107.74 Y113.386 E.0904
G1 X107.502 Y113.346 E.00801
G1 X106.116 Y113.016 E.04726
G1 X106.063 Y113.422 E.01358
G1 X106.924 Y113.627 E.02936
G1 X105.819 Y114.731 E.05181
G1 X105.599 Y114.501 E.01056
G1 X105.393 Y114.186 E.01249
G1 X105.376 Y113.942 E.00811
G1 X105.476 Y113.647 E.01033
G1 X105.768 Y113.439 E.01189
G1 X105.86 Y113.434 E.00306
;WIPE_START
G1 F23040
G1 X105.768 Y113.439 E-.01368
G1 X105.476 Y113.647 E-.05322
G1 X105.376 Y113.942 E-.04624
G1 X105.393 Y114.186 E-.03631
G1 X105.599 Y114.501 E-.05587
G1 X105.819 Y114.731 E-.04724
G1 X106.924 Y113.627 E-.23186
G1 X106.063 Y113.422 E-.13138
G1 X106.116 Y113.016 E-.06078
G1 X107.502 Y113.346 E-.21149
G1 X107.74 Y113.386 E-.03582
G1 X105.813 Y115.313 E-.40452
G1 X105.305 Y114.783 E-.10897
G1 X105.054 Y114.421 E-.06539
G1 X104.954 Y114.018 E-.06163
G1 X104.997 Y113.713 E-.04572
G1 X105.128 Y113.43 E-.04629
G1 X105.476 Y113.123 E-.06888
G1 X105.726 Y113.032 E-.03949
G1 X105.913 Y113.024 E-.02778
G1 X105.965 Y112.618 E-.06076
G1 X105.658 Y112.63 E-.04561
G1 X105.265 Y112.771 E-.06198
G1 X105.064 Y112.942 E-.03909
;WIPE_END
G1 Z.8 F28800
G1 X106.075 Y116.202
G1 Z.4
G1 E2 F1800
G1 F8843.491
G1 X109.105 Y113.173 E.14212
G1 X109.641 Y113.212 E.01783
G1 X106.336 Y116.517 E.15504
G1 X106.588 Y116.841 E.01362
G1 X110.198 Y113.231 E.16935
G1 X110.778 Y113.226 E.01924
G1 X106.829 Y117.175 E.18526
G1 X107.063 Y117.517 E.01375
G1 X111.386 Y113.194 E.2028
G1 X112.025 Y113.131 E.0213
G1 X107.282 Y117.874 E.2225
G1 X107.5 Y118.231 E.01388
G1 X112.705 Y113.027 E.24415
G1 X113.429 Y112.878 E.02452
G1 X107.704 Y118.603 E.26857
G1 X107.903 Y118.979 E.01411
G1 X114.208 Y112.675 E.29576
G1 X114.351 Y112.588 E.00555
;WIDTH:0.41646
G1 F9637.536
G1 X114.493 Y112.501 E.00507
;WIDTH:0.38292
G1 F10588.235
G1 X114.403 Y112.48 E.00256
G1 X114.128 Y112.537 E.00778
G1 X114.128 Y112.537 F28800
G1 X115.067 Y112.392
;WIDTH:0.449999
G1 F8843.491
G1 X108.088 Y119.371 E.3274
G1 X108.263 Y119.771 E.01448
G1 X116.05 Y111.984 E.3653
;WIPE_START
G1 F23040
G1 X108.263 Y119.771 E-1.63467
G1 X108.088 Y119.371 E-.06481
G1 X109.52 Y117.939 E-.30052
;WIPE_END
G1 Z.8 F28800
G1 X118.469 Y110.357
G1 Z.4
G1 E2 F1800
;WIDTH:0.38292
G1 F10588.235
G1 X117.565 Y111.106 E.03253
;WIDTH:0.41646
G1 F9637.536
G1 X117.421 Y111.219 E.00557
;WIDTH:0.449999
G1 F8843.491
G1 X117.277 Y111.333 E.00609
G1 X108.429 Y120.181 E.41508
G1 X108.579 Y120.607 E.01498
G1 X119.702 Y109.491 E.52164
;WIDTH:0.43967
G1 F9073.724
G1 X120.253 Y108.94 E.02519
;WIDTH:0.449999
G1 F8843.491
G1 X126.401 Y102.785 E.28858
G1 X126.533 Y103.228 E.01533
G1 X108.72 Y121.042 E.83567
G1 X108.848 Y121.489 E.01542
G1 X126.666 Y103.671 E.83588
G1 X126.809 Y104.103 E.01509
G1 X108.964 Y121.949 E.83717
G1 X109.002 Y122.743 E.02637
;WIDTH:0.38292
G1 F10588.235
G1 X108.961 Y122.754 E.00118
G1 X108.942 Y122.683 E.00204
G1 X109.013 Y122.702 E.00204
;WIDTH:0.41646
G1 F9637.536
G1 X109.038 Y122.564 E.00427
;WIDTH:0.449999
G1 F8843.491
G1 X109.063 Y122.425 E.00468
G1 X126.968 Y104.52 E.83996
G1 X127.127 Y104.937 E.0148
G1 X118.31 Y113.754 E.41362
G1 X118.166 Y113.868 E.00609
;WIDTH:0.41646
G1 F9637.536
G1 X118.022 Y113.983 E.00561
;WIDTH:0.38292
G1 F10588.235
G1 X117.03 Y114.818 E.03592
;WIPE_START
G1 F23040
G1 X118.022 Y113.983 E-.19247
G1 X118.166 Y113.868 E-.02735
G1 X118.31 Y113.754 E-.02726
G1 X126.66 Y105.404 E-1.75292
;WIPE_END
G1 Z.8 F28800
G1 X119.263 Y113.353
G1 Z.4
G1 E2 F1800
G1 F10588.235
G1 X119.222 Y113.364 E.00118
G1 X119.203 Y113.293 E.00204
G1 X119.274 Y113.312 E.00204
;WIDTH:0.41646
G1 F9637.536
G1 X119.398 Y113.215 E.00479
;WIDTH:0.449999
G1 F8843.491
G1 X119.521 Y113.119 E.00518
G1 X127.303 Y105.337 E.36507
G1 X127.489 Y105.727 E.01433
G1 X120.505 Y112.711 E.32763
G1 X120.381 Y112.799 E.00504
;WIDTH:0.41646
G1 F9637.536
G1 X120.258 Y112.887 E.0046
;WIDTH:0.38292
G1 F10588.235
G1 X120.187 Y112.868 E.00204
G1 X120.206 Y112.939 E.00204
G1 X120.247 Y112.928 E.00118
;WIPE_START
G1 F23040
G1 X120.206 Y112.939 E-.0063
G1 X120.187 Y112.868 E-.01091
G1 X120.258 Y112.887 E-.01091
G1 X120.381 Y112.799 E-.02245
G1 X120.505 Y112.711 E-.02257
G1 X127.489 Y105.727 E-1.4661
G1 X127.303 Y105.337 E-.06414
G1 X125.414 Y107.226 E-.39662
;WIPE_END
G1 Z.8 F28800
G1 X121.411 Y112.578
G1 Z.4
G1 E2 F1800
G1 F10588.235
G1 X121.227 Y112.629 E.00529
G1 X121.07 Y112.605 E.0044
;WIDTH:0.41646
G1 F9637.536
G1 X121.214 Y112.519 E.00511
;WIDTH:0.449999
G1 F8843.491
G1 X121.358 Y112.434 E.00555
G1 X127.686 Y106.106 E.29686
G1 X127.897 Y106.47 E.01396
G1 X122.135 Y112.232 E.27031
G1 X122.851 Y112.092 E.0242
G1 X128.114 Y106.829 E.2469
G1 X128.336 Y107.182 E.01383
G1 X123.519 Y111.999 E.22598
G1 X124.148 Y111.946 E.02094
G1 X128.572 Y107.522 E.20754
G1 X128.814 Y107.856 E.01368
G1 X124.744 Y111.925 E.19091
G1 X125.321 Y111.924 E.01914
G1 X129.065 Y108.18 E.17564
G1 X129.328 Y108.493 E.01356
G1 X125.877 Y111.944 E.16189
G1 X126.407 Y111.99 E.01765
G1 X129.597 Y108.799 E.14967
G1 X129.876 Y109.096 E.01352
G1 X126.908 Y112.064 E.13923
G1 X127.408 Y112.14 E.01678
G1 X130.165 Y109.383 E.12934
G1 X130.46 Y109.664 E.01351
G1 X127.885 Y112.239 E.1208
;WIPE_START
G1 F23040
G1 X130.46 Y109.664 E-.54055
G1 X130.165 Y109.383 E-.06048
G1 X127.408 Y112.14 E-.57876
G1 X126.908 Y112.064 E-.07507
G1 X129.876 Y109.096 E-.62305
G1 X129.597 Y108.799 E-.06049
G1 X129.304 Y109.092 E-.0616
;WIPE_END
G1 Z.8 F28800
G1 X130.625 Y110.074
G1 Z.4
G1 E2 F1800
G1 F8843.491
G1 X128.345 Y112.354 E.10696
G1 X129.28 Y112.633 E.03237
G1 X129.858 Y112.848 E.02046
G1 X130.331 Y113.05 E.01706
G1 X130.981 Y113.36 E.02389
G1 X131.437 Y113.607 E.0172
G1 X131.992 Y113.938 E.02144
G1 X132.508 Y114.282 E.02057
G1 X133.007 Y114.65 E.02057
G1 X133.525 Y115.071 E.02214
G1 X134.207 Y115.704 E.03087
G1 X136.948 Y112.963 E.12859
G1 X136.212 Y112.795 E.02504
G1 X135.613 Y112.625 E.02065
G1 X135.023 Y112.427 E.02064
G1 X134.491 Y112.221 E.01892
G1 X133.921 Y111.972 E.02063
G1 X133.363 Y111.698 E.02062
G1 X132.819 Y111.398 E.02061
G1 X131.857 Y110.786 E.03782
G1 X131.351 Y110.415 E.02081
G1 X130.769 Y109.93 E.02513
G1 X130.794 Y110.481 E.0183
G1 X131.11 Y110.743 E.01362
G1 X131.638 Y111.129 E.0217
G1 X132.621 Y111.754 E.03864
G1 X133.182 Y112.062 E.02123
G1 X133.756 Y112.344 E.02121
G1 X134.343 Y112.6 E.02124
G1 X134.894 Y112.813 E.0196
G1 X135.502 Y113.016 E.02126
G1 X136.139 Y113.196 E.02196
G1 X134.203 Y115.132 E.09082
G1 X133.783 Y114.756 E.0187
G1 X133.25 Y114.323 E.02278
G1 X132.735 Y113.944 E.02121
G1 X132.203 Y113.59 E.0212
G1 X131.631 Y113.249 E.02209
G1 X131.158 Y112.993 E.01784
G1 X130.491 Y112.676 E.0245
G1 X130 Y112.467 E.0177
G1 X129.121 Y112.155 E.03094
G1 X130.65 Y110.625 E.07175
G1 X130.819 Y111.034 E.01468
G1 X131.418 Y111.471 E.0246
G1 X132.423 Y112.11 E.03951
G1 X133.001 Y112.427 E.02187
G1 X133.592 Y112.717 E.02184
G1 X134.196 Y112.98 E.02185
G1 X134.764 Y113.199 E.02019
G1 X135.361 Y113.399 E.02089
G1 X134.188 Y114.571 E.055
G1 X133.493 Y113.996 E.02992
G1 X132.962 Y113.606 E.02185
G1 X132.413 Y113.242 E.02185
G1 X131.826 Y112.892 E.02267
G1 X131.336 Y112.627 E.01848
G1 X130.651 Y112.302 E.02515
G1 X129.868 Y111.983 E.02805
G1 X130.675 Y111.177 E.03783
G1 X130.856 Y111.54 E.01346
;WIDTH:0.4074
G1 F9877.085
G1 X131.217 Y111.784 E.01294
;WIDTH:0.379199
G1 F10705.396
G1 X131.702 Y112.075 E.0155
;WIDTH:0.346411
G1 F11861.967
G1 X132.255 Y112.411 E.016
;WIDTH:0.341843
G1 F12043.235
G1 X132.843 Y112.743 E.01645
;WIDTH:0.389247
G1 F10394.801
G1 X133.44 Y113.061 E.01909
;WIDTH:0.429263
G1 F9318.145
G1 X133.743 Y113.215 E.0107
;WIDTH:0.469279
G1 F8443.589
G1 X134.046 Y113.368 E.01179
;WIDTH:0.502233
G1 F7837.792
G1 X134.561 Y113.586 E.02093
G1 X134.165 Y113.982 E.02096
G1 X133.95 Y113.825 E.00996
;WIDTH:0.47719
G1 F8289.783
G1 X133.736 Y113.668 E.00939
;WIDTH:0.452146
G1 F8797.095
G1 X133.453 Y113.483 E.01127
;WIDTH:0.415245
G1 F9668.972
G1 X133.169 Y113.298 E.01028
;WIDTH:0.378344
G1 F10732.685
G1 X132.595 Y112.942 E.01846
;WIDTH:0.336751
G1 F12251.941
G1 X131.991 Y112.588 E.01676
;WIDTH:0.346411
G1 F11861.967
G1 X131.547 Y112.336 E.01263
;WIDTH:0.379199
G1 F10705.396
G1 X131.053 Y112.077 E.01528
;WIDTH:0.4074
G1 F9877.085
G1 X130.555 Y111.841 E.01637
G1 X130.712 Y111.684 E.00659
;WIPE_START
G1 F23040
G1 X130.555 Y111.841 E-.03296
G1 X131.053 Y112.077 E-.0818
G1 X131.547 Y112.336 E-.0828
G1 X131.991 Y112.588 E-.07578
G1 X132.595 Y112.942 E-.10392
G1 X133.169 Y113.298 E-.10026
G1 X133.453 Y113.483 E-.05031
G1 X133.736 Y113.668 E-.05019
G1 X133.95 Y113.825 E-.0394
G1 X134.165 Y113.982 E-.03952
G1 X134.561 Y113.586 E-.08313
G1 X134.046 Y113.368 E-.08301
G1 X133.743 Y113.215 E-.05039
G1 X133.44 Y113.061 E-.05045
G1 X132.843 Y112.743 E-.1004
G1 X132.255 Y112.411 E-.10023
G1 X131.702 Y112.075 E-.09605
G1 X131.217 Y111.784 E-.08396
G1 X130.856 Y111.54 E-.06468
G1 X130.675 Y111.177 E-.06021
G1 X129.868 Y111.983 E-.1693
G1 X130.651 Y112.302 E-.1255
G1 X131.336 Y112.627 E-.11254
G1 X131.826 Y112.892 E-.08269
G1 X132.292 Y113.17 E-.08052
;WIPE_END
G1 Z.8 F28800
G1 X134.493 Y115.994
G1 Z.4
G1 E2 F1800
;WIDTH:0.449999
G1 F8843.491
G1 X137.433 Y113.054 E.13792
G1 X137.937 Y113.125 E.01688
G1 X134.768 Y116.294 E.14866
G1 X135.034 Y116.604 E.01355
G1 X138.461 Y113.176 E.16079
G1 X138.999 Y113.214 E.01789
G1 X135.293 Y116.92 E.17386
G1 X135.542 Y117.247 E.01363
G1 X139.564 Y113.225 E.18868
G1 X140.143 Y113.222 E.01921
G1 X135.779 Y117.586 E.20472
G1 X136.011 Y117.93 E.01376
G1 X140.755 Y113.186 E.22255
G1 X141.402 Y113.115 E.02159
G1 X136.231 Y118.285 E.24256
G1 X136.44 Y118.652 E.01401
G1 X142.082 Y113.01 E.26468
G1 X142.815 Y112.853 E.02487
G1 X136.641 Y119.026 E.28961
G1 X136.832 Y119.411 E.01426
G1 X143.572 Y112.672 E.31616
G1 X144.209 Y112.61 E.02123
G1 X137.01 Y119.809 E.33772
G1 X137.178 Y120.217 E.01464
G1 X144.654 Y112.741 E.35071
G1 X145.004 Y112.967 E.01382
G1 X137.336 Y120.634 E.3597
G1 X137.479 Y121.067 E.01513
G1 X145.261 Y113.285 E.36507
G1 X145.421 Y113.701 E.01478
G1 X137.609 Y121.512 E.36645
G1 X137.725 Y121.972 E.01574
G1 X145.426 Y114.271 E.36127
G1 X145.228 Y114.924 E.02264
;WIDTH:0.38292
G1 F10588.235
G1 X144.184 Y115.997 E.04148
;WIDTH:0.40805
G1 F9859.502
G1 X143.607 Y116.636 E.02562
;WIDTH:0.449999
G1 F8843.491
G1 X143.349 Y116.924 E.01283
G1 X137.826 Y122.447 E.25909
G1 X137.919 Y122.93 E.01632
G1 X142.462 Y118.384 E.21319
;WIDTH:0.41646
G1 F9637.536
G1 X142.587 Y118.255 E.00547
;WIDTH:0.38292
G1 F10588.235
G1 X142.546 Y118.266 E.00118
G1 X142.527 Y118.195 E.00204
G1 X142.598 Y118.214 E.00204
;WIPE_START
G1 F23040
G1 X142.527 Y118.195 E-.01091
G1 X142.546 Y118.266 E-.01091
G1 X142.587 Y118.255 E-.0063
G1 X142.462 Y118.384 E-.02666
G1 X137.919 Y122.93 E-.95399
G1 X137.826 Y122.447 E-.07301
G1 X142.2 Y118.073 E-.91822
;WIPE_END
G1 Z.8 F28800
G1 X142.04 Y119.324
G1 Z.4
G1 E2 F1800
G1 F10588.235
G1 X141.969 Y119.305 E.00204
G1 X141.988 Y119.376 E.00204
G1 X142.029 Y119.365 E.00118
;WIDTH:0.41646
G1 F9637.536
G1 X141.916 Y119.494 E.00522
;WIDTH:0.449999
G1 F8843.491
G1 X137.992 Y123.433 E.18443
G1 X138.044 Y123.956 E.01743
G1 X141.435 Y120.565 E.15908
G1 X141.541 Y120.436 E.00554
;WIDTH:0.41646
G1 F9637.536
G1 X141.647 Y120.307 E.00508
;WIDTH:0.38292
G1 F10588.235
G1 X141.606 Y120.318 E.00118
G1 X141.587 Y120.247 E.00204
G1 X141.658 Y120.266 E.00204
G1 X141.658 Y120.266 F28800
G1 X141.342 Y121.114
G1 F10588.235
G1 X141.356 Y121.318 E.00567
;WIDTH:0.41646
G1 F9637.536
G1 X141.265 Y121.36 E.00305
;WIDTH:0.449999
G1 F8843.491
G1 X141.174 Y121.402 E.00332
G1 X138.074 Y124.502 E.14543
G1 X138.084 Y125.068 E.01878
G1 X140.999 Y122.153 E.13675
G1 X140.862 Y122.865 E.02405
G1 X138.067 Y125.66 E.13112
G1 X138.021 Y126.282 E.02069
G1 X140.771 Y123.532 E.12901
G1 X140.717 Y124.161 E.02094
G1 X137.94 Y126.939 E.1303
G1 X137.817 Y127.637 E.02351
G1 X140.694 Y124.761 E.13494
G1 X140.699 Y125.331 E.01891
G1 X137.638 Y128.392 E.1436
G1 X137.55 Y128.422 E.00308
;WIDTH:0.41646
G1 F9637.536
G1 X137.462 Y128.453 E.00284
;WIDTH:0.38292
G1 F10588.235
G1 X137.445 Y128.585 E.00369
G1 X137.47 Y128.68 E.00272
G1 X137.226 Y129.545 F28800
G1 F10588.235
G1 X137.185 Y129.556 E.00118
G1 X137.166 Y129.485 E.00204
G1 X137.237 Y129.504 E.00204
;WIDTH:0.41646
G1 F9637.536
G1 X137.308 Y129.366 E.00472
;WIDTH:0.449999
G1 F8843.491
G1 X137.378 Y129.227 E.00516
G1 X140.724 Y125.881 E.15697
G1 X140.765 Y126.416 E.0178
G1 X137.01 Y130.171 E.17615
G1 X136.929 Y130.33 E.00592
;WIDTH:0.41646
G1 F9637.536
G1 X136.847 Y130.489 E.00545
;WIDTH:0.38292
G1 F10588.235
G1 X136.806 Y130.5 E.00118
G1 X136.787 Y130.429 E.00204
G1 X136.858 Y130.448 E.00204
;WIPE_START
G1 F23040
G1 X136.787 Y130.429 E-.01091
G1 X136.806 Y130.5 E-.01091
G1 X136.847 Y130.489 E-.0063
G1 X136.929 Y130.33 E-.02656
G1 X137.01 Y130.171 E-.02649
G1 X140.765 Y126.416 E-.78826
G1 X140.724 Y125.881 E-.07965
G1 X137.378 Y129.227 E-.7024
G1 X137.308 Y129.366 E-.0231
G1 X137.237 Y129.504 E-.02304
G1 X137.166 Y129.485 E-.01091
G1 X137.185 Y129.556 E-.01091
G1 X137.226 Y129.545 E-.0063
;WIPE_END
G1 E-.27426 F3600
G1 Z.8 F28800
G1 X136.292 Y131.595
G1 Z.4
G1 E2 F1800
G1 F10588.235
G1 X136.251 Y131.606 E.00118
G1 X136.232 Y131.535 E.00204
G1 X136.303 Y131.554 E.00204
;WIDTH:0.41646
G1 F9637.536
G1 X136.392 Y131.415 E.00502
;WIDTH:0.449999
G1 F8843.491
G1 X136.48 Y131.277 E.00543
G1 X140.828 Y126.929 E.20397
;WIPE_START
G1 F23040
G1 X136.48 Y131.277 E-.91274
G1 X136.392 Y131.415 E-.02429
G1 X136.303 Y131.554 E-.0245
G1 X136.232 Y131.535 E-.01091
G1 X136.251 Y131.606 E-.01091
G1 X136.292 Y131.595 E-.0063
;WIPE_END
G1 E-1.01035 F3600
G1 Z.8 F28800
G1 X114.847 Y117.001
G1 Z.4
G1 E2 F1800
;WIDTH:0.38292
G1 F10588.235
G1 X113.987 Y118.018 E.0369
;WIDTH:0.41646
G1 F9637.536
G1 X113.873 Y118.162 E.00559
;WIDTH:0.449999
G1 F8843.491
G1 X113.759 Y118.305 E.00607
G1 X109.148 Y122.916 E.21631
G1 X109.217 Y123.422 E.01694
G1 X113.245 Y119.38 E.18929
;WIDTH:0.41646
G1 F9637.536
G1 X113.36 Y119.251 E.00526
;WIDTH:0.38292
G1 F10588.235
G1 X113.319 Y119.262 E.00118
G1 X113.3 Y119.191 E.00204
G1 X113.371 Y119.21 E.00204
;WIPE_START
G1 F23040
G1 X113.3 Y119.191 E-.01091
G1 X113.319 Y119.262 E-.01091
G1 X113.36 Y119.251 E-.0063
G1 X113.245 Y119.38 E-.02565
G1 X109.217 Y123.422 E-.84704
G1 X109.148 Y122.916 E-.0758
G1 X113.759 Y118.305 E-.96795
G1 X113.873 Y118.162 E-.02715
G1 X113.987 Y118.018 E-.02726
G1 X113.991 Y118.013 E-.00103
;WIPE_END
G1 Z.8 F28800
G1 X112.95 Y120.195
G1 Z.4
G1 E2 F1800
G1 F10588.235
G1 X112.879 Y120.176 E.00204
G1 X112.898 Y120.247 E.00204
G1 X112.939 Y120.236 E.00118
;WIDTH:0.41646
G1 F9637.536
G1 X112.83 Y120.365 E.00514
;WIDTH:0.449999
G1 F8843.491
G1 X112.722 Y120.494 E.00558
G1 X109.268 Y123.948 E.16203
G1 X109.293 Y124.499 E.0183
G1 X112.43 Y121.361 E.14719
G1 X112.507 Y121.372 E.00258
;WIDTH:0.41646
G1 F9637.536
G1 X112.584 Y121.382 E.00236
;WIDTH:0.38292
G1 F10588.235
G1 X112.626 Y121.231 E.00434
G1 X112.602 Y121.074 E.0044
;WIPE_START
G1 F23040
G1 X112.626 Y121.231 E-.02358
G1 X112.584 Y121.382 E-.02326
G1 X112.507 Y121.372 E-.01153
G1 X112.43 Y121.361 E-.01155
G1 X109.293 Y124.499 E-.65863
G1 X109.268 Y123.948 E-.08187
G1 X112.722 Y120.494 E-.72507
G1 X112.83 Y120.365 E-.02497
G1 X112.939 Y120.236 E-.02507
G1 X112.898 Y120.247 E-.0063
G1 X112.879 Y120.176 E-.01091
G1 X112.95 Y120.195 E-.01091
;WIPE_END
G1 E-.38635 F3600
G1 Z.8 F28800
G1 X112.233 Y122.134
G1 Z.4
G1 E2 F1800
;WIDTH:0.449999
G1 F8843.491
G1 X109.309 Y125.057 E.13715
G1 X109.295 Y125.648 E.01961
G1 X112.094 Y122.848 E.13133
G1 X112 Y123.518 E.02244
G1 X109.251 Y126.267 E.12896
G1 X109.172 Y126.922 E.02188
G1 X111.944 Y124.15 E.13004
G1 X111.919 Y124.751 E.01995
G1 X109.055 Y127.615 E.13436
;WIPE_START
G1 F23040
G1 X111.919 Y124.751 E-.60122
G1 X111.944 Y124.15 E-.08929
G1 X109.172 Y126.922 E-.5819
G1 X109.251 Y126.267 E-.09793
G1 X112 Y123.518 E-.57708
G1 X112.049 Y123.167 E-.05258
;WIPE_END
G1 Z.8 F28800
G1 X108.75 Y128.683
G1 Z.4
G1 E2 F1800
;WIDTH:0.38292
G1 F10588.235
G1 X108.709 Y128.694 E.00118
G1 X108.689 Y128.623 E.00204
G1 X108.761 Y128.642 E.00206
;WIDTH:0.41646
G1 F9637.536
G1 X108.82 Y128.504 E.00457
;WIDTH:0.449999
G1 F8843.491
G1 X108.88 Y128.365 E.00502
G1 X111.92 Y125.325 E.14261
G1 X111.945 Y125.876 E.0183
G1 X108.657 Y129.164 E.15425
G1 X108.589 Y129.302 E.0051
;WIDTH:0.41646
G1 F9637.536
G1 X108.521 Y129.441 E.00471
;WIDTH:0.38292
G1 F10588.235
G1 X108.45 Y129.421 E.00204
G1 X108.469 Y129.493 E.00206
G1 X108.51 Y129.482 E.00118
G1 X108.51 Y129.482 F28800
G1 X108.167 Y130.387
G1 F10588.235
G1 X108.126 Y130.398 E.00118
G1 X108.107 Y130.327 E.00204
G1 X108.178 Y130.346 E.00204
;WIDTH:0.41646
G1 F9637.536
G1 X108.253 Y130.208 E.00478
;WIDTH:0.449999
G1 F8843.491
G1 X108.328 Y130.069 E.00524
G1 X111.991 Y126.405 E.17186
G1 X112.056 Y126.917 E.01712
G1 X107.854 Y131.118 E.1971
G1 X107.769 Y131.257 E.0054
;WIDTH:0.41646
G1 F9637.536
G1 X107.685 Y131.395 E.00492
;WIDTH:0.38292
G1 F10588.235
G1 X107.614 Y131.376 E.00204
G1 X107.633 Y131.447 E.00204
G1 X107.674 Y131.436 E.00118
;WIPE_START
G1 F23040
G1 X107.633 Y131.447 E-.0063
G1 X107.614 Y131.376 E-.01091
G1 X107.685 Y131.395 E-.01091
G1 X107.769 Y131.257 E-.02398
G1 X107.854 Y131.118 E-.02418
G1 X112.056 Y126.917 E-.88199
G1 X111.991 Y126.405 E-.07661
G1 X108.328 Y130.069 E-.76905
G1 X108.253 Y130.208 E-.02344
G1 X108.178 Y130.346 E-.02331
G1 X108.107 Y130.327 E-.01091
G1 X108.126 Y130.398 E-.01091
G1 X108.167 Y130.387 E-.0063
;WIPE_END
G1 E-.1212 F3600
G1 Z.8 F28800
G1 X104.722 Y135.036
G1 Z.4
G1 E2 F1800
G1 F10588.235
G1 X105.773 Y133.955 E.04177
G1 X106.822 Y132.775 E.04374
;WIDTH:0.41646
G1 F9637.536
G1 X106.941 Y132.631 E.00569
;WIDTH:0.449999
G1 F8843.491
G1 X107.061 Y132.487 E.00622
G1 X112.137 Y127.411 E.23813
G1 X112.238 Y127.886 E.01611
G1 X104.649 Y135.475 E.35602
G1 X104.546 Y135.557 E.00437
;WIDTH:0.41646
G1 F9637.536
G1 X104.444 Y135.64 E.004
;WIDTH:0.38292
G1 F10588.235
G1 X104.399 Y136.005 E.01019
;WIDTH:0.449999
G1 F8843.491
G1 X104.554 Y136.145 E.00693
G1 X112.352 Y128.348 E.3658
G1 X112.478 Y128.797 E.01547
G1 X104.68 Y136.595 E.36582
G1 X104.912 Y136.938 E.01374
G1 X112.618 Y129.233 E.36148
G1 X112.771 Y129.656 E.01492
G1 X105.224 Y137.202 E.35402
G1 X105.641 Y137.362 E.01482
G1 X112.936 Y130.066 E.34225
G1 X113.112 Y130.466 E.0145
G1 X106.194 Y137.384 E.32454
G1 X106.95 Y137.203 E.02579
G1 X113.297 Y130.857 E.29773
G1 X113.502 Y131.227 E.01403
G1 X107.698 Y137.032 E.2723
G1 X108.389 Y136.917 E.02324
G1 X113.708 Y131.597 E.24955
G1 X113.913 Y131.968 E.01406
G1 X109.048 Y136.833 E.22823
G1 X109.67 Y136.787 E.02069
G1 X114.118 Y132.338 E.20869
G1 X114.355 Y132.677 E.01372
G1 X110.261 Y136.772 E.19208
G1 X110.826 Y136.782 E.01874
G1 X114.596 Y133.012 E.17686
G1 X114.858 Y133.326 E.01357
G1 X111.374 Y136.81 E.16344
G1 X111.906 Y136.854 E.01771
G1 X115.119 Y133.64 E.15075
G1 X115.391 Y133.944 E.01353
G1 X112.412 Y136.923 E.13975
G1 X112.902 Y137.009 E.0165
G1 X115.671 Y134.239 E.12992
G1 X115.963 Y134.523 E.01351
G1 X113.378 Y137.108 E.12127
;WIPE_START
G1 F23040
G1 X115.963 Y134.523 E-.54265
G1 X115.671 Y134.239 E-.06046
G1 X112.902 Y137.009 E-.58138
G1 X112.412 Y136.923 E-.07385
G1 X115.391 Y133.944 E-.62536
G1 X115.119 Y133.64 E-.06055
G1 X114.853 Y133.906 E-.05575
;WIPE_END
G1 Z.8 F28800
G1 X116.12 Y134.942
G1 Z.4
G1 E2 F1800
G1 F8843.491
G1 X113.842 Y137.22 E.10687
G1 X114.36 Y137.367 E.01786
G1 X114.953 Y137.565 E.02074
G1 X115.536 Y137.789 E.02072
G1 X116.107 Y138.04 E.02069
G1 X117.086 Y138.546 E.03656
G1 X117.625 Y138.87 E.02086
G1 X118.135 Y139.208 E.0203
G1 X118.649 Y139.585 E.02114
G1 X119.135 Y139.978 E.02073
G1 X119.74 Y140.533 E.02723
G1 X122.444 Y137.829 E.12685
G1 X121.4 Y137.624 E.03529
G1 X120.222 Y137.231 E.04119
G1 X119.702 Y137.015 E.01868
G1 X119.043 Y136.703 E.02419
G1 X118.543 Y136.434 E.01883
G1 X117.948 Y136.076 E.02303
G1 X117.492 Y135.761 E.01838
G1 X116.663 Y135.144 E.03428
G1 X116.264 Y134.798 E.01752
G1 X116.284 Y135.354 E.01846
G1 X117.261 Y136.096 E.0407
G1 X117.738 Y136.424 E.0192
G1 X118.35 Y136.793 E.02371
G1 X118.869 Y137.07 E.01951
G1 X119.546 Y137.391 E.02485
G1 X120.094 Y137.618 E.01968
G1 X121.272 Y138.01 E.04118
G1 X121.615 Y138.082 E.01163
G1 X119.728 Y139.969 E.08852
G1 X119.391 Y139.661 E.01514
G1 X118.89 Y139.257 E.02135
G1 X118.36 Y138.869 E.02179
G1 X117.834 Y138.521 E.02092
G1 X117.273 Y138.185 E.02169
G1 X116.271 Y137.668 E.0374
G1 X115.682 Y137.409 E.02134
G1 X115.108 Y137.188 E.0204
G1 X114.615 Y137.023 E.01725
G1 X116.14 Y135.498 E.07154
G1 X116.311 Y135.903 E.01458
G1 X117.527 Y136.773 E.0496
G1 X118.158 Y137.151 E.0244
G1 X118.694 Y137.438 E.02017
G1 X119.389 Y137.767 E.02551
G1 X119.965 Y138.004 E.02066
G1 X120.83 Y138.292 E.03024
G1 X119.716 Y139.405 E.05224
G1 X119.13 Y138.929 E.02504
G1 X118.585 Y138.53 E.02241
G1 X118.044 Y138.172 E.02152
G1 X117.46 Y137.823 E.02257
G1 X116.435 Y137.295 E.03825
G1 X115.872 Y137.047 E.02041
G1 X115.363 Y136.85 E.0181
G1 X116.167 Y136.047 E.03769
G1 X116.341 Y136.412 E.01341
;WIDTH:0.400059
G1 F10080.11
G1 X116.823 Y136.729 E.01679
;WIDTH:0.360626
G1 F11331.231
G1 X117.35 Y137.067 E.01621
;WIDTH:0.321751
G1 F12911.047
G1 X117.999 Y137.447 E.01709
;WIDTH:0.326787
G1 F12681.996
G1 X118.546 Y137.75 E.01446
;WIDTH:0.364605
G1 F11191.072
G1 X119.004 Y137.988 E.01353
;WIDTH:0.399193
G1 F10104.611
G1 X119.28 Y138.129 E.009
;WIDTH:0.433781
G1 F9210.435
G1 X119.557 Y138.269 E.00989
;WIDTH:0.46465
G1 F8536.267
G1 X120.063 Y138.473 E.01875
G1 X119.69 Y138.846 E.01813
G1 X119.366 Y138.607 E.01384
;WIDTH:0.433781
G1 F9210.435
G1 X119.076 Y138.418 E.01103
;WIDTH:0.396202
G1 F10190.159
G1 X118.785 Y138.229 E.00999
;WIDTH:0.358623
G1 F11403.122
G1 X118.219 Y137.88 E.01711
;WIDTH:0.31599
G1 F13183.432
G1 X117.615 Y137.525 E.01559
;WIDTH:0.326225
G1 F12707.154
G1 X117.133 Y137.265 E.01264
;WIDTH:0.368445
G1 F11059.06
G1 X116.582 Y136.96 E.01671
;WIDTH:0.400059
G1 F10080.11
G1 X116.047 Y136.707 E.01722
G1 X116.197 Y136.556 E.00619
;WIPE_START
G1 F23040
G1 X116.047 Y136.707 E-.03159
G1 X116.582 Y136.96 E-.08785
G1 X117.133 Y137.265 E-.09348
G1 X117.615 Y137.525 E-.08129
G1 X118.219 Y137.88 E-.104
G1 X118.785 Y138.229 E-.0987
G1 X119.076 Y138.418 E-.05151
G1 X119.366 Y138.607 E-.05138
G1 X119.69 Y138.846 E-.05976
G1 X120.063 Y138.473 E-.0783
G1 X119.557 Y138.269 E-.08098
G1 X119.28 Y138.129 E-.04607
G1 X119.004 Y137.988 E-.04601
G1 X118.546 Y137.75 E-.07662
G1 X117.999 Y137.447 E-.09282
G1 X117.35 Y137.067 E-.11163
G1 X116.823 Y136.729 E-.09293
G1 X116.341 Y136.412 E-.08563
G1 X116.167 Y136.047 E-.06002
G1 X115.363 Y136.85 E-.16867
G1 X115.872 Y137.047 E-.08102
G1 X116.435 Y137.295 E-.09132
G1 X117.46 Y137.823 E-.17115
G1 X117.791 Y138.021 E-.05727
;WIPE_END
G1 Z.8 F28800
G1 X120.036 Y140.813
G1 Z.4
G1 E2 F1800
;WIDTH:0.449999
G1 F8843.491
G1 X122.93 Y137.919 E.13576
G1 X123.433 Y137.991 E.01686
G1 X120.316 Y141.109 E.14625
G1 X120.589 Y141.411 E.0135
G1 X123.955 Y138.045 E.15791
G1 X124.5 Y138.077 E.01811
G1 X120.855 Y141.721 E.17097
G1 X121.108 Y142.043 E.01358
G1 X125.067 Y138.085 E.1857
G1 X125.659 Y138.068 E.01965
G1 X121.355 Y142.372 E.20191
G1 X121.591 Y142.712 E.01373
G1 X126.281 Y138.022 E.22002
G1 X126.937 Y137.942 E.02192
G1 X121.819 Y143.06 E.2401
G1 X122.035 Y143.419 E.0139
G1 X127.636 Y137.819 E.26273
G1 X127.636 Y137.819 F28800
G1 X128.434 Y137.466
;WIDTH:0.38292
G1 F10588.235
G1 X128.587 Y137.443 E.00429
G1 X128.679 Y137.467 E.00263
;WIDTH:0.41646
G1 F9637.536
G1 X128.536 Y137.552 E.00506
;WIDTH:0.449999
G1 F8843.491
G1 X128.394 Y137.636 E.00547
G1 X122.252 Y143.778 E.28813
G1 X122.45 Y144.156 E.01415
G1 X129.222 Y137.384 E.31769
;WIPE_START
G1 F23040
G1 X122.45 Y144.156 E-1.42159
G1 X122.252 Y143.778 E-.06334
G1 X124.706 Y141.324 E-.51507
;WIPE_END
G1 Z.8 F28800
G1 X130.157 Y137.024
G1 Z.4
G1 E2 F1800
G1 F8843.491
G1 X122.641 Y144.541 E.35261
G1 X122.822 Y144.935 E.01438
G1 X131.287 Y136.47 E.39711
G1 X131.446 Y136.376 E.00613
;WIDTH:0.41646
G1 F9637.536
G1 X131.605 Y136.282 E.00562
;WIDTH:0.38292
G1 F10588.235
G1 X131.564 Y136.293 E.00118
G1 X131.545 Y136.222 E.00204
G1 X131.616 Y136.241 E.00204
;WIPE_START
G1 F23040
G1 X131.545 Y136.222 E-.01091
G1 X131.564 Y136.293 E-.01091
G1 X131.605 Y136.282 E-.0063
G1 X131.446 Y136.376 E-.02742
G1 X131.287 Y136.47 E-.02742
G1 X122.822 Y144.935 E-1.77699
G1 X122.641 Y144.541 E-.06436
G1 X123.002 Y144.18 E-.07569
;WIPE_END
G1 Z.8 F28800
G1 X132.909 Y135.424
G1 Z.4
G1 E2 F1800
;WIDTH:0.449999
G1 F8843.491
G1 X122.983 Y145.35 E.46565
;WIPE_START
G1 F23040
G1 X132.511 Y135.822 E-2
;WIPE_END
G1 Z.8 F28800
G1 X133.197 Y135.168
G1 Z.4
G1 E2 F1800
;WIDTH:0.404514
G1 F9955.917
G1 X133.899 Y134.516 E.02823
;WIDTH:0.38292
G1 F10588.235
G1 X134.778 Y133.625 E.03468
;WIDTH:0.401296
G1 F10045.315
G1 X135.166 Y133.201 E.01678
;WIDTH:0.449999
G1 F8843.491
G1 X135.42 Y132.913 E.01274
G1 X140.907 Y127.426 E.25741
G1 X141.004 Y127.905 E.01621
G1 X123.141 Y145.767 E.83797
G1 X123.293 Y146.191 E.01494
G1 X141.115 Y128.369 E.83607
G1 X141.239 Y128.821 E.01555
G1 X123.426 Y146.634 E.83564
G1 X123.558 Y147.078 E.01537
G1 X141.375 Y129.261 E.83583
G1 X141.524 Y129.688 E.015
G1 X132.272 Y138.94 E.43403
G1 X132.128 Y139.059 E.0062
;WIDTH:0.41646
G1 F9637.536
G1 X131.984 Y139.179 E.00571
;WIDTH:0.38292
G1 F10588.235
G1 X131.414 Y139.66 E.02066
G1 X130.358 Y140.639 E.0399
G1 X129.635 Y141.372 E.02853
G1 X129.206 Y141.836 E.01751
G1 X128.459 Y142.701 E.03167
;WIDTH:0.449999
G1 F8843.491
G1 X128.222 Y142.989 E.01237
G1 X123.692 Y147.519 E.21251
G1 X123.913 Y147.875 E.0139
G1 X127.582 Y144.197 E.17233
;WIDTH:0.41646
G1 F9637.536
G1 X127.703 Y144.068 E.00538
;WIDTH:0.38292
G1 F10588.235
G1 X127.662 Y144.079 E.00118
G1 X127.642 Y144.008 E.00204
G1 X127.714 Y144.027 E.00206
;WIPE_START
G1 F23040
G1 X127.642 Y144.008 E-.01105
G1 X127.662 Y144.079 E-.01095
G1 X127.703 Y144.068 E-.0063
G1 X127.582 Y144.197 E-.02625
G1 X123.913 Y147.875 E-.77115
G1 X123.692 Y147.519 E-.0622
G1 X128.222 Y142.989 E-.95095
G1 X128.459 Y142.701 E-.05536
G1 X128.925 Y142.162 E-.10579
;WIPE_END
G1 Z.8 F28800
G1 X127.236 Y145.06
G1 Z.4
G1 E2 F1800
G1 F10588.235
G1 X127.165 Y145.04 E.00204
G1 X127.184 Y145.112 E.00206
G1 X127.225 Y145.101 E.00118
;WIDTH:0.41646
G1 F9637.536
G1 X127.115 Y145.229 E.00514
;WIDTH:0.449999
G1 F8843.491
G1 X127.004 Y145.358 E.00565
G1 X124.212 Y148.151 E.131
G1 X124.593 Y148.346 E.0142
G1 X126.687 Y146.252 E.09823
G1 X126.789 Y146.123 E.00546
;WIDTH:0.41646
G1 F9637.536
G1 X126.892 Y145.994 E.00502
;WIDTH:0.38292
G1 F10588.235
G1 X126.851 Y146.005 E.00118
G1 X126.832 Y145.934 E.00204
G1 X126.903 Y145.953 E.00204
;WIPE_START
G1 F23040
G1 X126.832 Y145.934 E-.01091
G1 X126.851 Y146.005 E-.01091
G1 X126.892 Y145.994 E-.0063
G1 X126.789 Y146.123 E-.0245
G1 X126.687 Y146.252 E-.02441
G1 X124.593 Y148.346 E-.43958
G1 X124.212 Y148.151 E-.06353
G1 X127.004 Y145.358 E-.58621
G1 X127.115 Y145.229 E-.02526
G1 X127.225 Y145.101 E-.02505
G1 X127.184 Y145.112 E-.0063
G1 X127.165 Y145.04 E-.01105
G1 X127.236 Y145.06 E-.01095
;WIPE_END
G1 E-.75504 F3600
G1 Z.8 F28800
G1 X126.485 Y147.001
G1 Z.4
G1 E2 F1800
;WIDTH:0.410108
G1 F9804.242
G1 X126.334 Y147.508 E.01583
G1 X126.085 Y147.92 E.0144
G1 X125.853 Y148.143 E.00963
;WIDTH:0.405767
G1 F9921.537
G1 X125.607 Y148.291 E.00849
G1 X125.249 Y148.406 E.01112
G1 X125.062 Y148.421 E.00555
G1 X125.427 Y148.056 E.01526
;WIDTH:0.410108
G1 F9804.242
G1 X126.341 Y147.145 E.03861
;WIPE_START
G1 F23040
G1 X125.427 Y148.056 E-.19155
G1 X125.062 Y148.421 E-.07662
G1 X125.249 Y148.406 E-.02785
G1 X125.607 Y148.291 E-.05582
G1 X125.853 Y148.143 E-.04261
G1 X126.085 Y147.92 E-.04777
G1 X126.334 Y147.508 E-.07146
G1 X126.485 Y147.001 E-.07852
;WIPE_END
G1 E-1.4078 F3600
G1 Z.8 F28800
G1 X133.347 Y138.42
G1 Z.4
G1 E2 F1800
;WIDTH:0.38292
G1 F10588.235
G1 X133.306 Y138.431 E.00118
G1 X133.287 Y138.36 E.00204
G1 X133.358 Y138.379 E.00204
;WIDTH:0.41646
G1 F9637.536
G1 X133.481 Y138.281 E.00479
;WIDTH:0.449999
G1 F8843.491
G1 X133.605 Y138.183 E.00524
G1 X141.686 Y130.101 E.37912
G1 X141.856 Y130.507 E.0146
G1 X134.642 Y137.72 E.3384
G1 X134.519 Y137.811 E.00508
;WIDTH:0.41646
G1 F9637.536
G1 X134.396 Y137.902 E.00466
;WIDTH:0.38292
G1 F10588.235
G1 X134.324 Y137.883 E.00206
G1 X134.344 Y137.954 E.00204
G1 X134.385 Y137.943 E.00118
G1 X134.385 Y137.943 F28800
G1 X135.283 Y137.612
G1 F10588.235
G1 X135.242 Y137.623 E.00118
G1 X135.223 Y137.552 E.00204
G1 X135.294 Y137.571 E.00204
;WIDTH:0.41646
G1 F9637.536
G1 X135.416 Y137.486 E.00453
;WIDTH:0.449999
G1 F8843.491
G1 X135.538 Y137.401 E.00493
G1 X142.038 Y130.901 E.30493
G1 X142.234 Y131.28 E.01415
G1 X136.338 Y137.176 E.27659
G1 X136.196 Y137.26 E.00547
;WIDTH:0.41646
G1 F9637.536
G1 X136.053 Y137.344 E.00505
;WIDTH:0.38292
G1 F10588.235
G1 X136.246 Y137.36 E.00537
G1 X136.246 Y137.36 F28800
G1 X137.07 Y137.02
;WIDTH:0.449999
G1 F8843.491
G1 X142.433 Y131.657 E.25159
G1 X142.651 Y132.015 E.0139
G1 X137.767 Y136.898 E.22909
G1 X138.418 Y136.824 E.02173
G1 X142.869 Y132.372 E.20883
G1 X143.097 Y132.72 E.0138
G1 X139.035 Y136.782 E.19056
G1 X139.624 Y136.769 E.01954
G1 X143.335 Y133.058 E.17409
G1 X143.586 Y133.383 E.01362
G1 X140.188 Y136.78 E.15938
G1 X140.732 Y136.812 E.01808
G1 X143.843 Y133.701 E.14594
G1 X144.108 Y134.012 E.01355
G1 X141.255 Y136.864 E.13382
G1 X141.751 Y136.944 E.01667
G1 X144.388 Y134.308 E.12368
G1 X144.669 Y134.602 E.01349
G1 X142.247 Y137.024 E.11362
;WIPE_START
G1 F23040
G1 X144.669 Y134.602 E-.50843
G1 X144.388 Y134.308 E-.06037
G1 X141.751 Y136.944 E-.55346
G1 X141.255 Y136.864 E-.07458
G1 X144.108 Y134.012 E-.5988
G1 X143.843 Y133.701 E-.06065
G1 X143.158 Y134.386 E-.14371
;WIPE_END
G1 Z.8 F28800
G1 X144.799 Y135.048
G1 Z.4
G1 E2 F1800
G1 F8843.491
G1 X142.719 Y137.128 E.09758
G1 X143.831 Y137.39 E.0379
G1 X144.279 Y137.383 E.01486
G1 X144.649 Y137.267 E.01286
G1 X145.08 Y136.958 E.01759
G1 X145.157 Y136.864 E.00403
G1 X145.398 Y136.403 E.01726
G1 X145.442 Y135.88 E.01741
G1 X145.36 Y135.501 E.01286
G1 X145.205 Y135.206 E.01105
G1 X144.943 Y134.904 E.01326
G1 X144.89 Y135.646 E.02468
;WIDTH:0.610195
G1 F6346.129
G1 X144.961 Y135.957 E.01475
G1 X144.93 Y136.229 E.01265
G1 X144.781 Y136.556 E.01661
G1 X144.486 Y136.814 E.01812
;WIDTH:0.596312
G1 F6505.335
G1 X144.132 Y136.917 E.01663
G1 X143.668 Y136.858 E.02109
G1 X143.982 Y136.544 E.02002
;WIDTH:0.610195
G1 F6346.129
G1 X144.746 Y135.79 E.04962
;LAYER_CHANGE
;Z:0.6
;HEIGHT:0.2
G92 E0
M971 S11 C10 O0
;WIPE_START
G1 F23040
G1 X143.982 Y136.544 E-.15933
G1 X143.668 Y136.858 E-.06592
G1 X144.132 Y136.917 E-.06943
G1 X144.486 Y136.814 E-.05473
G1 X144.781 Y136.556 E-.05817
G1 X144.93 Y136.229 E-.05334
G1 X144.961 Y135.957 E-.04064
G1 X144.89 Y135.646 E-.04735
G1 X144.943 Y134.904 E-.11042
G1 X145.205 Y135.206 E-.05935
G1 X145.36 Y135.501 E-.04947
G1 X145.442 Y135.88 E-.05756
G1 X145.398 Y136.403 E-.07791
G1 X145.157 Y136.864 E-.07722
G1 X145.08 Y136.958 E-.01804
G1 X144.649 Y137.267 E-.07872
G1 X144.279 Y137.383 E-.05756
G1 X143.831 Y137.39 E-.06651
G1 X142.719 Y137.128 E-.16958
G1 X144.799 Y135.048 E-.43664
;WIPE_END
G1 E-.19211 F3600
G1 Z.6 F28800
"G92 E0"
G1 Z1
G1 X112.546 Y123.254
G1 Z.6
G1 E2 F1800
;TYPE:Perimeter
;WIDTH:0.449999
G1 F8843.491
G1 X112.625 Y122.729 E.01761
G1 X112.74 Y122.177 E.0187
G1 X112.889 Y121.591 E.02006
G1 X113.062 Y121.065 E.01837
G1 X113.23 Y120.557 E.01775
G1 X113.484 Y119.932 E.02238
G1 X113.735 Y119.396 E.01963
G1 X114.01 Y118.874 E.01957
G1 X114.309 Y118.366 E.01955
G1 X114.631 Y117.873 E.01953
G1 X114.976 Y117.396 E.01953
G1 X115.343 Y116.935 E.01955
G1 X115.731 Y116.491 E.01956
G1 X116.141 Y116.066 E.01959
G1 X116.57 Y115.66 E.01959
G1 X117.019 Y115.274 E.01964
G1 X117.485 Y114.909 E.01964
G1 X117.967 Y114.567 E.0196
G1 X118.488 Y114.234 E.02051
G1 X118.978 Y113.953 E.01874
G1 X119.636 Y113.624 E.0244
G1 X120.683 Y113.183 E.03769
G1 X121.178 Y113.013 E.01736
G1 X121.724 Y112.852 E.01888
G1 X122.298 Y112.712 E.0196
G1 X122.879 Y112.598 E.01964
G1 X123.466 Y112.512 E.01968
G1 X124.056 Y112.454 E.01967
G1 X124.648 Y112.423 E.01966
G1 X125.242 Y112.421 E.0197
