
; 

; external perimeters extrusion width = 0.40mm
; perimeters extrusion width = 0.45mm
; infill extrusion width = 0.45mm
; solid infill extrusion width = 0.45mm
; top infill extrusion width = 0.40mm
; first layer extrusion width = 0.50mm

;TYPE:Custom
;===== date: 2022,09,19 =====================
;===== reset machine status =================
G91
M17 Z0.3 ; lower the z-motor current
G0 Z7 F300 ; lower the hotbed , to prevent the nozzle is below the hotbed
G90
M17 X1.2 Y1.2 Z0.75 ; reset motor current to default
M960 S5 P1 ; turn on logo lamp
G90
M220 S100 ;Reset Feedrate
M221 S100 ;Reset Flowrate
M73.2   R1.0 ;Reset left time magnitude
M1002 set_gcode_claim_speed_level : 5
M221 X0 Y0 Z0 ; turn off soft endstop to prevent protential logic problem

;===== heatbed preheat ====================
M1002 gcode_claim_action : 2
M140 S35 ;set bed temp
M190 S35 ;wait for bed temp

;=============turn on fans to prevent PLA jamming=================

    ;Prevent PLA from jamming

M106 P2 S100 ; turn on big fan ,to cool down toolhead

;===== prepare print temperature and material ==========
M104 S220 ;set extruder temp
G91
G0 Z2 F1200
G90
G28 X
M975 S1 ; turn on 
G1 X60 F12000
G1 Y245
G1 Y265 F3000
M620 M
M620 S0A   ; switch material if AMS exist
    M109 S220
    G1 X120 F12000

    G1 X20 Y50 F12000
    G1 Y-3
    T0
    G1 X54 F12000
    G1 Y265
    M400
M621 S0A

M412 S1 ; ===turn on filament runout detection===

M109 S250 ;set nozzle to common flush temp
M106 P1 S0
G92 E0
G1 E50 F200
M400
M104 S220
G92 E0
G1 E50 F200
M400
M106 P1 S255
G92 E0
G1 E5 F300
M109 S200 ; drop nozzle temp, make filament shink a bit
G92 E0
G1 E-0.5 F300

G1 X70 F9000
G1 X76 F15000
G1 X65 F15000
G1 X76 F15000
G1 X65 F15000; shake to put down garbage
G1 X80 F6000
G1 X95 F15000
G1 X80 F15000
G1 X165 F15000; wipe and shake
M400
M106 P1 S0
;===== prepare print temperature and material end =====


;===== wipe nozzle ===============================
M1002 gcode_claim_action : 14
M975 S1
M106 S255
G1 X65 Y230 F18000
G1 Y264 F6000
M109 S200
G1 X100 F18000 ; first wipe mouth

G0 X135 Y261 F20000  ; move to exposed steel surface edge
G28 Z P0 T300; home z with low precision,permit 300deg temperature
G29.2 S0 ; turn off ABL
G0 Z2 F20000

G1 X60 Y265
G92 E0
G1 E-0.5 F300 ; retrack more
G1 X100 F5000; second wipe mouth
G1 X70 F15000
G1 X100 F5000
G1 X70 F15000
G1 X100 F5000
G1 X70 F15000
G1 X100 F5000
G1 X70 F15000
G1 X90 F5000
G0 X128 Y261 Z-1.5 F20000  ; move to exposed steel surface and stop the nozzle
M104 S140 ; set temp down to heatbed acceptable
M106 S255 ; turn on fan (G28 has turn off fan)

M221 S; push soft endstop status
M221 Z0 ;turn off Z axis endstop
G0 Z0.5 F20000
G0 X125 Y259.5 Z-1.01
G0 X131 F211
G0 X124
G0 Z0.5 F20000
G0 X125 Y262.5
G0 Z-1.01
G0 X131 F211
G0 X124
G0 Z0.5 F20000
G0 X125 Y260.0
G0 Z-1.01
G0 X131 F211
G0 X124
G0 Z0.5 F20000
G0 X125 Y262.0
G0 Z-1.01
G0 X131 F211
G0 X124
G0 Z0.5 F20000
G0 X125 Y260.5
G0 Z-1.01
G0 X131 F211
G0 X124
G0 Z0.5 F20000
G0 X125 Y261.5
G0 Z-1.01
G0 X131 F211
G0 X124
G0 Z0.5 F20000
G0 X125 Y261.0
G0 Z-1.01
G0 X131 F211
G0 X124
G0 X128
G2 I0.5 J0 F300
G2 I0.5 J0 F300
G2 I0.5 J0 F300
G2 I0.5 J0 F300

M109 S140 ; wait nozzle temp down to heatbed acceptable
G2 I0.5 J0 F3000
G2 I0.5 J0 F3000
G2 I0.5 J0 F3000
G2 I0.5 J0 F3000

M221 R; pop softend status
G1 Z10 F1200
M400
G1 Z10
G1 F30000
G1 X230 Y15
G29.2 S1 ; turn on ABL
;G28 ; home again after hard wipe mouth
M106 S0 ; turn off fan , too noisy
;===== wipe nozzle end ================================


;===== bed leveling ==================================
M1002 judge_flag g29_before_print_flag
M622 J1

    M1002 gcode_claim_action : 1
    G29 A X81.4285 Y95.5812 I88.5002 J57.9142
    M400
    M500 ; save cali data

M623
;===== bed leveling end ================================

;===== home after wipe mouth============================
M1002 judge_flag g29_before_print_flag
M622 J0

    M1002 gcode_claim_action : 13
    G28

M623
;===== home after wipe mouth end =======================

M975 S1 ; turn on vibration supression

=============turn on fans to prevent PLA jamming=================

    ;Prevent PLA from jamming

M106 P2 S100 ; turn on big fan ,to cool down toolhead


M104 S220 ; set extrude temp earlier, to reduce wait time

;===== mech mode fast check============================
G1 X128 Y128 Z5 F20000
M400 P200
M970.3 Q1 A7 B30 C80  H15 K0
M974 Q1 S2 P0

G1 X128 Y128 Z5 F20000
M400 P200
M970.3 Q0 A7 B30 C90 Q0 H15 K0
M974 Q0 S2 P0

M975 S1
G1 F30000
G1 X230 Y15
G28 X ; re-home XY 
;===== fmech mode fast check============================


;===== noozle load line ===============================
M975 S1
G90 
M83
T1000
G1 X18.0 Y5.0 Z0.3 F18000;Move to start position
M109 S220
G0 E3 F300
G0 X240 E15 F6400 
G0 Y5.5 
G0 X18 E15
M400

;========turn off light and wait extrude temperature =============
M1002 gcode_claim_action : 0
M973 S4 ; turn off scanner
M400 ; wait all motion done before implement the emprical L parameters
;M900 L500.0 ; Empirical parameters
M109 S220
M960 S1 P0 ; turn off laser
M960 S2 P0 ; turn off laser
M106 S0 ; turn off fan
M106 P2 S0 ; turn off big fan 
M106 P3 S0 ; turn off chamber fan

M975 S1 ; turn on mech mode supression
G90 
M83
T1000
G1 X128.0 Y253.0 Z0.2 F6000.0;Move to start position
M109 S220
G0 X253 E6.4 F5333.33 
G0 Y128 E6.4
G0 X252.5
G0 Y252.5 E6.4
G0 X128 E6.4
G21 ; set units to millimeters
G90 ; use absolute coordinates
M83 ; use relative distances for extrusion
M107
;LAYER_CHANGE
;Z:0.2
;HEIGHT:0.2
G1 E-2 F3600
G1 Z.6 F28800
G1 X83.194 Y97.942
G1 Z.2
G1 E2 F1800
;TYPE:Skirt/Brim
;WIDTH:0.5
G1 F6300
G1 X84.931 Y96.555 E.08279
G1 X87.886 Y95.81 E.11351
G1 X163.472 Y95.81 E2.81529
G1 X165.659 Y96.207 E.08279
G1 X167.568 Y97.346 E.0828
G1 X168.955 Y99.084 E.08282
G1 X169.7 Y102.038 E.11347
G1 X169.7 Y147.038 E1.67608
G1 X169.303 Y149.226 E.08283
G1 X168.164 Y151.135 E.0828
G1 X166.426 Y152.522 E.08282
G1 X163.472 Y153.267 E.11347
G1 X87.886 Y153.267 E2.81529
G1 X85.698 Y152.87 E.08283
G1 X83.789 Y151.73 E.08282
G1 X82.402 Y149.993 E.08279
G1 X81.657 Y147.038 E.11351
G1 X81.657 Y102.038 E1.67608
G1 X82.054 Y99.851 E.08279
G1 X83.163 Y97.993 E.08059
;WIPE_START
G1 F23040
G1 X83.194 Y97.942 E-.00886
G1 X84.931 Y96.555 E-.32995
G1 X87.886 Y95.81 E-.45236
G1 X96.03 Y95.81 E-1.20883
;WIPE_END
G1 Z.6 F28800
G1 X162.765 Y146.331
G1 Z.2
G1 E2 F1800
;TYPE:Perimeter
;WIDTH:0.499999
G1 F6300
G1 X88.593 Y146.331 E2.76262
G1 X88.593 Y102.745 E1.62341
G1 X162.765 Y102.745 E2.76262
G1 X162.765 Y124.538 E.81171
G1 X162.765 Y146.271 E.80947
G1 X162.765 Y146.271 F28800
G1 X163.222 Y146.788
;TYPE:External perimeter
G1 F4200
G1 X88.136 Y146.788 E2.79666
G1 X88.136 Y102.288 E1.65745
G1 X163.222 Y102.288 E2.79666
G1 X163.222 Y124.538 E.82873
G1 X163.222 Y146.728 E.82649
;WIPE_START
G1 F23040
G1 X163.222 Y146.788 E-.00891
G1 X149.808 Y146.788 E-1.99109
;WIPE_END
G1 Z.6 F28800
G1 X162.627 Y103.809
G1 Z.2
G1 E2 F1800
;TYPE:Solid infill
;WIDTH:0.501174
G1 F5250
G1 X161.907 Y103.088 E.03805
G1 X161.259 Y103.088 E.0242
G1 X162.422 Y104.251 E.06142
G1 X162.422 Y104.899 E.0242
G1 X160.61 Y103.088 E.09566
G1 X159.962 Y103.088 E.0242
G1 X162.422 Y105.547 E.12988
G1 X162.422 Y106.196 E.02423
G1 X159.314 Y103.088 E.16413
G1 X158.666 Y103.088 E.0242
G1 X162.422 Y106.844 E.19835
G1 X162.422 Y107.492 E.0242
G1 X158.018 Y103.088 E.23257
G1 X157.37 Y103.088 E.0242
G1 X162.422 Y108.14 E.26679
G1 X162.422 Y108.788 E.0242
G1 X156.722 Y103.088 E.30101
G1 X156.074 Y103.088 E.0242
G1 X162.422 Y109.436 E.33523
G1 X162.422 Y110.084 E.0242
G1 X155.426 Y103.088 E.36945
G1 X154.778 Y103.088 E.0242
G1 X162.422 Y110.732 E.40368
G1 X162.422 Y111.38 E.0242
G1 X154.13 Y103.088 E.4379
G1 X153.482 Y103.088 E.0242
G1 X162.422 Y112.028 E.47212
G1 X162.422 Y112.676 E.0242
G1 X152.834 Y103.088 E.50634
G1 X152.186 Y103.088 E.0242
G1 X162.422 Y113.324 E.54056
G1 X162.422 Y113.972 E.0242
G1 X151.538 Y103.088 E.57478
G1 X150.889 Y103.088 E.02423
G1 X162.422 Y114.62 E.60902
G1 X162.422 Y115.269 E.02423
G1 X150.241 Y103.088 E.64327
G1 X149.593 Y103.088 E.0242
G1 X162.422 Y115.917 E.67749
G1 X162.422 Y116.565 E.0242
G1 X148.945 Y103.088 E.71171
G1 X148.297 Y103.088 E.0242
G1 X162.422 Y117.213 E.74593
G1 X162.422 Y117.861 E.0242
G1 X147.649 Y103.088 E.78015
G1 X147.001 Y103.088 E.0242
G1 X162.422 Y118.509 E.81437
G1 X162.422 Y119.157 E.0242
G1 X146.353 Y103.088 E.84859
G1 X145.705 Y103.088 E.0242
G1 X162.422 Y119.805 E.88281
G1 X162.422 Y120.453 E.0242
G1 X145.057 Y103.088 E.91704
G1 X144.409 Y103.088 E.0242
G1 X162.422 Y121.101 E.95126
G1 X162.422 Y121.749 E.0242
G1 X143.761 Y103.088 E.98548
G1 X143.113 Y103.088 E.0242
G1 X162.422 Y122.397 E1.0197
G1 X162.422 Y123.045 E.0242
G1 X142.465 Y103.088 E1.05392
G1 X141.816 Y103.088 E.02423
G1 X162.422 Y123.693 E1.08816
G1 X162.422 Y124.341 E.0242
G1 X141.168 Y103.088 E1.12238
G1 X140.52 Y103.088 E.0242
G1 X162.422 Y124.99 E1.15663
G1 X162.422 Y125.638 E.0242
G1 X139.872 Y103.088 E1.19085
G1 X139.224 Y103.088 E.0242
G1 X162.422 Y126.286 E1.22507
G1 X162.422 Y126.934 E.0242
G1 X138.576 Y103.088 E1.25929
G1 X137.928 Y103.088 E.0242
G1 X162.422 Y127.582 E1.29351
G1 X162.422 Y128.23 E.0242
G1 X137.28 Y103.088 E1.32773
G1 X136.632 Y103.088 E.0242
G1 X162.422 Y128.878 E1.36195
G1 X162.422 Y129.526 E.0242
G1 X135.984 Y103.088 E1.39618
G1 X135.336 Y103.088 E.0242
G1 X162.422 Y130.174 E1.4304
G1 X162.422 Y130.822 E.0242
G1 X134.688 Y103.088 E1.46462
G1 X134.04 Y103.088 E.0242
G1 X162.422 Y131.47 E1.49884
G1 X162.422 Y132.118 E.0242
G1 X133.392 Y103.088 E1.53306
G1 X132.744 Y103.088 E.0242
G1 X162.422 Y132.766 E1.56728
G1 X162.422 Y133.414 E.0242
G1 X132.095 Y103.088 E1.60152
G1 X131.447 Y103.088 E.0242
G1 X162.422 Y134.063 E1.63577
G1 X162.422 Y134.711 E.0242
G1 X130.799 Y103.088 E1.66999
G1 X130.151 Y103.088 E.0242
G1 X162.422 Y135.359 E1.70421
G1 X162.422 Y136.007 E.0242
G1 X129.503 Y103.088 E1.73843
G1 X128.855 Y103.088 E.0242
G1 X162.422 Y136.655 E1.77265
G1 X162.422 Y137.303 E.0242
G1 X128.207 Y103.088 E1.80687
G1 X127.559 Y103.088 E.0242
G1 X162.422 Y137.951 E1.84109
G1 X162.422 Y138.599 E.0242
G1 X126.911 Y103.088 E1.87531
G1 X126.263 Y103.088 E.0242
G1 X162.422 Y139.247 E1.90954
G1 X162.422 Y139.895 E.0242
G1 X125.615 Y103.088 E1.94376
G1 X124.967 Y103.088 E.0242
G1 X162.422 Y140.543 E1.97798
G1 X162.422 Y141.191 E.0242
G1 X124.319 Y103.088 E2.0122
G1 X123.671 Y103.088 E.0242
G1 X162.422 Y141.839 E2.04642
G1 X162.422 Y142.487 E.0242
G1 X123.022 Y103.088 E2.08066
G1 X122.374 Y103.088 E.0242
G1 X162.422 Y143.135 E2.11488
G1 X162.422 Y143.784 E.02423
G1 X121.726 Y103.088 E2.14913
G1 X121.078 Y103.088 E.0242
G1 X162.422 Y144.432 E2.18335
G1 X162.422 Y145.08 E.0242
G1 X120.43 Y103.088 E2.21757
G1 X119.782 Y103.088 E.0242
G1 X162.422 Y145.728 E2.25179
G1 X162.422 Y145.988 E.00971
G1 X162.034 Y145.988 E.01449
G1 X119.134 Y103.088 E2.26552
G1 X118.486 Y103.088 E.0242
G1 X161.386 Y145.988 E2.26552
G1 X160.738 Y145.988 E.0242
G1 X117.838 Y103.088 E2.26552
G1 X117.19 Y103.088 E.0242
G1 X160.09 Y145.988 E2.26552
G1 X159.442 Y145.988 E.0242
G1 X116.542 Y103.088 E2.26552
G1 X115.894 Y103.088 E.0242
G1 X158.794 Y145.988 E2.26552
G1 X158.146 Y145.988 E.0242
G1 X115.246 Y103.088 E2.26552
G1 X114.598 Y103.088 E.0242
G1 X157.498 Y145.988 E2.26552
G1 X156.85 Y145.988 E.0242
G1 X113.95 Y103.088 E2.26552
G1 X113.301 Y103.088 E.02423
G1 X156.202 Y145.988 E2.26555
G1 X155.554 Y145.988 E.0242
G1 X112.653 Y103.088 E2.26555
G1 X112.005 Y103.088 E.0242
G1 X154.906 Y145.988 E2.26555
G1 X154.257 Y145.988 E.02423
G1 X111.357 Y103.088 E2.26552
G1 X110.709 Y103.088 E.0242
G1 X153.609 Y145.988 E2.26552
G1 X152.961 Y145.988 E.0242
G1 X110.061 Y103.088 E2.26552
G1 X109.413 Y103.088 E.0242
G1 X152.313 Y145.988 E2.26552
G1 X151.665 Y145.988 E.0242
G1 X108.765 Y103.088 E2.26552
G1 X108.117 Y103.088 E.0242
G1 X151.017 Y145.988 E2.26552
G1 X150.369 Y145.988 E.0242
G1 X107.469 Y103.088 E2.26552
G1 X106.821 Y103.088 E.0242
G1 X149.721 Y145.988 E2.26552
G1 X149.073 Y145.988 E.0242
G1 X106.173 Y103.088 E2.26552
G1 X105.525 Y103.088 E.0242
G1 X148.425 Y145.988 E2.26552
G1 X147.777 Y145.988 E.0242
G1 X104.877 Y103.088 E2.26552
G1 X104.228 Y103.088 E.02423
G1 X147.129 Y145.988 E2.26555
G1 X146.481 Y145.988 E.0242
G1 X103.58 Y103.088 E2.26555
G1 X102.932 Y103.088 E.0242
G1 X145.833 Y145.988 E2.26555
G1 X145.184 Y145.988 E.02423
G1 X102.284 Y103.088 E2.26552
G1 X101.636 Y103.088 E.0242
G1 X144.536 Y145.988 E2.26552
G1 X143.888 Y145.988 E.0242
G1 X100.988 Y103.088 E2.26552
G1 X100.34 Y103.088 E.0242
G1 X143.24 Y145.988 E2.26552
G1 X142.592 Y145.988 E.0242
G1 X99.692 Y103.088 E2.26552
G1 X99.044 Y103.088 E.0242
G1 X141.944 Y145.988 E2.26552
G1 X141.296 Y145.988 E.0242
G1 X98.396 Y103.088 E2.26552
G1 X97.748 Y103.088 E.0242
G1 X140.648 Y145.988 E2.26552
G1 X140 Y145.988 E.0242
G1 X97.1 Y103.088 E2.26552
G1 X96.452 Y103.088 E.0242
G1 X139.352 Y145.988 E2.26552
G1 X138.704 Y145.988 E.0242
G1 X95.804 Y103.088 E2.26552
G1 X95.156 Y103.088 E.0242
G1 X138.056 Y145.988 E2.26552
G1 X137.408 Y145.988 E.0242
G1 X94.507 Y103.088 E2.26555
G1 X93.859 Y103.088 E.0242
G1 X136.76 Y145.988 E2.26555
G1 X136.112 Y145.988 E.0242
G1 X93.211 Y103.088 E2.26555
G1 X92.563 Y103.088 E.0242
G1 X135.463 Y145.988 E2.26552
G1 X134.815 Y145.988 E.0242
G1 X91.915 Y103.088 E2.26552
G1 X91.267 Y103.088 E.0242
G1 X134.167 Y145.988 E2.26552
G1 X133.519 Y145.988 E.0242
G1 X90.619 Y103.088 E2.26552
G1 X89.971 Y103.088 E.0242
G1 X132.871 Y145.988 E2.26552
G1 X132.223 Y145.988 E.0242
G1 X89.323 Y103.088 E2.26552
G1 X88.935 Y103.088 E.01449
G1 X88.935 Y103.349 E.00975
G1 X131.575 Y145.988 E2.25177
G1 X130.927 Y145.988 E.0242
G1 X88.935 Y103.997 E2.21755
G1 X88.935 Y104.645 E.0242
G1 X130.279 Y145.988 E2.18333
G1 X129.631 Y145.988 E.0242
G1 X88.935 Y105.293 E2.14911
G1 X88.935 Y105.941 E.0242
G1 X128.983 Y145.988 E2.11488
G1 X128.335 Y145.988 E.0242
G1 X88.935 Y106.589 E2.08066
G1 X88.935 Y107.237 E.0242
G1 X127.687 Y145.988 E2.04644
G1 X127.039 Y145.988 E.0242
G1 X88.935 Y107.885 E2.01222
G1 X88.935 Y108.533 E.0242
G1 X126.39 Y145.988 E1.97798
G1 X125.742 Y145.988 E.0242
G1 X88.935 Y109.181 E1.94376
G1 X88.935 Y109.829 E.0242
G1 X125.094 Y145.988 E1.90954
G1 X124.446 Y145.988 E.0242
G1 X88.935 Y110.478 E1.87529
G1 X88.935 Y111.126 E.0242
G1 X123.798 Y145.988 E1.84107
G1 X123.15 Y145.988 E.0242
G1 X88.935 Y111.774 E1.80685
G1 X88.935 Y112.422 E.0242
G1 X122.502 Y145.988 E1.77263
G1 X121.854 Y145.988 E.0242
G1 X88.935 Y113.07 E1.73841
G1 X88.935 Y113.718 E.0242
G1 X121.206 Y145.988 E1.70419
G1 X120.558 Y145.988 E.0242
G1 X88.935 Y114.366 E1.66997
G1 X88.935 Y115.014 E.0242
G1 X119.91 Y145.988 E1.63575
G1 X119.262 Y145.988 E.0242
G1 X88.935 Y115.662 E1.60152
G1 X88.935 Y116.31 E.0242
G1 X118.614 Y145.988 E1.5673
G1 X117.966 Y145.988 E.0242
G1 X88.935 Y116.958 E1.53308
G1 X88.935 Y117.606 E.0242
G1 X117.318 Y145.988 E1.49886
G1 X116.669 Y145.988 E.02423
G1 X88.935 Y118.254 E1.46462
G1 X88.935 Y118.902 E.0242
G1 X116.021 Y145.988 E1.4304
G1 X115.373 Y145.988 E.0242
G1 X88.935 Y119.551 E1.39615
G1 X88.935 Y120.199 E.0242
G1 X114.725 Y145.988 E1.36193
G1 X114.077 Y145.988 E.0242
G1 X88.935 Y120.847 E1.32771
G1 X88.935 Y121.495 E.0242
G1 X113.429 Y145.988 E1.29349
G1 X112.781 Y145.988 E.0242
G1 X88.935 Y122.143 E1.25927
G1 X88.935 Y122.791 E.0242
G1 X112.133 Y145.988 E1.22505
G1 X111.485 Y145.988 E.0242
G1 X88.935 Y123.439 E1.19083
G1 X88.935 Y124.087 E.0242
G1 X110.837 Y145.988 E1.15661
G1 X110.189 Y145.988 E.0242
G1 X88.935 Y124.735 E1.12238
G1 X88.935 Y125.383 E.0242
G1 X109.541 Y145.988 E1.08816
G1 X108.893 Y145.988 E.0242
G1 X88.935 Y126.031 E1.05394
G1 X88.935 Y126.679 E.0242
G1 X108.245 Y145.988 E1.01972
G1 X107.596 Y145.988 E.02423
G1 X88.935 Y127.327 E.98548
G1 X88.935 Y127.975 E.0242
G1 X106.948 Y145.988 E.95126
G1 X106.3 Y145.988 E.0242
G1 X88.935 Y128.623 E.91704
G1 X88.935 Y129.272 E.02423
G1 X105.652 Y145.988 E.88279
G1 X105.004 Y145.988 E.0242
G1 X88.935 Y129.92 E.84857
G1 X88.935 Y130.568 E.0242
G1 X104.356 Y145.988 E.81435
G1 X103.708 Y145.988 E.0242
G1 X88.935 Y131.216 E.78013
G1 X88.935 Y131.864 E.0242
G1 X103.06 Y145.988 E.74591
G1 X102.412 Y145.988 E.0242
G1 X88.935 Y132.512 E.71169
G1 X88.935 Y133.16 E.0242
G1 X101.764 Y145.988 E.67747
G1 X101.116 Y145.988 E.0242
G1 X88.935 Y133.808 E.64325
G1 X88.935 Y134.456 E.0242
G1 X100.468 Y145.988 E.60902
G1 X99.82 Y145.988 E.0242
G1 X88.935 Y135.104 E.5748
G1 X88.935 Y135.752 E.0242
G1 X99.172 Y145.988 E.54058
G1 X98.524 Y145.988 E.0242
G1 X88.935 Y136.4 E.50636
G1 X88.935 Y137.048 E.0242
G1 X97.875 Y145.988 E.47212
G1 X97.227 Y145.988 E.0242
G1 X88.935 Y137.696 E.4379
G1 X88.935 Y138.345 E.02423
G1 X96.579 Y145.988 E.40365
G1 X95.931 Y145.988 E.0242
G1 X88.935 Y138.993 E.36943
G1 X88.935 Y139.641 E.0242
G1 X95.283 Y145.988 E.33521
G1 X94.635 Y145.988 E.0242
G1 X88.935 Y140.289 E.30099
G1 X88.935 Y140.937 E.0242
G1 X93.987 Y145.988 E.26677
G1 X93.339 Y145.988 E.0242
G1 X88.935 Y141.585 E.23255
G1 X88.935 Y142.233 E.0242
G1 X92.691 Y145.988 E.19833
G1 X92.043 Y145.988 E.0242
G1 X88.935 Y142.881 E.16411
G1 X88.935 Y143.529 E.0242
G1 X91.395 Y145.988 E.12988
G1 X90.747 Y145.988 E.0242
G1 X88.935 Y144.177 E.09566
G1 X88.935 Y144.825 E.0242
G1 X90.099 Y145.988 E.06144
G1 X89.451 Y145.988 E.0242
G1 X88.73 Y145.268 E.03805
M106 S255
;LAYER_CHANGE
;Z:0.4
;HEIGHT:0.2
G92 E0
M971 S11 C10 O0
;WIPE_START
G1 F23040
G1 X89.451 Y145.988 E-.15125
G1 X90.099 Y145.988 E-.09619
G1 X88.935 Y144.825 E-.24424
G1 X88.935 Y144.177 E-.09619
G1 X90.747 Y145.988 E-.38027
G1 X91.395 Y145.988 E-.09619
G1 X88.935 Y143.529 E-.5163
G1 X88.935 Y142.881 E-.09619
G1 X90.475 Y144.42 E-.32318
;WIPE_END
G1 Z.4 F28800
"G92 E0"
G1 Z.8
G1 X162.89 Y146.456
G1 Z.4
G1 E2 F1800
;TYPE:Perimeter
;WIDTH:0.449999
G1 F8843.491
G1 X88.325 Y146.456 E2.47345
G1 X88.325 Y102.62 E1.45412
G1 X162.89 Y102.62 E2.47345
G1 X162.89 Y124.538 E.72706
G1 X162.89 Y146.396 E.72507
G1 X162.89 Y146.396 F28800
G1 X163.272 Y146.838
;TYPE:External perimeter
;WIDTH:0.399999
G1 F10081.802
G1 X87.943 Y146.838 E2.19188
G1 X87.943 Y102.238 E1.29774
G1 X163.272 Y102.238 E2.19188
G1 X163.272 Y124.538 E.64887
G1 X163.272 Y146.778 E.64713
;WIPE_START
G1 F23040
G1 X163.272 Y146.838 E-.00891
G1 X149.858 Y146.838 E-1.99109
;WIPE_END
G1 Z.8 F28800
G1 X88.741 Y102.959
G1 Z.4
G1 E2 F1800
;TYPE:Solid infill
;WIDTH:0.548766
G1 F7116.79
G1 X88.696 Y102.914 E.00262
G1 X88.635 Y102.93 E.0026
G1 X88.618 Y102.991 E.00261
G1 X88.663 Y103.036 E.00262
G1 X88.724 Y103.02 E.0026
;WIDTH:0.449999
G1 F8843.491
G1 X88.63 Y103.67 E.02179
G1 X89.374 Y102.926 E.0349
G1 X89.95 Y102.926 E.01911
G1 X88.63 Y104.246 E.06192
G1 X88.63 Y104.821 E.01907
G1 X90.526 Y102.926 E.08892
G1 X91.101 Y102.926 E.01907
G1 X88.63 Y105.397 E.11592
G1 X88.63 Y105.973 E.01911
G1 X91.677 Y102.926 E.14294
G1 X92.253 Y102.926 E.01911
G1 X88.63 Y106.548 E.16994
G1 X88.63 Y107.124 E.01911
G1 X92.829 Y102.926 E.19696
G1 X93.404 Y102.926 E.01907
G1 X88.63 Y107.7 E.22396
G1 X88.63 Y108.276 E.01911
G1 X93.98 Y102.926 E.25098
G1 X94.556 Y102.926 E.01911
G1 X88.63 Y108.851 E.27798
G1 X88.63 Y109.427 E.01911
G1 X95.131 Y102.926 E.30497
G1 X95.707 Y102.926 E.01911
G1 X88.63 Y110.003 E.332
G1 X88.63 Y110.578 E.01907
G1 X96.283 Y102.926 E.35899
G1 X96.858 Y102.926 E.01907
G1 X88.63 Y111.154 E.38599
G1 X88.63 Y111.73 E.01911
G1 X97.434 Y102.926 E.41301
G1 X98.01 Y102.926 E.01911
G1 X88.63 Y112.305 E.44001
G1 X88.63 Y112.881 E.01911
G1 X98.586 Y102.926 E.46703
G1 X99.161 Y102.926 E.01907
G1 X88.63 Y113.457 E.49403
G1 X88.63 Y114.033 E.01911
G1 X99.737 Y102.926 E.52105
G1 X100.313 Y102.926 E.01911
G1 X88.63 Y114.608 E.54805
G1 X88.63 Y115.184 E.01911
G1 X100.888 Y102.926 E.57505
G1 X101.464 Y102.926 E.01911
G1 X88.63 Y115.76 E.60207
G1 X88.63 Y116.335 E.01907
G1 X102.04 Y102.926 E.62907
G1 X102.615 Y102.926 E.01907
G1 X88.63 Y116.911 E.65606
G1 X88.63 Y117.487 E.01911
G1 X103.191 Y102.926 E.68309
G1 X103.767 Y102.926 E.01911
G1 X88.63 Y118.062 E.71008
G1 X88.63 Y118.638 E.01911
G1 X104.343 Y102.926 E.7371
G1 X104.918 Y102.926 E.01907
G1 X88.63 Y119.214 E.7641
G1 X88.63 Y119.789 E.01907
G1 X105.494 Y102.926 E.7911
G1 X106.07 Y102.926 E.01911
G1 X88.63 Y120.365 E.81812
G1 X88.63 Y120.941 E.01911
G1 X106.645 Y102.926 E.84512
G1 X107.221 Y102.926 E.01911
G1 X88.63 Y121.517 E.87214
G1 X88.63 Y122.092 E.01907
G1 X107.797 Y102.926 E.89914
G1 X108.372 Y102.926 E.01907
G1 X88.63 Y122.668 E.92614
G1 X88.63 Y123.244 E.01911
G1 X108.948 Y102.926 E.95316
G1 X109.524 Y102.926 E.01911
G1 X88.63 Y123.819 E.98016
G1 X88.63 Y124.395 E.01911
G1 X110.099 Y102.926 E1.00715
G1 X110.675 Y102.926 E.01911
G1 X88.63 Y124.971 E1.03417
G1 X88.63 Y125.546 E.01907
G1 X111.251 Y102.926 E1.06117
G1 X111.827 Y102.926 E.01911
G1 X88.63 Y126.122 E1.08819
G1 X88.63 Y126.698 E.01911
G1 X112.402 Y102.926 E1.11519
G1 X112.978 Y102.926 E.01911
G1 X88.63 Y127.274 E1.14221
G1 X88.63 Y127.849 E.01907
G1 X113.554 Y102.926 E1.16921
G1 X114.129 Y102.926 E.01907
G1 X88.63 Y128.425 E1.19621
G1 X88.63 Y129.001 E.01911
G1 X114.705 Y102.926 E1.22323
G1 X115.281 Y102.926 E.01911
G1 X88.63 Y129.576 E1.25023
G1 X88.63 Y130.152 E.01911
G1 X115.856 Y102.926 E1.27723
G1 X116.432 Y102.926 E.01911
G1 X88.63 Y130.728 E1.30425
G1 X88.63 Y131.303 E.01907
G1 X117.008 Y102.926 E1.33124
G1 X117.584 Y102.926 E.01911
G1 X88.63 Y131.879 E1.35827
G1 X88.63 Y132.455 E.01911
G1 X118.159 Y102.926 E1.38526
G1 X118.735 Y102.926 E.01911
G1 X88.63 Y133.031 E1.41229
G1 X88.63 Y133.606 E.01907
G1 X119.311 Y102.926 E1.43928
G1 X119.886 Y102.926 E.01907
G1 X88.63 Y134.182 E1.46628
G1 X88.63 Y134.758 E.01911
G1 X120.462 Y102.926 E1.4933
G1 X121.038 Y102.926 E.01911
G1 X88.63 Y135.333 E1.5203
G1 X88.63 Y135.909 E.01911
G1 X121.613 Y102.926 E1.5473
G1 X122.189 Y102.926 E.01911
G1 X88.63 Y136.485 E1.57432
G1 X88.63 Y137.06 E.01907
G1 X122.765 Y102.926 E1.60132
G1 X123.341 Y102.926 E.01911
G1 X88.63 Y137.636 E1.62834
G1 X88.63 Y138.212 E.01911
G1 X123.916 Y102.926 E1.65534
G1 X124.492 Y102.926 E.01911
G1 X88.63 Y138.787 E1.68233
G1 X88.63 Y139.363 E.01911
G1 X125.068 Y102.926 E1.70936
G1 X125.643 Y102.926 E.01907
G1 X88.63 Y139.939 E1.73635
G1 X88.63 Y140.515 E.01911
G1 X126.219 Y102.926 E1.76337
G1 X126.795 Y102.926 E.01911
G1 X88.63 Y141.09 E1.79037
G1 X88.63 Y141.666 E.01911
G1 X127.37 Y102.926 E1.81737
G1 X127.946 Y102.926 E.01911
G1 X88.63 Y142.242 E1.84439
G1 X88.63 Y142.817 E.01907
G1 X128.522 Y102.926 E1.87139
G1 X129.097 Y102.926 E.01907
G1 X88.63 Y143.393 E1.89839
G1 X88.63 Y143.969 E.01911
G1 X129.673 Y102.926 E1.92541
G1 X130.249 Y102.926 E.01911
G1 X88.63 Y144.544 E1.95241
G1 X88.63 Y145.12 E.01911
G1 X130.825 Y102.926 E1.97943
G1 X131.4 Y102.926 E.01907
G1 X88.63 Y145.696 E2.00643
G1 X88.542 Y146.299 E.02021
;WIDTH:0.38292
G1 F10588.235
G1 X88.501 Y146.31 E.00118
G1 X88.482 Y146.239 E.00204
G1 X88.553 Y146.258 E.00204
;WIDTH:0.41646
G1 F9637.536
G1 X88.652 Y146.205 E.00342
;WIDTH:0.449999
G1 F8843.491
G1 X88.751 Y146.151 E.00374
G1 X131.976 Y102.926 E2.02777
G1 X132.552 Y102.926 E.01911
G1 X89.326 Y146.151 E2.02779
G1 X89.902 Y146.151 E.01911
G1 X133.127 Y102.926 E2.02777
G1 X133.703 Y102.926 E.01911
G1 X90.478 Y146.151 E2.02777
G1 X91.054 Y146.151 E.01911
G1 X134.279 Y102.926 E2.02777
G1 X134.854 Y102.926 E.01907
G1 X91.629 Y146.151 E2.02777
G1 X92.205 Y146.151 E.01911
G1 X135.43 Y102.926 E2.02777
G1 X136.006 Y102.926 E.01911
G1 X92.781 Y146.151 E2.02777
G1 X93.356 Y146.151 E.01907
G1 X136.582 Y102.926 E2.02779
G1 X137.157 Y102.926 E.01907
G1 X93.932 Y146.151 E2.02777
G1 X94.508 Y146.151 E.01911
G1 X137.733 Y102.926 E2.02777
G1 X138.309 Y102.926 E.01911
G1 X95.083 Y146.151 E2.02779
G1 X95.659 Y146.151 E.01911
G1 X138.884 Y102.926 E2.02777
G1 X139.46 Y102.926 E.01911
G1 X96.235 Y146.151 E2.02777
G1 X96.81 Y146.151 E.01907
G1 X140.036 Y102.926 E2.02779
G1 X140.611 Y102.926 E.01907
G1 X97.386 Y146.151 E2.02777
G1 X97.962 Y146.151 E.01911
G1 X141.187 Y102.926 E2.02777
G1 X141.763 Y102.926 E.01911
G1 X98.538 Y146.151 E2.02777
G1 X99.113 Y146.151 E.01907
G1 X142.338 Y102.926 E2.02777
G1 X142.914 Y102.926 E.01911
G1 X99.689 Y146.151 E2.02777
G1 X100.265 Y146.151 E.01911
G1 X143.49 Y102.926 E2.02777
G1 X144.066 Y102.926 E.01911
G1 X100.84 Y146.151 E2.02779
G1 X101.416 Y146.151 E.01911
G1 X144.641 Y102.926 E2.02777
G1 X145.217 Y102.926 E.01911
G1 X101.992 Y146.151 E2.02777
G1 X102.567 Y146.151 E.01907
G1 X145.793 Y102.926 E2.02779
G1 X146.368 Y102.926 E.01907
G1 X103.143 Y146.151 E2.02777
G1 X103.719 Y146.151 E.01911
G1 X146.944 Y102.926 E2.02777
G1 X147.52 Y102.926 E.01911
G1 X104.295 Y146.151 E2.02777
G1 X104.87 Y146.151 E.01907
G1 X148.095 Y102.926 E2.02777
G1 X148.671 Y102.926 E.01911
G1 X105.446 Y146.151 E2.02777
G1 X106.022 Y146.151 E.01911
G1 X149.247 Y102.926 E2.02777
G1 X149.823 Y102.926 E.01911
G1 X106.597 Y146.151 E2.02779
G1 X107.173 Y146.151 E.01911
G1 X150.398 Y102.926 E2.02777
G1 X150.974 Y102.926 E.01911
G1 X107.749 Y146.151 E2.02777
G1 X108.324 Y146.151 E.01907
G1 X151.55 Y102.926 E2.02779
G1 X152.125 Y102.926 E.01907
G1 X108.9 Y146.151 E2.02777
G1 X109.476 Y146.151 E.01911
G1 X152.701 Y102.926 E2.02777
G1 X153.277 Y102.926 E.01911
G1 X110.051 Y146.151 E2.02779
G1 X110.627 Y146.151 E.01911
G1 X153.852 Y102.926 E2.02777
G1 X154.428 Y102.926 E.01911
G1 X111.203 Y146.151 E2.02777
G1 X111.779 Y146.151 E.01911
G1 X155.004 Y102.926 E2.02777
G1 X155.58 Y102.926 E.01911
G1 X112.354 Y146.151 E2.02779
G1 X112.93 Y146.151 E.01911
G1 X156.155 Y102.926 E2.02777
G1 X156.731 Y102.926 E.01911
G1 X113.506 Y146.151 E2.02777
G1 X114.081 Y146.151 E.01907
G1 X157.307 Y102.926 E2.02779
G1 X157.882 Y102.926 E.01907
G1 X114.657 Y146.151 E2.02777
G1 X115.233 Y146.151 E.01911
G1 X158.458 Y102.926 E2.02777
G1 X159.034 Y102.926 E.01911
G1 X115.808 Y146.151 E2.02779
G1 X116.384 Y146.151 E.01911
G1 X159.609 Y102.926 E2.02777
G1 X160.185 Y102.926 E.01911
G1 X116.96 Y146.151 E2.02777
G1 X117.536 Y146.151 E.01911
G1 X160.761 Y102.926 E2.02777
G1 X161.336 Y102.926 E.01907
G1 X118.111 Y146.151 E2.02777
G1 X118.687 Y146.151 E.01911
G1 X161.912 Y102.926 E2.02777
G1 X162.488 Y102.926 E.01911
G1 X119.263 Y146.151 E2.02777
G1 X119.838 Y146.151 E.01907
G1 X162.584 Y103.405 E2.0053
G1 X162.584 Y103.981 E.01911
G1 X120.414 Y146.151 E1.97828
G1 X120.99 Y146.151 E.01911
G1 X162.584 Y104.556 E1.95128
G1 X162.584 Y105.132 E.01911
G1 X121.565 Y146.151 E1.92428
G1 X122.141 Y146.151 E.01911
G1 X162.584 Y105.708 E1.89726
G1 X162.584 Y106.284 E.01911
G1 X122.717 Y146.151 E1.87024
G1 X123.293 Y146.151 E.01911
G1 X162.584 Y106.859 E1.84324
G1 X162.584 Y107.435 E.01911
G1 X123.868 Y146.151 E1.81624
G1 X124.444 Y146.151 E.01911
G1 X162.584 Y108.011 E1.78922
G1 X162.584 Y108.586 E.01907
G1 X125.02 Y146.151 E1.76223
G1 X125.595 Y146.151 E.01907
G1 X162.584 Y109.162 E1.73523
G1 X162.584 Y109.738 E.01911
G1 X126.171 Y146.151 E1.70821
G1 X126.747 Y146.151 E.01911
G1 X162.584 Y110.313 E1.68121
G1 X162.584 Y110.889 E.01911
G1 X127.322 Y146.151 E1.65421
G1 X127.898 Y146.151 E.01911
G1 X162.584 Y111.465 E1.62719
G1 X162.584 Y112.04 E.01907
G1 X128.474 Y146.151 E1.60019
G1 X129.049 Y146.151 E.01907
G1 X162.584 Y112.616 E1.57319
G1 X162.584 Y113.192 E.01911
G1 X129.625 Y146.151 E1.54617
G1 X130.201 Y146.151 E.01911
G1 X162.584 Y113.768 E1.51915
G1 X162.584 Y114.343 E.01907
G1 X130.777 Y146.151 E1.49215
G1 X131.352 Y146.151 E.01907
G1 X162.584 Y114.919 E1.46516
G1 X162.584 Y115.495 E.01911
G1 X131.928 Y146.151 E1.43813
G1 X132.504 Y146.151 E.01911
G1 X162.584 Y116.07 E1.41114
G1 X162.584 Y116.646 E.01911
G1 X133.079 Y146.151 E1.38414
G1 X133.655 Y146.151 E.01911
G1 X162.584 Y117.222 E1.35712
G1 X162.584 Y117.797 E.01907
G1 X134.231 Y146.151 E1.33012
G1 X134.806 Y146.151 E.01907
G1 X162.584 Y118.373 E1.30312
G1 X162.584 Y118.949 E.01911
G1 X135.382 Y146.151 E1.2761
G1 X135.958 Y146.151 E.01911
G1 X162.584 Y119.525 E1.24908
G1 X162.584 Y120.1 E.01907
G1 X136.534 Y146.151 E1.22208
G1 X137.109 Y146.151 E.01907
G1 X162.584 Y120.676 E1.19508
G1 X162.584 Y121.252 E.01911
G1 X137.685 Y146.151 E1.16806
G1 X138.261 Y146.151 E.01911
G1 X162.584 Y121.827 E1.14106
G1 X162.584 Y122.403 E.01911
G1 X138.836 Y146.151 E1.11407
G1 X139.412 Y146.151 E.01911
G1 X162.584 Y122.979 E1.08704
G1 X162.584 Y123.554 E.01907
G1 X139.988 Y146.151 E1.06005
G1 X140.563 Y146.151 E.01907
G1 X162.584 Y124.13 E1.03305
G1 X162.584 Y124.706 E.01911
G1 X141.139 Y146.151 E1.00603
G1 X141.715 Y146.151 E.01911
G1 X162.584 Y125.282 E.97901
G1 X162.584 Y125.857 E.01907
G1 X142.291 Y146.151 E.95201
G1 X142.866 Y146.151 E.01907
G1 X162.584 Y126.433 E.92501
G1 X162.584 Y127.009 E.01911
G1 X143.442 Y146.151 E.89799
G1 X144.018 Y146.151 E.01911
G1 X162.584 Y127.584 E.87099
G1 X162.584 Y128.16 E.01911
G1 X144.593 Y146.151 E.84399
G1 X145.169 Y146.151 E.01911
G1 X162.584 Y128.736 E.81697
G1 X162.584 Y129.311 E.01907
G1 X145.745 Y146.151 E.78997
G1 X146.32 Y146.151 E.01907
G1 X162.584 Y129.887 E.76298
G1 X162.584 Y130.463 E.01911
G1 X146.896 Y146.151 E.73596
G1 X147.472 Y146.151 E.01911
G1 X162.584 Y131.038 E.70896
G1 X162.584 Y131.614 E.01911
G1 X148.047 Y146.151 E.68196
G1 X148.623 Y146.151 E.01911
G1 X162.584 Y132.19 E.65494
G1 X162.584 Y132.766 E.01911
G1 X149.199 Y146.151 E.62792
G1 X149.775 Y146.151 E.01911
G1 X162.584 Y133.341 E.60092
G1 X162.584 Y133.917 E.01911
G1 X150.35 Y146.151 E.57392
G1 X150.926 Y146.151 E.01911
G1 X162.584 Y134.493 E.5469
G1 X162.584 Y135.068 E.01907
G1 X151.502 Y146.151 E.5199
G1 X152.077 Y146.151 E.01907
G1 X162.584 Y135.644 E.4929
G1 X162.584 Y136.22 E.01911
G1 X152.653 Y146.151 E.46588
G1 X153.229 Y146.151 E.01911
G1 X162.584 Y136.795 E.43889
G1 X162.584 Y137.371 E.01911
G1 X153.804 Y146.151 E.41189
G1 X154.38 Y146.151 E.01911
G1 X162.584 Y137.947 E.38487
G1 X162.584 Y138.523 E.01911
G1 X154.956 Y146.151 E.35784
G1 X155.532 Y146.151 E.01911
G1 X162.584 Y139.098 E.33085
G1 X162.584 Y139.674 E.01911
G1 X156.107 Y146.151 E.30385
G1 X156.683 Y146.151 E.01911
G1 X162.584 Y140.25 E.27683
G1 X162.584 Y140.825 E.01907
G1 X157.259 Y146.151 E.24983
G1 X157.834 Y146.151 E.01907
G1 X162.584 Y141.401 E.22283
G1 X162.584 Y141.977 E.01911
G1 X158.41 Y146.151 E.19581
G1 X158.986 Y146.151 E.01911
G1 X162.584 Y142.552 E.16881
G1 X162.584 Y143.128 E.01911
G1 X159.561 Y146.151 E.14181
G1 X160.137 Y146.151 E.01911
G1 X162.584 Y143.704 E.11479
G1 X162.799 Y144.112 E.0153
;WIDTH:0.38292
G1 F10588.235
G1 X162.728 Y144.093 E.00204
G1 X162.747 Y144.164 E.00204
G1 X162.788 Y144.153 E.00118
;WIDTH:0.41646
G1 F9637.536
G1 X162.686 Y144.216 E.00365
;WIDTH:0.449999
G1 F8843.491
G1 X162.584 Y144.279 E.00398
G1 X160.713 Y146.151 E.0878
;WIPE_START
G1 F23040
G1 X162.584 Y144.279 E-.39287
G1 X162.686 Y144.216 E-.0178
G1 X162.788 Y144.153 E-.0178
G1 X162.747 Y144.164 E-.0063
G1 X162.728 Y144.093 E-.01091
G1 X162.799 Y144.112 E-.01091
G1 X162.584 Y143.704 E-.06846
G1 X160.137 Y146.151 E-.51368
G1 X159.561 Y146.151 E-.0855
G1 X162.584 Y143.128 E-.6346
G1 X162.584 Y142.552 E-.0855
G1 X161.842 Y143.294 E-.15567
;WIPE_END
G1 Z.8 F28800
G1 X162.44 Y144.999
G1 Z.4
G1 E2 F1800
G1 F8843.491
G1 X161.289 Y146.151 E.05402
G1 X162.584 Y146.151 E.04296
G1 X162.584 Y144.855 E.04299
;LAYER_CHANGE
;Z:0.6
;HEIGHT:0.2
G92 E0
M971 S11 C10 O0
;WIPE_START
G1 F23040
G1 X162.584 Y146.151 E-.19238
G1 X161.289 Y146.151 E-.19223
G1 X162.44 Y144.999 E-.24173
;WIPE_END
G1 E-1.37366 F3600
G1 Z.6 F28800
"G92 E0"
G1 Z1
G1 X162.89 Y146.456
G1 Z.6
G1 E2 F1800
;TYPE:Perimeter
G1 F8843.491
G1 X88.182 Y146.456 E2.4782
G1 X88.185 Y102.62 E1.45412
G1 X162.89 Y102.62 E2.4781
G1 X162.89 Y124.538 E.72706
G1 X162.89 Y146.396 E.72507
G1 X162.89 Y146.396 F28800
G1 X163.272 Y146.838
;TYPE:External perimeter
;WIDTH:0.399999
G1 F10081.802
G1 X87.8 Y146.838 E2.19604
G1 X87.803 Y102.238 E1.29774
G1 X163.272 Y102.238 E2.19595
G1 X163.272 Y124.538 E.64887
G1 X163.272 Y146.778 E.64713
;WIPE_START
G1 F23040
G1 X163.272 Y146.838 E-.00891
G1 X149.858 Y146.838 E-1.99109
;WIPE_END
G1 Z1 F28800
G1 X88.52 Y146.04
G1 Z.6
G1 E2 F1800
;TYPE:Solid infill
;WIDTH:0.548756
G1 F7116.931
G1 X88.476 Y146.085 E.00259
G1 X88.492 Y146.146 E.0026
G1 X88.553 Y146.163 E.00261
G1 X88.598 Y146.118 E.00262
G1 X88.581 Y146.057 E.00261
G1 X88.581 Y146.057 F28800
G1 X89.418 Y146.295
;WIDTH:0.38292
G1 F10588.235
G1 X89.429 Y146.336 E.00118
G1 X89.358 Y146.355 E.00204
G1 X89.377 Y146.284 E.00204
;WIDTH:0.41646
G1 F9637.536
G1 X89.304 Y146.217 E.00302
;WIDTH:0.449999
G1 F8843.491
G1 X88.487 Y145.407 E.03816
G1 X88.415 Y145.313 E.00393
;WIDTH:0.41646
G1 F9637.536
G1 X88.344 Y145.22 E.00356
;WIDTH:0.38292
G1 F10588.235
G1 X88.355 Y145.261 E.00118
G1 X88.284 Y145.28 E.00204
G1 X88.303 Y145.209 E.00204
;WIDTH:0.449999
G1 F8843.491
G1 X88.487 Y144.831 E.01395
G1 X89.807 Y146.151 E.06192
G1 X90.383 Y146.151 E.01911
G1 X88.487 Y144.255 E.08895
G1 X88.487 Y143.68 E.01907
G1 X90.959 Y146.151 E.11594
G1 X91.534 Y146.151 E.01907
G1 X88.487 Y143.104 E.14294
G1 X88.488 Y142.528 E.01911
G1 X92.11 Y146.151 E.16994
G1 X92.686 Y146.151 E.01911
G1 X88.488 Y141.953 E.19694
G1 X88.488 Y141.377 E.01911
G1 X93.261 Y146.151 E.22393
G1 X93.837 Y146.151 E.01911
G1 X88.488 Y140.801 E.25096
G1 X88.488 Y140.226 E.01907
G1 X94.413 Y146.151 E.27795
G1 X94.989 Y146.151 E.01911
G1 X88.488 Y139.65 E.30497
G1 X88.488 Y139.074 E.01911
G1 X95.564 Y146.151 E.33197
G1 X96.14 Y146.151 E.01911
G1 X88.488 Y138.499 E.35897
G1 X88.488 Y137.923 E.01911
G1 X96.716 Y146.151 E.38599
G1 X97.291 Y146.151 E.01907
G1 X88.488 Y137.347 E.41299
G1 X88.488 Y136.772 E.01907
G1 X97.867 Y146.151 E.43999
G1 X98.443 Y146.151 E.01911
G1 X88.488 Y136.196 E.46701
G1 X88.488 Y135.62 E.01911
G1 X99.018 Y146.151 E.49401
G1 X99.594 Y146.151 E.01911
G1 X88.488 Y135.045 E.521
G1 X88.488 Y134.469 E.01911
G1 X100.17 Y146.151 E.54803
G1 X100.746 Y146.151 E.01911
G1 X88.488 Y133.893 E.57505
G1 X88.488 Y133.318 E.01907
G1 X101.321 Y146.151 E.60202
G1 X101.897 Y146.151 E.01911
G1 X88.488 Y132.742 E.62904
G1 X88.488 Y132.166 E.01911
G1 X102.473 Y146.151 E.65606
G1 X103.048 Y146.151 E.01907
G1 X88.488 Y131.591 E.68304
G1 X88.488 Y131.015 E.01911
G1 X103.624 Y146.151 E.71006
G1 X104.2 Y146.151 E.01911
G1 X88.488 Y130.439 E.73708
G1 X88.488 Y129.864 E.01907
G1 X104.775 Y146.151 E.76406
G1 X105.351 Y146.151 E.01911
G1 X88.488 Y129.288 E.79108
G1 X88.488 Y128.712 E.01911
G1 X105.927 Y146.151 E.8181
G1 X106.502 Y146.151 E.01907
G1 X88.488 Y128.137 E.84507
G1 X88.488 Y127.561 E.01911
G1 X107.078 Y146.151 E.87209
G1 X107.654 Y146.151 E.01911
G1 X88.488 Y126.985 E.89912
G1 X88.489 Y126.41 E.01907
G1 X108.23 Y146.151 E.92609
G1 X108.805 Y146.151 E.01907
G1 X88.489 Y125.834 E.95309
G1 X88.489 Y125.259 E.01907
G1 X109.381 Y146.151 E.98009
G1 X109.957 Y146.151 E.01911
G1 X88.489 Y124.683 E1.00711
G1 X88.489 Y124.107 E.01911
G1 X110.532 Y146.151 E1.0341
G1 X111.108 Y146.151 E.01911
G1 X88.489 Y123.532 E1.0611
G1 X88.489 Y122.956 E.01911
G1 X111.684 Y146.151 E1.08812
G1 X112.259 Y146.151 E.01907
G1 X88.489 Y122.38 E1.11512
G1 X88.489 Y121.805 E.01907
G1 X112.835 Y146.151 E1.14212
G1 X113.411 Y146.151 E.01911
G1 X88.489 Y121.229 E1.16914
G1 X88.489 Y120.653 E.01911
G1 X113.987 Y146.151 E1.19616
G1 X114.562 Y146.151 E.01907
G1 X88.489 Y120.078 E1.22314
G1 X88.489 Y119.502 E.01911
G1 X115.138 Y146.151 E1.25016
G1 X115.714 Y146.151 E.01911
G1 X88.489 Y118.926 E1.27718
G1 X88.489 Y118.351 E.01907
G1 X116.289 Y146.151 E1.30415
G1 X116.865 Y146.151 E.01911
G1 X88.489 Y117.775 E1.33117
G1 X88.489 Y117.199 E.01911
G1 X117.441 Y146.151 E1.3582
G1 X118.016 Y146.151 E.01907
G1 X88.489 Y116.624 E1.38517
G1 X88.489 Y116.048 E.01911
G1 X118.592 Y146.151 E1.41219
G1 X119.168 Y146.151 E.01911
G1 X88.489 Y115.472 E1.43921
G1 X88.489 Y114.897 E.01907
G1 X119.744 Y146.151 E1.46621
G1 X120.319 Y146.151 E.01907
G1 X88.489 Y114.321 E1.49321
G1 X88.489 Y113.745 E.01911
G1 X120.895 Y146.151 E1.52023
G1 X121.471 Y146.151 E.01911
G1 X88.489 Y113.17 E1.54723
G1 X88.489 Y112.594 E.01911
G1 X122.046 Y146.151 E1.57423
G1 X122.622 Y146.151 E.01911
G1 X88.489 Y112.018 E1.60125
G1 X88.489 Y111.443 E.01907
G1 X123.198 Y146.151 E1.62824
G1 X123.773 Y146.151 E.01907
G1 X88.489 Y110.867 E1.65524
G1 X88.49 Y110.291 E.01911
G1 X124.349 Y146.151 E1.68224
G1 X124.925 Y146.151 E.01911
G1 X88.49 Y109.716 E1.70924
G1 X88.49 Y109.14 E.01911
G1 X125.5 Y146.151 E1.73624
G1 X126.076 Y146.151 E.01911
G1 X88.49 Y108.564 E1.76326
G1 X88.49 Y107.989 E.01907
G1 X126.652 Y146.151 E1.79026
G1 X127.228 Y146.151 E.01911
G1 X88.49 Y107.413 E1.81728
G1 X88.49 Y106.837 E.01911
G1 X127.803 Y146.151 E1.84427
G1 X128.379 Y146.151 E.01911
G1 X88.49 Y106.262 E1.87127
G1 X88.49 Y105.686 E.01911
G1 X128.955 Y146.151 E1.89829
G1 X129.53 Y146.151 E.01907
G1 X88.49 Y105.11 E1.92529
G1 X88.49 Y104.535 E.01907
G1 X130.106 Y146.151 E1.95229
G1 X130.682 Y146.151 E.01911
G1 X88.49 Y103.959 E1.97931
G1 X88.49 Y103.383 E.01911
G1 X131.257 Y146.151 E2.00631
G1 X131.833 Y146.151 E.01911
G1 X88.608 Y102.926 E2.02777
G1 X88.504 Y102.851 E.00425
;WIDTH:0.41646
G1 F9637.536
G1 X88.401 Y102.776 E.00388
;WIDTH:0.38292
G1 F10588.235
G1 X88.412 Y102.817 E.00118
G1 X88.341 Y102.836 E.00204
G1 X88.36 Y102.765 E.00204
G1 X88.36 Y102.765 F28800
G1 X89.184 Y102.926
;WIDTH:0.449999
G1 F8843.491
G1 X132.409 Y146.151 E2.02777
G1 X132.985 Y146.151 E.01911
G1 X89.759 Y102.926 E2.02779
G1 X90.335 Y102.926 E.01911
G1 X133.56 Y146.151 E2.02777
G1 X134.136 Y146.151 E.01911
G1 X90.911 Y102.926 E2.02777
G1 X91.486 Y102.926 E.01907
G1 X134.712 Y146.151 E2.02779
G1 X135.287 Y146.151 E.01907
G1 X92.062 Y102.926 E2.02777
G1 X92.638 Y102.926 E.01911
G1 X135.863 Y146.151 E2.02777
G1 X136.439 Y146.151 E.01911
G1 X93.213 Y102.926 E2.02779
G1 X93.789 Y102.926 E.01911
G1 X137.014 Y146.151 E2.02777
G1 X137.59 Y146.151 E.01911
G1 X94.365 Y102.926 E2.02777
G1 X94.941 Y102.926 E.01911
G1 X138.166 Y146.151 E2.02777
G1 X138.741 Y146.151 E.01907
G1 X95.516 Y102.926 E2.02777
G1 X96.092 Y102.926 E.01911
G1 X139.317 Y146.151 E2.02777
G1 X139.893 Y146.151 E.01911
G1 X96.668 Y102.926 E2.02777
G1 X97.243 Y102.926 E.01907
G1 X140.469 Y146.151 E2.02779
G1 X141.044 Y146.151 E.01907
G1 X97.819 Y102.926 E2.02777
G1 X98.395 Y102.926 E.01911
G1 X141.62 Y146.151 E2.02777
G1 X142.196 Y146.151 E.01911
G1 X98.97 Y102.926 E2.02779
G1 X99.546 Y102.926 E.01911
G1 X142.771 Y146.151 E2.02777
G1 X143.347 Y146.151 E.01911
G1 X100.122 Y102.926 E2.02777
G1 X100.698 Y102.926 E.01911
G1 X143.923 Y146.151 E2.02777
G1 X144.498 Y146.151 E.01907
G1 X101.273 Y102.926 E2.02777
G1 X101.849 Y102.926 E.01911
G1 X145.074 Y146.151 E2.02777
G1 X145.65 Y146.151 E.01911
G1 X102.425 Y102.926 E2.02777
G1 X103 Y102.926 E.01907
G1 X146.226 Y146.151 E2.02779
G1 X146.801 Y146.151 E.01907
G1 X103.576 Y102.926 E2.02777
G1 X104.152 Y102.926 E.01911
G1 X147.377 Y146.151 E2.02777
G1 X147.953 Y146.151 E.01911
G1 X104.727 Y102.926 E2.02779
G1 X105.303 Y102.926 E.01911
G1 X148.528 Y146.151 E2.02777
G1 X149.104 Y146.151 E.01911
G1 X105.879 Y102.926 E2.02777
G1 X106.455 Y102.926 E.01911
G1 X149.68 Y146.151 E2.02777
G1 X150.255 Y146.151 E.01907
G1 X107.03 Y102.926 E2.02777
G1 X107.606 Y102.926 E.01911
G1 X150.831 Y146.151 E2.02777
G1 X151.407 Y146.151 E.01911
G1 X108.182 Y102.926 E2.02777
G1 X108.757 Y102.926 E.01907
G1 X151.983 Y146.151 E2.02779
G1 X152.558 Y146.151 E.01907
G1 X109.333 Y102.926 E2.02777
G1 X109.909 Y102.926 E.01911
G1 X153.134 Y146.151 E2.02777
G1 X153.71 Y146.151 E.01911
G1 X110.484 Y102.926 E2.02779
G1 X111.06 Y102.926 E.01911
G1 X154.285 Y146.151 E2.02777
G1 X154.861 Y146.151 E.01911
G1 X111.636 Y102.926 E2.02777
G1 X112.211 Y102.926 E.01907
G1 X155.437 Y146.151 E2.02779
G1 X156.012 Y146.151 E.01907
G1 X112.787 Y102.926 E2.02777
G1 X113.363 Y102.926 E.01911
G1 X156.588 Y146.151 E2.02777
G1 X157.164 Y146.151 E.01911
G1 X113.939 Y102.926 E2.02777
G1 X114.514 Y102.926 E.01907
G1 X157.739 Y146.151 E2.02777
G1 X158.315 Y146.151 E.01911
G1 X115.09 Y102.926 E2.02777
G1 X115.666 Y102.926 E.01911
G1 X158.891 Y146.151 E2.02777
G1 X159.467 Y146.151 E.01911
G1 X116.241 Y102.926 E2.02779
G1 X116.817 Y102.926 E.01911
G1 X160.042 Y146.151 E2.02777
G1 X160.618 Y146.151 E.01911
G1 X117.393 Y102.926 E2.02777
G1 X117.968 Y102.926 E.01907
G1 X161.194 Y146.151 E2.02779
G1 X161.769 Y146.151 E.01907
G1 X118.544 Y102.926 E2.02777
G1 X119.12 Y102.926 E.01911
G1 X162.345 Y146.151 E2.02777
G1 X162.503 Y146.174 E.0053
;WIDTH:0.41646
G1 F9637.536
G1 X162.661 Y146.197 E.00486
;WIDTH:0.38292
G1 F10588.235
G1 X162.642 Y146.268 E.00204
G1 X162.713 Y146.249 E.00204
G1 X162.702 Y146.208 E.00118
;WIDTH:0.449999
G1 F8843.491
G1 X162.584 Y145.814 E.01364
G1 X119.696 Y102.926 E2.01196
G1 X120.271 Y102.926 E.01907
G1 X162.584 Y145.239 E1.98499
G1 X162.584 Y144.663 E.01911
G1 X120.847 Y102.926 E1.95797
G1 X121.423 Y102.926 E.01911
G1 X162.584 Y144.087 E1.93094
G1 X162.584 Y143.512 E.01907
G1 X121.998 Y102.926 E1.90397
G1 X122.574 Y102.926 E.01911
G1 X162.584 Y142.936 E1.87695
G1 X162.584 Y142.36 E.01911
G1 X123.15 Y102.926 E1.84993
G1 X123.725 Y102.926 E.01907
G1 X162.584 Y141.784 E1.82293
G1 X162.584 Y141.209 E.01907
G1 X124.301 Y102.926 E1.79593
G1 X124.877 Y102.926 E.01911
G1 X162.584 Y140.633 E1.76891
G1 X162.584 Y140.057 E.01911
G1 X125.452 Y102.926 E1.74191
G1 X126.028 Y102.926 E.01911
G1 X162.584 Y139.482 E1.71491
G1 X162.584 Y138.906 E.01911
G1 X126.604 Y102.926 E1.68789
G1 X127.18 Y102.926 E.01911
G1 X162.584 Y138.33 E1.66087
G1 X162.584 Y137.755 E.01907
G1 X127.755 Y102.926 E1.6339
G1 X128.331 Y102.926 E.01911
G1 X162.584 Y137.179 E1.60688
G1 X162.584 Y136.603 E.01911
G1 X128.907 Y102.926 E1.57986
G1 X129.482 Y102.926 E.01907
G1 X162.584 Y136.028 E1.55288
G1 X162.584 Y135.452 E.01911
G1 X130.058 Y102.926 E1.52586
G1 X130.634 Y102.926 E.01911
G1 X162.584 Y134.876 E1.49884
G1 X162.584 Y134.3 E.01911
G1 X131.209 Y102.926 E1.47184
G1 X131.785 Y102.926 E.01911
G1 X162.584 Y133.725 E1.44484
G1 X162.584 Y133.149 E.01911
G1 X132.361 Y102.926 E1.41782
G1 X132.937 Y102.926 E.01911
G1 X162.584 Y132.573 E1.3908
G1 X162.584 Y131.998 E.01907
G1 X133.512 Y102.926 E1.36383
G1 X134.088 Y102.926 E.01911
G1 X162.584 Y131.422 E1.3368
G1 X162.584 Y130.846 E.01911
G1 X134.664 Y102.926 E1.30978
G1 X135.239 Y102.926 E.01907
G1 X162.584 Y130.271 E1.28281
G1 X162.584 Y129.695 E.01911
G1 X135.815 Y102.926 E1.25579
G1 X136.391 Y102.926 E.01911
G1 X162.584 Y129.119 E1.22877
G1 X162.584 Y128.543 E.01911
G1 X136.966 Y102.926 E1.20177
G1 X137.542 Y102.926 E.01911
G1 X162.584 Y127.968 E1.17477
G1 X162.584 Y127.392 E.01911
G1 X138.118 Y102.926 E1.14775
G1 X138.694 Y102.926 E.01911
G1 X162.584 Y126.816 E1.12073
G1 X162.584 Y126.241 E.01907
G1 X139.269 Y102.926 E1.09375
G1 X139.845 Y102.926 E.01911
G1 X162.584 Y125.665 E1.06673
G1 X162.584 Y125.089 E.01911
G1 X140.421 Y102.926 E1.03971
G1 X140.996 Y102.926 E.01907
G1 X162.584 Y124.514 E1.01274
G1 X162.584 Y123.938 E.01911
G1 X141.572 Y102.926 E.98571
G1 X142.148 Y102.926 E.01911
G1 X162.584 Y123.362 E.95869
G1 X162.584 Y122.786 E.01911
G1 X142.723 Y102.926 E.9317
G1 X143.299 Y102.926 E.01911
G1 X162.584 Y122.211 E.9047
G1 X162.584 Y121.635 E.01911
G1 X143.875 Y102.926 E.87768
G1 X144.45 Y102.926 E.01907
G1 X162.584 Y121.059 E.85068
G1 X162.584 Y120.484 E.01907
G1 X145.026 Y102.926 E.82368
G1 X145.602 Y102.926 E.01911
G1 X162.584 Y119.908 E.79666
G1 X162.584 Y119.332 E.01911
G1 X146.178 Y102.926 E.76964
G1 X146.753 Y102.926 E.01907
G1 X162.584 Y118.757 E.74266
G1 X162.584 Y118.181 E.01911
G1 X147.329 Y102.926 E.71564
G1 X147.905 Y102.926 E.01911
G1 X162.584 Y117.605 E.68862
G1 X162.584 Y117.03 E.01907
G1 X148.48 Y102.926 E.66165
G1 X149.056 Y102.926 E.01911
G1 X162.584 Y116.454 E.63463
G1 X162.584 Y115.878 E.01911
G1 X149.632 Y102.926 E.6076
G1 X150.207 Y102.926 E.01907
G1 X162.584 Y115.302 E.58061
G1 X162.584 Y114.727 E.01907
G1 X150.783 Y102.926 E.55361
G1 X151.359 Y102.926 E.01911
G1 X162.584 Y114.151 E.52659
G1 X162.584 Y113.575 E.01911
G1 X151.935 Y102.926 E.49957
G1 X152.51 Y102.926 E.01907
G1 X162.584 Y113 E.47259
G1 X162.584 Y112.424 E.01911
G1 X153.086 Y102.926 E.44557
G1 X153.662 Y102.926 E.01911
G1 X162.584 Y111.848 E.41855
G1 X162.584 Y111.273 E.01907
G1 X154.237 Y102.926 E.39157
G1 X154.813 Y102.926 E.01911
G1 X162.584 Y110.697 E.36455
G1 X162.584 Y110.121 E.01911
G1 X155.389 Y102.926 E.33753
G1 X155.964 Y102.926 E.01907
G1 X162.584 Y109.545 E.31053
G1 X162.584 Y108.97 E.01907
G1 X156.54 Y102.926 E.28354
G1 X157.116 Y102.926 E.01911
G1 X162.584 Y108.394 E.25651
G1 X162.584 Y107.818 E.01911
G1 X157.692 Y102.926 E.22949
G1 X158.267 Y102.926 E.01907
G1 X162.584 Y107.243 E.20252
G1 X162.584 Y106.667 E.01911
G1 X158.843 Y102.926 E.1755
G1 X159.419 Y102.926 E.01911
G1 X162.584 Y106.091 E.14848
G1 X162.584 Y105.516 E.01907
G1 X159.994 Y102.926 E.1215
G1 X160.57 Y102.926 E.01911
G1 X162.584 Y104.94 E.09448
;WIPE_START
G1 F23040
G1 X160.57 Y102.926 E-.42278
G1 X159.994 Y102.926 E-.0855
G1 X162.584 Y105.516 E-.5437
G1 X162.584 Y106.091 E-.08535
G1 X159.419 Y102.926 E-.6644
G1 X158.843 Y102.926 E-.0855
G1 X159.38 Y103.463 E-.11277
;WIPE_END
G1 Z1 F28800
G1 X161.29 Y103.07
G1 Z.6
G1 E2 F1800
G1 F8843.491
G1 X162.584 Y104.364 E.0607
G1 X162.584 Y102.926 E.0477
G1 X161.146 Y102.926 E.0477
;WIPE_START
G1 F23040
G1 X162.584 Y102.926 E-.21345
G1 X162.584 Y104.364 E-.21345
G1 X161.29 Y103.07 E-.27164
;WIPE_END
G1 E-1.30146 F3600
G1 Z1 F28800
G1 X162.149 Y103.294
G1 Z.6
G1 E2 F1800
;WIDTH:0.478498
G1 F8264.881
G1 X162.11 Y103.333 E.00196
G1 X162.124 Y103.386 E.00195
G1 X162.177 Y103.4 E.00195
G1 X162.215 Y103.361 E.00193
G1 X162.201 Y103.309 E.00191
;LAYER_CHANGE
;Z:0.8
;HEIGHT:0.2
G92 E0
M971 S11 C10 O0
;WIPE_START
G1 F23040
G1 X162.215 Y103.361 E-.00799
G1 X162.177 Y103.4 E-.00808
G1 X162.124 Y103.386 E-.00814
G1 X162.11 Y103.333 E-.00814
G1 X162.149 Y103.294 E-.00819
;WIPE_END
G1 E-1.95946 F3600
G1 Z.8 F28800
"G92 E0"
G1 Z1.2
G1 X162.89 Y146.456
G1 Z.8
G1 E2 F1800
;TYPE:Perimeter
;WIDTH:0.449999
G1 F8843.491
G1 X88.039 Y146.457 E2.48294
G1 X88.05 Y102.622 E1.45409
G1 X162.89 Y102.62 E2.48258
G1 X162.89 Y124.538 E.72706
G1 X162.89 Y146.396 E.72507
G1 X162.89 Y146.396 F28800
G1 X163.272 Y146.838
;TYPE:External perimeter
;WIDTH:0.399999
G1 F10081.802
G1 X88.05 Y146.838 E2.18877
G1 X87.657 Y146.89 E.01153
G1 X87.667 Y102.19 E1.30065
G1 X88.05 Y102.238 E.01123
G1 X163.272 Y102.238 E2.18877
G1 X163.272 Y124.538 E.64887
G1 X163.272 Y146.778 E.64713
;WIPE_START
G1 F23040
G1 X163.272 Y146.838 E-.00891
G1 X149.858 Y146.838 E-1.99109
;WIPE_END
G1 Z1.2 F28800
G1 X161.012 Y142.409
G1 Z.8
G1 E2 F1800
;TYPE:Internal infill
;WIDTH:0.45
G1 F8843.478
G1 X161.012 Y144.851 E.08101
G1 X158.161 Y145.615 E.09791
G1 X157.129 Y145.615 E.03423
G1 X114.975 Y103.461 E1.97753
G1 X113.914 Y103.461 E.0352
G1 X102.619 Y145.615 E1.44765
G1 X99.56 Y145.615 E.10147
G1 X88.716 Y134.771 E.50871
G1 X88.716 Y134.589 E.00604
G1 X97.056 Y103.461 E1.06899
G1 X95.286 Y103.461 E.05871
G1 X88.353 Y105.319 E.2381
G1 X88.354 Y104.483 E.02773
G1 X88.63 Y103.45 E.03547
G1 X91.947 Y103.461 E.11003
G1 X134.101 Y145.615 E1.97753
G1 X136.334 Y145.615 E.07407
G1 X147.629 Y103.461 E1.44765
G1 X149.517 Y103.461 E.06263
G1 X161.012 Y114.957 E.53928
G1 X161.012 Y116.427 E.04876
G1 X153.191 Y145.615 E1.00238
G1 X150.749 Y145.615 E.08101
;WIPE_START
G1 F23040
G1 X153.191 Y145.615 E-.36248
G1 X156.046 Y134.959 E-1.63752
;WIPE_END
G1 Z1.2 F28800
G1 X127.905 Y145.615
G1 Z.8
G1 E2 F1800
G1 F8843.478
G1 X139.2 Y103.461 E1.44765
G1 X138.003 Y103.461 E.03971
G1 X161.012 Y126.47 E1.0794
G1 X161.012 Y127.994 E.05055
G1 X95.247 Y145.615 E2.2585
G1 X94.19 Y145.615 E.03506
G1 X105.485 Y103.461 E1.44765
G1 X103.461 Y103.461 E.06714
G1 X145.615 Y145.615 E1.97753
G1 X144.763 Y145.615 E.02826
G1 X156.058 Y103.461 E1.44765
G1 X153.615 Y103.461 E.08104
;WIPE_START
G1 F23040
G1 X156.058 Y103.461 E-.36263
G1 X153.203 Y114.116 E-1.63737
;WIPE_END
G1 Z1.2 F28800
G1 X161.012 Y122.007
G1 Z.8
G1 E2 F1800
G1 F8843.478
G1 X161.012 Y119.565 E.08101
G1 X88.716 Y138.937 E2.48279
G1 X88.716 Y141.379 E.08101
;WIPE_START
G1 F23040
G1 X88.716 Y138.937 E-.36248
G1 X99.372 Y136.082 E-1.63752
;WIPE_END
G1 Z1.2 F28800
G1 X88.716 Y128.065
G1 Z.8
G1 E2 F1800
G1 F8843.478
G1 X88.716 Y130.508 E.08104
G1 X161.012 Y111.136 E2.48279
G1 X161.012 Y103.461 E.25459
G1 X158.199 Y103.461 E.09331
G1 X88.716 Y122.079 E2.38619
G1 X88.716 Y123.257 E.03908
G1 X111.047 Y145.615 E1.04823
G1 X122.343 Y103.461 E1.44766
G1 X119.9 Y103.461 E.08104
;WIPE_START
G1 F23040
G1 X122.343 Y103.461 E-.36263
G1 X119.488 Y114.116 E-1.63737
;WIPE_END
G1 Z1.2 F28800
G1 X133.214 Y103.461
G1 Z.8
G1 E2 F1800
G1 F8843.478
G1 X130.771 Y103.461 E.08104
G1 X119.476 Y145.615 E1.44765
G1 X122.588 Y145.615 E.10323
G1 X88.716 Y111.743 E1.58901
G1 X88.716 Y113.65 E.06326
G1 X126.742 Y103.461 E1.30589
G1 X126.489 Y103.461 E.00839
G1 X161.012 Y137.984 E1.61954
G1 X161.012 Y136.423 E.05178
G1 X126.704 Y145.615 E1.1782
G1 X124.261 Y145.615 E.08104
;WIPE_START
G1 F23040
G1 X126.704 Y145.615 E-.36263
G1 X137.359 Y142.76 E-1.63737
;WIPE_END
G1 Z1.2 F28800
G1 X88.33 Y110.423
G1 Z.8
G1 E2 F1800
;TYPE:Solid infill
;WIDTH:0.413822
G1 F9706.069
G1 X88.327 Y145.719 E1.06678
;WIDTH:0.458156
G1 F8669.777
G1 X88.349 Y145.787 E.00242
;WIDTH:0.50249
G1 F7833.423
G1 X88.371 Y145.855 E.00268
;WIDTH:0.546823
G1 F7144.235
G1 X88.393 Y145.922 E.0029
;WIDTH:0.591157
G1 F6566.511
G1 X88.415 Y145.99 E.00319
;WIDTH:0.63549
G1 F6075.232
G1 X88.437 Y146.058 E.00345
G1 X88.525 Y146.072 E.0043
;WIDTH:0.606947
G1 F6382.673
G1 X88.612 Y146.087 E.00406
;WIDTH:0.578406
G1 F6722.865
G1 X161.116 Y146.087 E3.16374
;WIDTH:0.582464
G1 F6672.301
G1 X161.162 Y146.085 E.00202
;WIPE_START
G1 F23040
G1 X161.116 Y146.087 E-.00683
G1 X147.688 Y146.087 E-1.99317
;WIPE_END
G1 Z1.2 F28800
G1 X161.284 Y103.102
G1 Z.8
G1 E2 F1800
;WIDTH:0.503901
G1 F7809.437
G1 X161.352 Y103.23 E.00544
;WIDTH:0.47695
G1 F8294.36
G1 X161.419 Y103.358 E.00511
;WIDTH:0.449999
G1 F8843.491
G1 X161.419 Y145.719 E1.40519
;WIDTH:0.486325
G1 F8118.988
G1 X161.352 Y145.854 E.00545
;WIDTH:0.522651
G1 F7504.205
G1 X161.285 Y145.989 E.00589
;WIDTH:0.552558
G1 F7063.845
G1 X161.224 Y146.037 E.00322
;WIDTH:0.582464
G1 F6672.301
G1 X161.162 Y146.085 E.00345
G1 X161.392 Y146.107 E.01016
;WIDTH:0.538309
G1 F7267.017
G1 X161.622 Y146.129 E.00933
;WIDTH:0.494154
G1 F7978.122
G1 X161.852 Y146.151 E.0085
;WIDTH:0.449999
G1 F8843.491
G1 X162.584 Y146.151 E.02428
G1 X162.584 Y102.926 E1.43385
G1 X161.852 Y102.926 E.02428
;WIDTH:0.477845
G1 F8277.289
G1 X161.595 Y102.94 E.00912
;WIDTH:0.505691
G1 F7779.226
G1 X161.338 Y102.954 E.00971
;WIDTH:0.542049
G1 F7212.571
G1 X161.227 Y102.972 E.00457
;WIDTH:0.578406
G1 F6722.865
G1 X161.116 Y102.99 E.00491
G1 X88.739 Y102.99 E3.15819
G1 X88.556 Y102.967 E.00805
;WIDTH:0.533544
G1 F7337.594
G1 X88.373 Y102.945 E.00737
;WIPE_START
G1 F23040
G1 X88.556 Y102.967 E-.02736
G1 X88.739 Y102.99 E-.02738
G1 X101.844 Y102.99 E-1.94526
;WIPE_END
G1 Z1.2 F28800
G1 X161.796 Y103.319
G1 Z.8
G1 E2 F1800
;WIDTH:0.42178
G1 F9502.191
G1 X162.191 Y103.319 E.01219
G1 X162.191 Y145.758 E1.31019
G1 X161.796 Y145.758 E.01219
G1 X161.812 Y145.719 E.0013
G1 X161.812 Y103.521 E1.30275
;LAYER_CHANGE
;Z:1
;HEIGHT:0.2
G92 E0
M971 S11 C10 O0
;WIPE_START
G1 F23040
G1 X161.812 Y116.995 E-2
;WIPE_END
G1 Z1 F28800
"G92 E0"
G1 Z1.4
G1 X162.89 Y146.456
G1 Z1
G1 E2 F1800
;TYPE:Perimeter
;WIDTH:0.449999
G1 F8843.491
G1 X88.33 Y146.456 E2.47329
G1 X87.896 Y146.51 E.01451
G1 X87.896 Y102.569 E1.4576
G1 X88.33 Y102.62 E.0145
G1 X162.89 Y102.62 E2.47329
G1 X162.89 Y124.538 E.72706
G1 X162.89 Y146.396 E.72507
G1 X162.89 Y146.396 F28800
G1 X163.272 Y146.838
;TYPE:External perimeter
;WIDTH:0.399999
G1 F10081.802
G1 X88.33 Y146.838 E2.18062
G1 X87.514 Y146.948 E.02396
G1 X87.514 Y102.133 E1.304
G1 X88.33 Y102.238 E.02394
G1 X163.272 Y102.238 E2.18062
G1 X163.272 Y124.538 E.64887
G1 X163.272 Y146.778 E.64713
;WIPE_START
G1 F23040
G1 X163.272 Y146.838 E-.00891
G1 X149.858 Y146.838 E-1.99109
;WIPE_END
G1 Z1.4 F28800
G1 X160.152 Y142.639
G1 Z1
G1 E2 F1800
;TYPE:Internal infill
;WIDTH:0.45
G1 F8843.478
G1 X160.152 Y145.082 E.08104
G1 X159.28 Y145.315 E.02994
G1 X156.829 Y145.315 E.0813
G1 X115.275 Y103.761 E1.94938
G1 X113.833 Y103.761 E.04783
G1 X102.699 Y145.315 E1.42704
G1 X99.26 Y145.315 E.11408
G1 X88.573 Y134.629 E.50133
;WIPE_START
G1 F23040
G1 X98.1 Y144.156 E-2
;WIPE_END
G1 Z1.4 F28800
G1 X88.574 Y128.103
G1 Z1
G1 E2 F1800
G1 F8843.478
G1 X88.574 Y130.546 E.08104
G1 X160.152 Y111.367 E2.45813
G1 X160.152 Y114.097 E.09056
G1 X149.817 Y103.761 E.48486
G1 X147.549 Y103.761 E.07523
G1 X136.414 Y145.315 E1.42705
G1 X133.801 Y145.315 E.08668
G1 X92.247 Y103.761 E1.94938
G1 X88.814 Y103.761 E.11388
G1 X88.575 Y103.719 E.00805
G1 X88.575 Y105.259 E.05108
G1 X94.166 Y103.761 E.19201
G1 X96.976 Y103.761 E.09321
G1 X88.573 Y135.119 E1.0769
G1 X88.573 Y138.975 E.12791
G1 X160.152 Y119.795 E2.45817
G1 X160.152 Y119.636 E.00527
G1 X153.272 Y145.315 E.88186
G1 X150.829 Y145.315 E.08104
;WIPE_START
G1 F23040
G1 X153.272 Y145.315 E-.36263
G1 X156.127 Y134.66 E-1.63737
;WIPE_END
G1 Z1.4 F28800
G1 X155.977 Y103.761
G1 Z1
G1 E2 F1800
G1 F8843.478
G1 X144.843 Y145.315 E1.42704
G1 X145.315 Y145.315 E.01566
G1 X103.761 Y103.761 E1.94938
G1 X105.405 Y103.761 E.05453
G1 X94.27 Y145.315 E1.42705
G1 X96.367 Y145.315 E.06956
G1 X160.152 Y128.224 E2.1905
G1 X160.152 Y125.611 E.08668
G1 X138.303 Y103.761 E1.025
G1 X139.12 Y103.761 E.0271
G1 X127.985 Y145.315 E1.42705
G1 X127.824 Y145.315 E.00534
G1 X160.152 Y136.653 E1.11021
G1 X160.152 Y137.124 E.01562
G1 X126.789 Y103.761 E1.56513
G1 X125.623 Y103.761 E.03868
G1 X88.575 Y113.688 E1.2723
G1 X88.575 Y111.603 E.06916
G1 X122.288 Y145.315 E1.58152
G1 X119.557 Y145.315 E.09059
G1 X130.691 Y103.761 E1.42704
G1 X133.133 Y103.761 E.08101
;WIPE_START
G1 F23040
G1 X130.691 Y103.761 E-.36248
G1 X127.836 Y114.417 E-1.63752
;WIPE_END
G1 Z1.4 F28800
G1 X119.82 Y103.761
G1 Z1
G1 E2 F1800
G1 F8843.478
G1 X122.262 Y103.761 E.08101
G1 X111.128 Y145.315 E1.42704
G1 X110.774 Y145.315 E.01174
G1 X88.574 Y123.116 E1.04142
G1 X88.574 Y122.117 E.03314
G1 X157.079 Y103.761 E2.3526
G1 X159.522 Y103.761 E.08104
;WIPE_START
G1 F23040
G1 X157.079 Y103.761 E-.36263
G1 X146.424 Y106.616 E-1.63737
;WIPE_END
G1 Z1.4 F28800
G1 X88.185 Y145.511
G1 Z1
G1 E2 F1800
;TYPE:Solid infill
;WIDTH:0.417032
G1 F9622.787
G1 X88.184 Y145.479 E.00098
;WIDTH:0.416818
G1 F9628.294
G1 X88.185 Y103.599 E1.276
;WIDTH:0.439722
G1 F9072.535
G1 X88.196 Y102.927 E.02173
G1 X88.238 Y102.914 E.00142
;WIDTH:0.462809
G1 F8573.694
G1 X160.256 Y102.931 E2.46414
;WIDTH:0.460768
G1 F8615.574
G1 X160.744 Y102.926 E.01662
;WIDTH:0.449999
G1 F8843.491
G1 X162.584 Y102.926 E.06104
G1 X162.584 Y146.151 E1.43385
G1 X161.292 Y146.151 E.04286
;WIDTH:0.460664
G1 F8617.717
G1 X88.863 Y146.146 E2.46554
G1 X88.195 Y146.172 E.02276
;WIDTH:0.436347
G1 F9150.363
G1 X88.185 Y145.511 E.02119
;WIDTH:0.424193
G1 F9442.053
G1 X88.248 Y145.626 E.00407
;WIDTH:0.436347
G1 F9150.363
G1 X88.443 Y145.771 E.00779
;WIDTH:0.460663
G1 F8617.738
G1 X88.843 Y145.728 E.01369
G1 X160.256 Y145.728 E2.43095
;WIDTH:0.463829
G1 F8552.918
G1 X160.292 Y145.726 E.00124
G1 X160.5 Y145.563 E.00906
;WIDTH:0.449999
G1 F8843.491
G1 X160.559 Y145.419 E.00516
G1 X160.559 Y103.658 E1.38529
G1 X160.5 Y103.514 E.00516
;WIDTH:0.451252
G1 F8816.356
G1 X160.4 Y103.413 E.00473
;WIDTH:0.460768
G1 F8615.574
G1 X160.256 Y103.349 E.00537
;WIDTH:0.462809
G1 F8573.694
G1 X88.843 Y103.346 E2.44344
G1 X88.446 Y103.304 E.01366
;WIDTH:0.439722
G1 F9072.535
G1 X88.283 Y103.425 E.00656
;WIPE_START
G1 F23040
G1 X88.446 Y103.304 E-.03013
G1 X88.843 Y103.346 E-.05926
G1 X101.714 Y103.346 E-1.91061
;WIPE_END
G1 Z1.4 F28800
G1 X160.832 Y103.333
G1 Z1
G1 E2 F1800
;WIDTH:0.449999
G1 F8843.491
G1 X162.177 Y103.333 E.04462
G1 X162.177 Y145.744 E1.40685
G1 X160.832 Y145.744 E.04462
G1 X160.967 Y145.419 E.01167
G1 X160.967 Y103.658 E1.38529
G1 X160.91 Y103.521 E.00492
G1 X161.371 Y103.737 E.01689
;WIDTH:0.44468
G1 F8960.573
G1 X161.773 Y103.737 E.01316
G1 X161.773 Y145.339 E1.36198
G1 X161.371 Y145.339 E.01316
G1 X161.371 Y103.941 E1.3553
;LAYER_CHANGE
;Z:1.2
;HEIGHT:0.2
G92 E0
M971 S11 C10 O0
;WIPE_START
G1 F23040
G1 X161.371 Y117.415 E-2
;WIPE_END
G1 Z1.2 F28800
"G92 E0"
G1 Z1.6
G1 X162.46 Y146.306
G1 Z1.2
G1 E2 F1800
;TYPE:Perimeter
;WIDTH:0.449999
G1 F8843.491
G1 X88.531 Y146.306 E2.45236
G1 X88.135 Y146.47 E.01422
G1 X88.091 Y146.519 E.00218
G1 X87.753 Y146.568 E.01133
G1 X87.753 Y102.513 E1.46138
G1 X88.009 Y102.547 E.00857
G1 X88.531 Y102.77 E.01883
G1 X162.46 Y102.77 E2.45236
G1 X162.46 Y124.538 E.72208
G1 X162.46 Y146.246 E.72009
G1 X162.46 Y146.246 F28800
G1 X162.842 Y146.688
;TYPE:External perimeter
;WIDTH:0.399999
G1 F10081.802
G1 X88.531 Y146.688 E2.16226
G1 X88.405 Y146.74 E.00397
G1 X88.293 Y146.88 E.00522
G1 X87.371 Y147.006 E.02708
G1 X87.371 Y102.078 E1.30729
G1 X88.294 Y102.199 E.02709
G1 X88.392 Y102.321 E.00455
G1 X88.531 Y102.388 E.00449
G1 X162.842 Y102.388 E2.16226
G1 X162.842 Y124.538 E.64451
G1 X162.842 Y146.628 E.64276
;WIPE_START
G1 F23040
G1 X162.842 Y146.688 E-.00891
G1 X149.428 Y146.688 E-1.99109
;WIPE_END
G1 Z1.6 F28800
G1 X161.611 Y146.187
G1 Z1.2
G1 E2 F1800
;TYPE:Top solid infill
;WIDTH:0.403479
G1 F9984.496
G1 X162.179 Y145.618 E.02362
G1 X162.179 Y145.108 E.01498
G1 X161.261 Y146.026 E.03814
G1 X160.997 Y146.026 E.00776
G1 X160.997 Y145.781 E.0072
G1 X162.179 Y144.598 E.04913
G1 X162.179 Y144.088 E.01498
G1 X160.997 Y145.271 E.04913
G1 X160.997 Y144.761 E.01498
G1 X162.179 Y143.578 E.04913
G1 X162.179 Y143.069 E.01495
G1 X160.997 Y144.251 E.04911
G1 X160.997 Y143.741 E.01498
G1 X162.179 Y142.559 E.04911
G1 X162.179 Y142.049 E.01498
G1 X160.997 Y143.231 E.04911
G1 X160.997 Y142.721 E.01498
G1 X162.179 Y141.539 E.04911
G1 X162.179 Y141.029 E.01498
G1 X160.997 Y142.211 E.04911
G1 X160.997 Y141.702 E.01495
G1 X162.179 Y140.519 E.04913
G1 X162.179 Y140.009 E.01498
G1 X160.997 Y141.192 E.04913
G1 X160.997 Y140.682 E.01498
G1 X162.179 Y139.499 E.04913
G1 X162.179 Y138.989 E.01498
G1 X160.997 Y140.172 E.04913
G1 X160.997 Y139.662 E.01498
G1 X162.179 Y138.479 E.04913
G1 X162.179 Y137.969 E.01498
G1 X160.997 Y139.152 E.04913
G1 X160.997 Y138.642 E.01498
G1 X162.179 Y137.46 E.04911
G1 X162.179 Y136.95 E.01498
G1 X160.997 Y138.132 E.04911
G1 X160.997 Y137.622 E.01498
G1 X162.179 Y136.44 E.04911
G1 X162.179 Y135.93 E.01498
G1 X160.997 Y137.112 E.04911
G1 X160.997 Y136.602 E.01498
G1 X162.179 Y135.42 E.04911
G1 X162.179 Y134.91 E.01498
G1 X160.997 Y136.093 E.04913
G1 X160.997 Y135.583 E.01498
G1 X162.179 Y134.4 E.04913
G1 X162.179 Y133.89 E.01498
G1 X160.997 Y135.073 E.04913
G1 X160.997 Y134.563 E.01498
G1 X162.179 Y133.38 E.04913
G1 X162.179 Y132.87 E.01498
G1 X160.997 Y134.053 E.04913
G1 X160.997 Y133.543 E.01498
G1 X162.179 Y132.36 E.04913
G1 X162.179 Y131.851 E.01495
G1 X160.997 Y133.033 E.04911
G1 X160.997 Y132.523 E.01498
G1 X162.179 Y131.341 E.04911
G1 X162.179 Y130.831 E.01498
G1 X160.997 Y132.013 E.04911
G1 X160.997 Y131.503 E.01498
G1 X162.179 Y130.321 E.04911
G1 X162.179 Y129.811 E.01498
G1 X160.997 Y130.993 E.04911
G1 X160.997 Y130.484 E.01495
G1 X162.179 Y129.301 E.04913
G1 X162.179 Y128.791 E.01498
G1 X160.997 Y129.974 E.04913
G1 X160.997 Y129.464 E.01498
G1 X162.179 Y128.281 E.04913
G1 X162.179 Y127.771 E.01498
G1 X160.997 Y128.954 E.04913
G1 X160.997 Y128.444 E.01498
G1 X162.179 Y127.261 E.04913
G1 X162.179 Y126.751 E.01498
G1 X160.997 Y127.934 E.04913
G1 X160.997 Y127.424 E.01498
G1 X162.179 Y126.242 E.04911
G1 X162.179 Y125.732 E.01498
G1 X160.997 Y126.914 E.04911
G1 X160.997 Y126.404 E.01498
G1 X162.179 Y125.222 E.04911
G1 X162.179 Y124.712 E.01498
G1 X160.997 Y125.894 E.04911
G1 X160.997 Y125.385 E.01495
G1 X162.179 Y124.202 E.04913
G1 X162.179 Y123.692 E.01498
G1 X160.997 Y124.875 E.04913
G1 X160.997 Y124.365 E.01498
G1 X162.179 Y123.182 E.04913
G1 X162.179 Y122.672 E.01498
G1 X160.997 Y123.855 E.04913
G1 X160.997 Y123.345 E.01498
G1 X162.179 Y122.162 E.04913
G1 X162.179 Y121.652 E.01498
G1 X160.997 Y122.835 E.04913
G1 X160.997 Y122.325 E.01498
G1 X162.179 Y121.143 E.04911
G1 X162.179 Y120.633 E.01498
G1 X160.997 Y121.815 E.04911
G1 X160.997 Y121.305 E.01498
G1 X162.179 Y120.123 E.04911
G1 X162.179 Y119.613 E.01498
G1 X160.997 Y120.795 E.04911
G1 X160.997 Y120.285 E.01498
G1 X162.179 Y119.103 E.04911
G1 X162.179 Y118.593 E.01498
G1 X160.997 Y119.776 E.04913
G1 X160.997 Y119.266 E.01498
G1 X162.179 Y118.083 E.04913
G1 X162.179 Y117.573 E.01498
G1 X160.997 Y118.756 E.04913
G1 X160.997 Y118.246 E.01498
G1 X162.179 Y117.063 E.04913
G1 X162.179 Y116.553 E.01498
G1 X160.997 Y117.736 E.04913
G1 X160.997 Y117.226 E.01498
G1 X162.179 Y116.043 E.04913
G1 X162.179 Y115.534 E.01495
G1 X160.997 Y116.716 E.04911
G1 X160.997 Y116.206 E.01498
G1 X162.179 Y115.024 E.04911
G1 X162.179 Y114.514 E.01498
G1 X160.997 Y115.696 E.04911
G1 X160.997 Y115.186 E.01498
G1 X162.179 Y114.004 E.04911
G1 X162.179 Y113.494 E.01498
G1 X160.997 Y114.676 E.04911
G1 X160.997 Y114.167 E.01495
G1 X162.179 Y112.984 E.04913
G1 X162.179 Y112.474 E.01498
G1 X160.997 Y113.657 E.04913
G1 X160.997 Y113.147 E.01498
G1 X162.179 Y111.964 E.04913
G1 X162.179 Y111.454 E.01498
G1 X160.997 Y112.637 E.04913
G1 X160.997 Y112.127 E.01498
G1 X162.179 Y110.944 E.04913
G1 X162.179 Y110.434 E.01498
G1 X160.997 Y111.617 E.04913
G1 X160.997 Y111.107 E.01498
G1 X162.179 Y109.925 E.04911
G1 X162.179 Y109.415 E.01498
G1 X160.997 Y110.597 E.04911
G1 X160.997 Y110.087 E.01498
G1 X162.179 Y108.905 E.04911
G1 X162.179 Y108.395 E.01498
G1 X160.997 Y109.577 E.04911
G1 X160.997 Y109.067 E.01498
G1 X162.179 Y107.885 E.04911
G1 X162.179 Y107.375 E.01498
G1 X160.997 Y108.558 E.04913
G1 X160.997 Y108.048 E.01498
G1 X162.179 Y106.865 E.04913
G1 X162.179 Y106.355 E.01498
G1 X160.997 Y107.538 E.04913
G1 X160.997 Y107.028 E.01498
G1 X162.179 Y105.845 E.04913
G1 X162.179 Y105.335 E.01498
G1 X160.997 Y106.518 E.04913
G1 X160.997 Y106.008 E.01498
G1 X162.179 Y104.825 E.04913
G1 X162.179 Y104.316 E.01495
G1 X160.997 Y105.498 E.04911
G1 X160.997 Y104.988 E.01498
G1 X162.179 Y103.806 E.04911
G1 X162.179 Y103.296 E.01498
G1 X160.997 Y104.478 E.04911
G1 X160.997 Y103.968 E.01498
G1 X161.914 Y103.051 E.0381
G1 X161.405 Y103.051 E.01495
G1 X160.836 Y103.619 E.02362
;WIPE_START
G1 F23040
G1 X161.405 Y103.051 E-.11934
G1 X161.914 Y103.051 E-.07555
G1 X160.997 Y103.968 E-.1925
G1 X160.997 Y104.478 E-.0757
G1 X162.179 Y103.296 E-.24813
G1 X162.179 Y103.806 E-.0757
G1 X160.997 Y104.988 E-.24813
G1 X160.997 Y105.498 E-.0757
G1 X162.179 Y104.316 E-.24813
G1 X162.179 Y104.825 E-.07555
G1 X160.997 Y106.008 E-.24823
G1 X160.997 Y106.518 E-.0757
G1 X162.148 Y105.367 E-.24164
;WIPE_END
G1 Z1.6 F28800
G1 X159.192 Y103.119
G1 Z1.2
G1 E2 F1800
;TYPE:Solid infill
;WIDTH:0.53566
G1 F7306.084
G1 X88.999 Y103.118 E2.81839
;WIDTH:0.534632
G1 F7321.359
G1 X88.825 Y103.096 E.00703
;WIDTH:0.500005
G1 F7876.003
G1 X88.651 Y103.074 E.00653
;WIDTH:0.465378
G1 F8521.57
G1 X88.478 Y103.052 E.006
;WIDTH:0.467301
G1 F8482.943
G1 X88.067 Y102.903 E.01512
G1 X88.059 Y103.478 E.01989
;WIDTH:0.450393
G1 F8834.94
G1 X88.045 Y103.713 E.00782
G1 X88.144 Y103.531 E.00688
;WIDTH:0.467301
G1 F8482.943
G1 X88.352 Y103.419 E.00817
G1 X88.548 Y103.452 E.00687
;WIDTH:0.487586
G1 F8095.964
G1 X88.675 Y103.515 E.00514
;WIDTH:0.518154
G1 F7575.215
G1 X88.802 Y103.579 E.00551
;WIDTH:0.534632
G1 F7321.359
G1 X88.999 Y103.61 E.00799
;WIDTH:0.535663
G1 F7306.04
G1 X159.396 Y103.611 E2.8266
G1 X159.533 Y103.731 E.00731
;WIDTH:0.492831
G1 F8001.583
G1 X159.67 Y103.852 E.0067
;WIDTH:0.449999
G1 F8843.491
G1 X159.699 Y103.958 E.00365
G1 X159.699 Y145.119 E1.36538
G1 X159.64 Y145.263 E.00516
;WIDTH:0.494698
G1 F7968.516
G1 X159.539 Y145.363 E.00523
;WIDTH:0.539397
G1 F7251.091
G1 X159.439 Y145.463 E.00572
G1 X159.396 Y145.465 E.00174
;WIDTH:0.535663
G1 F7306.04
G1 X88.987 Y145.465 E2.82708
G1 X88.749 Y145.526 E.00987
;WIDTH:0.524356
G1 F7477.63
G1 X88.58 Y145.591 E.0071
;WIDTH:0.475405
G1 F8323.998
G1 X88.412 Y145.657 E.00636
;WIDTH:0.463528
G1 F8559.039
G1 X88.322 Y145.653 E.00309
G1 X88.138 Y145.549 E.00724
;WIDTH:0.441474
G1 F9032.653
G1 X88.042 Y145.403 E.00567
;WIDTH:0.463528
G1 F8559.039
G1 X88.065 Y146.174 E.02644
G1 X88.551 Y146.013 E.01755
;WIDTH:0.461771
G1 F8594.942
G1 X88.704 Y145.995 E.00526
;WIDTH:0.498717
G1 F7898.253
G1 X88.857 Y145.977 E.00572
;WIDTH:0.535663
G1 F7306.04
G1 X89.009 Y145.958 E.00615
G1 X159.396 Y145.958 E2.8262
G1 X159.671 Y145.979 E.01107
;WIDTH:0.492831
G1 F8001.583
G1 X159.946 Y146.001 E.01011
;WIDTH:0.449999
G1 F8843.491
G1 X160.615 Y146.001 E.02219
G1 X160.615 Y103.076 E1.4239
G1 X159.804 Y103.076 E.0269
;WIDTH:0.492831
G1 F8001.583
G1 X159.6 Y103.097 E.00752
;WIDTH:0.535663
G1 F7306.04
G1 X159.396 Y103.119 E.00824
G1 X159.396 Y103.119 F28800
G1 X160.105 Y103.586
;WIDTH:0.655694
G1 F5874.923
G1 X160.122 Y103.71 E.00625
;WIDTH:0.620774
G1 F6229.955
G1 X160.14 Y103.834 E.0059
;WIDTH:0.585853
G1 F6630.656
G1 X160.157 Y103.958 E.00554
;WIDTH:0.550932
G1 F7086.447
G1 X160.157 Y145.119 E1.70392
;WIDTH:0.585853
G1 F6630.656
G1 X160.14 Y145.243 E.00554
;WIDTH:0.620774
G1 F6229.955
G1 X160.122 Y145.367 E.0059
;WIDTH:0.655694
G1 F5874.923
G1 X160.105 Y145.491 E.00625
;WIPE_START
G1 F23040
G1 X160.122 Y145.367 E-.01858
G1 X160.14 Y145.243 E-.0186
G1 X160.157 Y145.119 E-.01858
G1 X160.157 Y132.021 E-1.94424
;WIPE_END
G1 Z1.6 F28800
G1 X88.042 Y145.403
G1 Z1.2
G1 E2 F1800
;WIDTH:0.417308
G1 F9615.692
G1 X88.041 Y145.371 E.00098
;WIDTH:0.423458
G1 F9460.292
G1 X88.045 Y103.713 E1.29177
;WIPE_START
G1 F23040
G1 X88.044 Y117.187 E-2
;WIPE_END
G1 Z1.6 F28800
G1 X88.438 Y107.738
G1 Z1.2
G1 E2 F1800
;TYPE:Internal infill
;WIDTH:0.45
G1 F8843.478
G1 X88.439 Y105.296 E.08101
G1 X93.046 Y104.061 E.15822
G1 X96.895 Y104.061 E.12768
G1 X88.432 Y135.646 E1.08469
G1 X88.432 Y139.013 E.11169
G1 X159.292 Y120.026 E2.43348
G1 X159.292 Y122.846 E.09354
G1 X153.352 Y145.015 E.76133
G1 X156.529 Y145.015 E.10539
G1 X115.575 Y104.061 E1.92124
G1 X113.753 Y104.061 E.06044
G1 X102.779 Y145.015 E1.40645
G1 X98.96 Y145.015 E.12668
G1 X88.433 Y134.488 E.49384
;WIPE_START
G1 F23040
G1 X97.96 Y144.016 E-2
;WIPE_END
G1 Z1.6 F28800
G1 X88.434 Y128.141
G1 Z1.2
G1 E2 F1800
G1 F8843.478
G1 X88.433 Y130.584 E.08104
G1 X159.292 Y111.597 E2.43344
G1 X159.292 Y113.237 E.0544
G1 X150.117 Y104.061 E.43044
G1 X147.468 Y104.061 E.08787
G1 X136.494 Y145.015 E1.40645
G1 X133.501 Y145.015 E.09928
G1 X92.547 Y104.061 E1.92124
;WIPE_START
G1 F23040
G1 X102.074 Y113.588 E-2
;WIPE_END
G1 Z1.6 F28800
G1 X119.739 Y104.061
G1 Z1.2
G1 E2 F1800
G1 F8843.478
G1 X122.182 Y104.061 E.08104
G1 X111.208 Y145.015 E1.40645
G1 X110.474 Y145.015 E.02435
G1 X88.435 Y122.977 E1.03387
G1 X88.435 Y122.154 E.0273
G1 X155.96 Y104.061 E2.31894
G1 X155.897 Y104.061 E.00209
G1 X144.923 Y145.015 E1.40645
G1 X145.015 Y145.015 E.00305
G1 X104.061 Y104.061 E1.92124
G1 X105.324 Y104.061 E.0419
G1 X94.35 Y145.015 E1.40645
G1 X97.487 Y145.015 E.10406
G1 X159.292 Y128.455 E2.1225
G1 X159.292 Y124.751 E.12287
G1 X138.603 Y104.061 E.97059
G1 X139.039 Y104.061 E.01446
G1 X128.066 Y145.015 E1.40644
G1 X128.943 Y145.015 E.02909
G1 X159.292 Y136.883 E1.04225
G1 X159.292 Y136.264 E.02053
G1 X127.089 Y104.061 E1.51071
G1 X124.503 Y104.061 E.08578
G1 X88.437 Y113.725 E1.23858
G1 X88.438 Y111.465 E.07497
G1 X121.988 Y145.015 E1.5739
G1 X119.637 Y145.015 E.07799
G1 X130.611 Y104.061 E1.40645
G1 X133.053 Y104.061 E.08101
;LAYER_CHANGE
;Z:1.4
;HEIGHT:0.2
G92 E0
M971 S11 C10 O0
;WIPE_START
G1 F23040
G1 X130.611 Y104.061 E-.36248
G1 X127.756 Y114.717 E-1.63752
;WIPE_END
G1 Z1.4 F28800
"G92 E0"
G1 Z1.8
G1 X161.6 Y146.006
G1 Z1.4
G1 E2 F1800
;TYPE:Perimeter
;WIDTH:0.449999
G1 F8843.491
G1 X88.671 Y146.006 E2.41919
G1 X88.232 Y146.219 E.01619
G1 X87.946 Y146.58 E.01528
G1 X87.61 Y146.626 E.01125
G1 X87.61 Y102.458 E1.46513
G1 X87.949 Y102.502 E.01134
G1 X88.233 Y102.859 E.01513
G1 X88.671 Y103.07 E.01613
G1 X161.6 Y103.07 E2.41919
G1 X161.6 Y124.538 E.71213
G1 X161.6 Y145.946 E.71014
G1 X161.6 Y145.946 F28800
G1 X161.982 Y146.388
;TYPE:External perimeter
;WIDTH:0.399999
G1 F10081.802
G1 X88.671 Y146.388 E2.13316
G1 X88.531 Y146.456 E.00453
G1 X88.15 Y146.938 E.01788
G1 X87.228 Y147.064 E.02708
G1 X87.228 Y102.023 E1.31058
G1 X88.151 Y102.143 E.02708
G1 X88.532 Y102.621 E.01779
G1 X88.671 Y102.688 E.00449
G1 X161.982 Y102.688 E2.13316
G1 X161.982 Y124.538 E.63578
G1 X161.982 Y146.328 E.63403
;WIPE_START
G1 F23040
G1 X161.982 Y146.388 E-.00891
G1 X148.568 Y146.388 E-1.99109
;WIPE_END
G1 Z1.8 F28800
G1 X158.432 Y131.127
G1 Z1.4
G1 E2 F1800
;TYPE:Internal infill
;WIDTH:0.45
G1 F8843.478
G1 X158.432 Y128.685 E.08101
G1 X98.606 Y144.715 E2.05454
G1 X98.66 Y144.715 E.00179
G1 X88.287 Y134.343 E.4866
G1 X88.287 Y130.623 E.1234
G1 X158.432 Y111.827 E2.40893
G1 X158.432 Y112.377 E.01824
G1 X150.417 Y104.361 E.37602
G1 X147.388 Y104.361 E.10048
G1 X136.575 Y144.715 E1.38584
G1 X133.201 Y144.715 E.11192
G1 X92.847 Y104.361 E1.89309
G1 X91.927 Y104.361 E.03052
G1 X88.287 Y105.336 E.125
G1 X88.287 Y104.731 E.02007
G1 X88.458 Y104.093 E.02191
G1 X88.688 Y104.264 E.00951
G1 X89.053 Y104.357 E.01249
G1 X90.668 Y104.361 E.05357
;WIPE_START
G1 F23040
G1 X89.053 Y104.357 E-.23973
G1 X88.688 Y104.264 E-.05591
G1 X88.458 Y104.093 E-.04254
G1 X88.287 Y104.731 E-.09805
G1 X88.287 Y105.336 E-.0898
G1 X91.927 Y104.361 E-.55936
G1 X92.847 Y104.361 E-.13656
G1 X96.553 Y108.067 E-.77805
;WIPE_END
G1 Z1.8 F28800
G1 X88.013 Y103.546
G1 Z1.4
G1 E2 F1800
;TYPE:Solid infill
;WIDTH:0.421157
G1 F9517.842
G1 X88.256 Y103.472 E.00783
;WIDTH:0.38365
G1 F10565.551
G1 X88.453 Y103.537 E.00576
;WIDTH:0.420968
G1 F9522.619
G1 X88.554 Y103.61 E.00384
;WIDTH:0.458856
G1 F8655.188
G1 X88.656 Y103.683 E.00425
;WIDTH:0.496744
G1 F7932.595
G1 X88.758 Y103.757 E.00466
;WIDTH:0.534632
G1 F7321.359
G1 X88.859 Y103.83 E.00499
G1 X89.139 Y103.91 E.01167
;WIDTH:0.535663
G1 F7306.04
G1 X158.536 Y103.911 E2.78645
G1 X158.673 Y104.031 E.00731
;WIDTH:0.492831
G1 F8001.583
G1 X158.81 Y104.152 E.0067
;WIDTH:0.449999
G1 F8843.491
G1 X158.84 Y104.258 E.00365
G1 X158.84 Y144.819 E1.34548
G1 X158.78 Y144.963 E.00517
;WIDTH:0.494698
G1 F7968.516
G1 X158.679 Y145.063 E.00523
;WIDTH:0.539397
G1 F7251.091
G1 X158.579 Y145.163 E.00572
G1 X158.536 Y145.165 E.00174
;WIDTH:0.535663
G1 F7306.04
G1 X89.127 Y145.165 E2.78693
G1 X88.893 Y145.231 E.00976
G1 X88.783 Y145.308 E.00539
;WIDTH:0.497278
G1 F7923.276
G1 X88.673 Y145.386 E.00499
;WIDTH:0.458892
G1 F8654.429
G1 X88.564 Y145.464 E.00454
;WIDTH:0.420507
G1 F9534.239
G1 X88.454 Y145.541 E.00413
;WIDTH:0.382378
G1 F10605.141
G1 X88.257 Y145.606 E.00574
;WIDTH:0.421297
G1 F9514.321
G1 X88.021 Y145.544 E.00752
G1 X87.899 Y145.398 E.00587
;WIDTH:0.423932
G1 F9448.521
G1 X87.903 Y145.908 E.01583
G1 X87.925 Y146.099 E.00597
G1 X88.176 Y145.944 E.00916
G1 X88.362 Y145.879 E.00612
;WIDTH:0.379398
G1 F10699.081
G1 X88.547 Y145.814 E.00538
;WIDTH:0.376951
G1 F10777.453
G1 X88.596 Y145.774 E.00172
;WIDTH:0.419039
G1 F9571.455
G1 X88.646 Y145.735 E.00194
;WIDTH:0.461126
G1 F8608.197
G1 X88.695 Y145.695 E.00216
;WIDTH:0.498395
G1 F7903.846
G1 X88.922 Y145.677 E.00845
;WIDTH:0.535663
G1 F7306.04
G1 X89.149 Y145.658 E.00915
G1 X158.536 Y145.658 E2.78605
G1 X158.811 Y145.679 E.01107
;WIDTH:0.492831
G1 F8001.583
G1 X159.086 Y145.701 E.01011
;WIDTH:0.449999
G1 F8843.491
G1 X159.755 Y145.701 E.02219
G1 X159.755 Y103.376 E1.404
G1 X158.944 Y103.376 E.0269
;WIDTH:0.492831
G1 F8001.583
G1 X158.74 Y103.397 E.00752
;WIDTH:0.535663
G1 F7306.04
G1 X158.536 Y103.419 E.00824
G1 X89.139 Y103.418 E2.78645
;WIDTH:0.534632
G1 F7321.359
G1 X88.917 Y103.4 E.00892
;WIDTH:0.49803
G1 F7910.176
G1 X88.695 Y103.381 E.00826
;WIDTH:0.461428
G1 F8601.987
G1 X88.63 Y103.334 E.00274
;WIDTH:0.418812
G1 F9577.228
G1 X88.566 Y103.287 E.00243
;WIDTH:0.376196
G1 F10801.879
G1 X88.501 Y103.24 E.00218
;WIDTH:0.378893
G1 F10715.146
G1 X88.278 Y103.158 E.0065
;WIDTH:0.424207
G1 F9441.706
G1 X88.055 Y103.076 E.00738
G1 X87.903 Y102.918 E.00681
G1 X87.901 Y103.45 E.01653
;WIDTH:0.421157
G1 F9517.842
G1 X87.898 Y103.713 E.00811
;WIDTH:0.414124
G1 F9698.171
G1 X87.898 Y145.365 E1.25991
;WIDTH:0.416934
G1 F9625.308
G1 X87.899 Y145.398 E.00101
;WIPE_START
G1 F23040
G1 X87.898 Y145.365 E-.0049
G1 X87.898 Y131.924 E-1.9951
;WIPE_END
G1 Z1.8 F28800
G1 X159.245 Y145.191
G1 Z1.4
G1 E2 F1800
;WIDTH:0.655694
G1 F5874.923
G1 X159.262 Y145.067 E.00625
;WIDTH:0.620774
G1 F6229.955
G1 X159.28 Y144.943 E.0059
;WIDTH:0.585853
G1 F6630.656
G1 X159.297 Y144.819 E.00554
;WIDTH:0.550932
G1 F7086.447
G1 X159.297 Y104.258 E1.67909
;WIDTH:0.585853
G1 F6630.656
G1 X159.28 Y104.134 E.00554
;WIDTH:0.620774
G1 F6229.955
G1 X159.262 Y104.01 E.0059
;WIDTH:0.655694
G1 F5874.923
G1 X159.245 Y103.886 E.00625
;WIPE_START
G1 F23040
G1 X159.262 Y104.01 E-.01858
G1 X159.28 Y104.134 E-.0186
G1 X159.297 Y104.258 E-.01858
G1 X159.297 Y117.356 E-1.94424
;WIPE_END
G1 Z1.8 F28800
G1 X161.48 Y103.918
G1 Z1.4
G1 E2 F1800
;TYPE:Top solid infill
;WIDTH:0.402747
G1 F10004.807
G1 X160.913 Y103.351 E.02351
G1 X160.404 Y103.351 E.01492
G1 X161.319 Y104.266 E.03794
G1 X161.319 Y104.775 E.01492
G1 X160.137 Y103.592 E.04903
G1 X160.137 Y104.101 E.01492
G1 X161.319 Y105.284 E.04903
G1 X161.319 Y105.792 E.0149
G1 X160.137 Y104.61 E.04901
G1 X160.137 Y105.119 E.01492
G1 X161.319 Y106.301 E.04901
G1 X161.319 Y106.81 E.01492
G1 X160.137 Y105.628 E.04901
G1 X160.137 Y106.136 E.0149
G1 X161.319 Y107.319 E.04903
G1 X161.319 Y107.828 E.01492
G1 X160.137 Y106.645 E.04903
G1 X160.137 Y107.154 E.01492
G1 X161.319 Y108.337 E.04903
G1 X161.319 Y108.846 E.01492
G1 X160.137 Y107.663 E.04903
G1 X160.137 Y108.172 E.01492
G1 X161.319 Y109.355 E.04903
G1 X161.319 Y109.863 E.0149
G1 X160.137 Y108.681 E.04901
G1 X160.137 Y109.19 E.01492
G1 X161.319 Y110.372 E.04901
G1 X161.319 Y110.881 E.01492
G1 X160.137 Y109.699 E.04901
G1 X160.137 Y110.207 E.0149
G1 X161.319 Y111.39 E.04903
G1 X161.319 Y111.899 E.01492
G1 X160.137 Y110.716 E.04903
G1 X160.137 Y111.225 E.01492
G1 X161.319 Y112.408 E.04903
G1 X161.319 Y112.917 E.01492
G1 X160.137 Y111.734 E.04903
G1 X160.137 Y112.243 E.01492
G1 X161.319 Y113.426 E.04903
G1 X161.319 Y113.934 E.0149
G1 X160.137 Y112.752 E.04901
G1 X160.137 Y113.261 E.01492
G1 X161.319 Y114.443 E.04901
G1 X161.319 Y114.952 E.01492
G1 X160.137 Y113.77 E.04901
G1 X160.137 Y114.278 E.0149
G1 X161.319 Y115.461 E.04903
G1 X161.319 Y115.97 E.01492
G1 X160.137 Y114.787 E.04903
G1 X160.137 Y115.296 E.01492
G1 X161.319 Y116.479 E.04903
G1 X161.319 Y116.988 E.01492
G1 X160.137 Y115.805 E.04903
G1 X160.137 Y116.314 E.01492
G1 X161.319 Y117.497 E.04903
G1 X161.319 Y118.005 E.0149
G1 X160.137 Y116.823 E.04901
G1 X160.137 Y117.332 E.01492
G1 X161.319 Y118.514 E.04901
G1 X161.319 Y119.023 E.01492
G1 X160.137 Y117.841 E.04901
G1 X160.137 Y118.349 E.0149
G1 X161.319 Y119.532 E.04903
G1 X161.319 Y120.041 E.01492
G1 X160.137 Y118.858 E.04903
G1 X160.137 Y119.367 E.01492
G1 X161.319 Y120.55 E.04903
G1 X161.319 Y121.059 E.01492
G1 X160.137 Y119.876 E.04903
G1 X160.137 Y120.385 E.01492
G1 X161.319 Y121.567 E.04901
G1 X161.319 Y122.076 E.01492
G1 X160.137 Y120.894 E.04901
G1 X160.137 Y121.403 E.01492
G1 X161.319 Y122.585 E.04901
G1 X161.319 Y123.094 E.01492
G1 X160.137 Y121.912 E.04901
G1 X160.137 Y122.42 E.0149
G1 X161.319 Y123.603 E.04903
G1 X161.319 Y124.112 E.01492
G1 X160.137 Y122.929 E.04903
G1 X160.137 Y123.438 E.01492
G1 X161.319 Y124.621 E.04903
G1 X161.319 Y125.13 E.01492
G1 X160.137 Y123.947 E.04903
G1 X160.137 Y124.456 E.01492
G1 X161.319 Y125.638 E.04901
G1 X161.319 Y126.147 E.01492
G1 X160.137 Y124.965 E.04901
G1 X160.137 Y125.474 E.01492
G1 X161.319 Y126.656 E.04901
G1 X161.319 Y127.165 E.01492
G1 X160.137 Y125.983 E.04901
G1 X160.137 Y126.491 E.0149
G1 X161.319 Y127.674 E.04903
G1 X161.319 Y128.183 E.01492
G1 X160.137 Y127 E.04903
G1 X160.137 Y127.509 E.01492
G1 X161.319 Y128.692 E.04903
G1 X161.319 Y129.201 E.01492
G1 X160.137 Y128.018 E.04903
G1 X160.137 Y128.527 E.01492
G1 X161.319 Y129.709 E.04901
G1 X161.319 Y130.218 E.01492
G1 X160.137 Y129.036 E.04901
G1 X160.137 Y129.545 E.01492
G1 X161.319 Y130.727 E.04901
G1 X161.319 Y131.236 E.01492
G1 X160.137 Y130.053 E.04903
G1 X160.137 Y130.562 E.01492
G1 X161.319 Y131.745 E.04903
G1 X161.319 Y132.254 E.01492
G1 X160.137 Y131.071 E.04903
G1 X160.137 Y131.58 E.01492
G1 X161.319 Y132.763 E.04903
G1 X161.319 Y133.272 E.01492
G1 X160.137 Y132.089 E.04903
G1 X160.137 Y132.598 E.01492
G1 X161.319 Y133.78 E.04901
G1 X161.319 Y134.289 E.01492
G1 X160.137 Y133.107 E.04901
G1 X160.137 Y133.616 E.01492
G1 X161.319 Y134.798 E.04901
G1 X161.319 Y135.307 E.01492
G1 X160.137 Y134.124 E.04903
G1 X160.137 Y134.633 E.01492
G1 X161.319 Y135.816 E.04903
G1 X161.319 Y136.325 E.01492
G1 X160.137 Y135.142 E.04903
G1 X160.137 Y135.651 E.01492
G1 X161.319 Y136.834 E.04903
G1 X161.319 Y137.343 E.01492
G1 X160.137 Y136.16 E.04903
G1 X160.137 Y136.669 E.01492
G1 X161.319 Y137.851 E.04901
G1 X161.319 Y138.36 E.01492
G1 X160.137 Y137.178 E.04901
G1 X160.137 Y137.687 E.01492
G1 X161.319 Y138.869 E.04901
G1 X161.319 Y139.378 E.01492
G1 X160.137 Y138.195 E.04903
G1 X160.137 Y138.704 E.01492
G1 X161.319 Y139.887 E.04903
G1 X161.319 Y140.396 E.01492
G1 X160.137 Y139.213 E.04903
G1 X160.137 Y139.722 E.01492
G1 X161.319 Y140.905 E.04903
G1 X161.319 Y141.414 E.01492
G1 X160.137 Y140.231 E.04903
G1 X160.137 Y140.74 E.01492
G1 X161.319 Y141.922 E.04901
G1 X161.319 Y142.431 E.01492
G1 X160.137 Y141.249 E.04901
G1 X160.137 Y141.758 E.01492
G1 X161.319 Y142.94 E.04901
G1 X161.319 Y143.449 E.01492
G1 X160.137 Y142.266 E.04903
G1 X160.137 Y142.775 E.01492
G1 X161.319 Y143.958 E.04903
G1 X161.319 Y144.467 E.01492
G1 X160.137 Y143.284 E.04903
G1 X160.137 Y143.793 E.01492
G1 X161.319 Y144.976 E.04903
G1 X161.319 Y145.484 E.0149
G1 X160.137 Y144.302 E.04901
G1 X160.137 Y144.811 E.01492
G1 X161.052 Y145.726 E.03794
G1 X160.543 Y145.726 E.01492
G1 X159.976 Y145.159 E.02351
;WIPE_START
G1 F23040
G1 X160.543 Y145.726 E-.11903
G1 X161.052 Y145.726 E-.07555
G1 X160.137 Y144.811 E-.19208
G1 X160.137 Y144.302 E-.07555
G1 X161.319 Y145.484 E-.24813
G1 X161.319 Y144.976 E-.07541
G1 X160.137 Y143.793 E-.24823
G1 X160.137 Y143.284 E-.07555
G1 X161.319 Y144.467 E-.24823
G1 X161.319 Y143.958 E-.07555
G1 X160.137 Y142.775 E-.24823
G1 X160.137 Y142.266 E-.07555
G1 X161.294 Y143.424 E-.24291
;WIPE_END
G1 Z1.8 F28800
G1 X158.432 Y117.814
G1 Z1.4
G1 E2 F1800
;TYPE:Internal infill
;WIDTH:0.45
G1 F8843.478
G1 X158.432 Y120.256 E.08101
G1 X88.287 Y139.052 E2.40893
G1 X88.287 Y136.188 E.095
G1 X96.815 Y104.361 E1.093
G1 X99.257 Y104.361 E.08101
;WIPE_START
G1 F23040
G1 X96.815 Y104.361 E-.36248
G1 X93.96 Y115.017 E-1.63752
;WIPE_END
G1 Z1.8 F28800
G1 X105.302 Y144.715
G1 Z1.4
G1 E2 F1800
G1 F8843.478
G1 X102.86 Y144.715 E.08101
G1 X113.673 Y104.361 E1.38584
G1 X115.875 Y104.361 E.07304
G1 X156.229 Y144.715 E1.89309
G1 X153.432 Y144.715 E.09278
G1 X158.432 Y126.055 E.64082
G1 X158.432 Y123.891 E.07178
G1 X138.903 Y104.361 E.91617
G1 X138.959 Y104.361 E.00186
G1 X128.146 Y144.715 E1.38584
G1 X130.063 Y144.715 E.06359
G1 X158.432 Y137.114 E.97424
G1 X158.432 Y135.405 E.05669
G1 X127.389 Y104.361 E1.45631
G1 X130.53 Y104.361 E.10419
G1 X119.717 Y144.715 E1.38584
G1 X121.688 Y144.715 E.06538
G1 X88.287 Y111.315 E1.56689
G1 X88.287 Y113.765 E.08127
G1 X123.383 Y104.361 E1.20527
G1 X125.826 Y104.361 E.08104
;WIPE_START
G1 F23040
G1 X123.383 Y104.361 E-.36263
G1 X112.728 Y107.216 E-1.63737
;WIPE_END
G1 Z1.8 F28800
G1 X119.659 Y104.361
G1 Z1.4
G1 E2 F1800
G1 F8843.478
G1 X122.101 Y104.361 E.08101
G1 X111.288 Y144.715 E1.38584
G1 X110.174 Y144.715 E.03695
G1 X88.287 Y122.829 E1.02674
G1 X88.287 Y122.194 E.02106
G1 X154.84 Y104.361 E2.28557
G1 X155.817 Y104.361 E.03241
G1 X145.004 Y144.715 E1.38584
G1 X144.715 Y144.715 E.00959
G1 X104.361 Y104.361 E1.89309
G1 X105.244 Y104.361 E.02929
G1 X94.431 Y144.715 E1.38584
G1 X91.988 Y144.715 E.08104
;LAYER_CHANGE
;Z:1.6
;HEIGHT:0.2
G92 E0
M971 S11 C10 O0
;WIPE_START
G1 F23040
G1 X94.431 Y144.715 E-.36263
G1 X97.286 Y134.06 E-1.63737
;WIPE_END
G1 Z1.6 F28800
"G92 E0"
G1 Z2
G1 X160.74 Y145.706
G1 Z1.6
G1 E2 F1800
;TYPE:Perimeter
;WIDTH:0.449999
G1 F8843.491
G1 X88.811 Y145.706 E2.38601
G1 X88.601 Y145.747 E.0071
G1 X88.372 Y145.919 E.0095
G1 X87.803 Y146.638 E.03042
G1 X87.468 Y146.684 E.01122
G1 X87.468 Y102.403 E1.46888
G1 X87.806 Y102.447 E.01131
G1 X88.373 Y103.159 E.03019
G1 X88.602 Y103.33 E.00948
G1 X88.811 Y103.37 E.00706
G1 X160.74 Y103.37 E2.38601
G1 X160.74 Y124.538 E.70218
G1 X160.74 Y145.646 E.70019
G1 X160.74 Y145.646 F28800
G1 X161.122 Y146.088
;TYPE:External perimeter
;WIDTH:0.399999
G1 F10081.802
G1 X88.811 Y146.088 E2.10406
G1 X88.671 Y146.156 E.00453
G1 X88.008 Y146.995 E.03112
G1 X87.086 Y147.121 E.02708
G1 X87.086 Y101.968 E1.31384
G1 X88.008 Y102.088 E.02705
G1 X88.672 Y102.921 E.031
G1 X88.811 Y102.988 E.00449
G1 X161.122 Y102.988 E2.10406
G1 X161.122 Y124.538 E.62705
G1 X161.122 Y146.028 E.6253
;WIPE_START
G1 F23040
G1 X161.122 Y146.088 E-.00891
G1 X147.708 Y146.088 E-1.99109
;WIPE_END
G1 Z2 F28800
G1 X160.62 Y144.861
G1 Z1.6
G1 E2 F1800
;TYPE:Top solid infill
;WIDTH:0.401998
G1 F10025.677
G1 X160.055 Y145.426 E.02338
G1 X159.547 Y145.426 E.01486
G1 X160.459 Y144.513 E.03776
G1 X160.459 Y144.006 E.01483
G1 X159.277 Y145.188 E.04891
G1 X159.277 Y144.68 E.01486
G1 X160.459 Y143.498 E.04891
G1 X160.459 Y142.99 E.01486
G1 X159.277 Y144.173 E.04893
G1 X159.277 Y143.665 E.01486
G1 X160.459 Y142.482 E.04893
G1 X160.459 Y141.974 E.01486
G1 X159.277 Y143.157 E.04893
G1 X159.277 Y142.649 E.01486
G1 X160.459 Y141.467 E.04891
G1 X160.459 Y140.959 E.01486
G1 X159.277 Y142.141 E.04891
G1 X159.277 Y141.633 E.01486
G1 X160.459 Y140.451 E.04891
G1 X160.459 Y139.943 E.01486
G1 X159.277 Y141.126 E.04893
G1 X159.277 Y140.618 E.01486
G1 X160.459 Y139.435 E.04893
G1 X160.459 Y138.927 E.01486
G1 X159.277 Y140.11 E.04893
G1 X159.277 Y139.602 E.01486
G1 X160.459 Y138.42 E.04891
G1 X160.459 Y137.912 E.01486
G1 X159.277 Y139.094 E.04891
G1 X159.277 Y138.587 E.01483
G1 X160.459 Y137.404 E.04893
G1 X160.459 Y136.896 E.01486
G1 X159.277 Y138.079 E.04893
G1 X159.277 Y137.571 E.01486
G1 X160.459 Y136.388 E.04893
G1 X160.459 Y135.881 E.01483
G1 X159.277 Y137.063 E.04891
G1 X159.277 Y136.555 E.01486
G1 X160.459 Y135.373 E.04891
G1 X160.459 Y134.865 E.01486
G1 X159.277 Y136.048 E.04893
G1 X159.277 Y135.54 E.01486
G1 X160.459 Y134.357 E.04893
G1 X160.459 Y133.849 E.01486
G1 X159.277 Y135.032 E.04893
G1 X159.277 Y134.524 E.01486
G1 X160.459 Y133.341 E.04893
G1 X160.459 Y132.834 E.01483
G1 X159.277 Y134.016 E.04891
G1 X159.277 Y133.508 E.01486
G1 X160.459 Y132.326 E.04891
G1 X160.459 Y131.818 E.01486
G1 X159.277 Y133.001 E.04893
G1 X159.277 Y132.493 E.01486
G1 X160.459 Y131.31 E.04893
G1 X160.459 Y130.802 E.01486
G1 X159.277 Y131.985 E.04893
G1 X159.277 Y131.477 E.01486
G1 X160.459 Y130.295 E.04891
G1 X160.459 Y129.787 E.01486
G1 X159.277 Y130.969 E.04891
G1 X159.277 Y130.462 E.01483
G1 X160.459 Y129.279 E.04893
G1 X160.459 Y128.771 E.01486
G1 X159.277 Y129.954 E.04893
G1 X159.277 Y129.446 E.01486
G1 X160.459 Y128.263 E.04893
G1 X160.459 Y127.756 E.01483
G1 X159.277 Y128.938 E.04891
G1 X159.277 Y128.43 E.01486
G1 X160.459 Y127.248 E.04891
G1 X160.459 Y126.74 E.01486
G1 X159.277 Y127.922 E.04891
G1 X159.277 Y127.415 E.01483
G1 X160.459 Y126.232 E.04893
G1 X160.459 Y125.724 E.01486
G1 X159.277 Y126.907 E.04893
G1 X159.277 Y126.399 E.01486
G1 X160.459 Y125.216 E.04893
G1 X160.459 Y124.709 E.01483
G1 X159.277 Y125.891 E.04891
G1 X159.277 Y125.383 E.01486
G1 X160.459 Y124.201 E.04891
G1 X160.459 Y123.693 E.01486
G1 X159.277 Y124.876 E.04893
G1 X159.277 Y124.368 E.01486
G1 X160.459 Y123.185 E.04893
G1 X160.459 Y122.677 E.01486
G1 X159.277 Y123.86 E.04893
G1 X159.277 Y123.352 E.01486
G1 X160.459 Y122.17 E.04891
G1 X160.459 Y121.662 E.01486
G1 X159.277 Y122.844 E.04891
G1 X159.277 Y122.337 E.01483
G1 X160.459 Y121.154 E.04893
G1 X160.459 Y120.646 E.01486
G1 X159.277 Y121.829 E.04893
G1 X159.277 Y121.321 E.01486
G1 X160.459 Y120.138 E.04893
G1 X160.459 Y119.631 E.01483
G1 X159.277 Y120.813 E.04891
G1 X159.277 Y120.305 E.01486
G1 X160.459 Y119.123 E.04891
G1 X160.459 Y118.615 E.01486
G1 X159.277 Y119.797 E.04891
G1 X159.277 Y119.29 E.01483
G1 X160.459 Y118.107 E.04893
G1 X160.459 Y117.599 E.01486
G1 X159.277 Y118.782 E.04893
G1 X159.277 Y118.274 E.01486
G1 X160.459 Y117.091 E.04893
G1 X160.459 Y116.584 E.01483
G1 X159.277 Y117.766 E.04891
G1 X159.277 Y117.258 E.01486
G1 X160.459 Y116.076 E.04891
G1 X160.459 Y115.568 E.01486
G1 X159.277 Y116.751 E.04893
G1 X159.277 Y116.243 E.01486
G1 X160.459 Y115.06 E.04893
G1 X160.459 Y114.552 E.01486
G1 X159.277 Y115.735 E.04893
G1 X159.277 Y115.227 E.01486
G1 X160.459 Y114.045 E.04891
G1 X160.459 Y113.537 E.01486
G1 X159.277 Y114.719 E.04891
G1 X159.277 Y114.212 E.01483
G1 X160.459 Y113.029 E.04893
G1 X160.459 Y112.521 E.01486
G1 X159.277 Y113.704 E.04893
G1 X159.277 Y113.196 E.01486
G1 X160.459 Y112.013 E.04893
G1 X160.459 Y111.506 E.01483
G1 X159.277 Y112.688 E.04891
G1 X159.277 Y112.18 E.01486
G1 X160.459 Y110.998 E.04891
G1 X160.459 Y110.49 E.01486
G1 X159.277 Y111.672 E.04891
G1 X159.277 Y111.165 E.01483
G1 X160.459 Y109.982 E.04893
G1 X160.459 Y109.474 E.01486
G1 X159.277 Y110.657 E.04893
G1 X159.277 Y110.149 E.01486
G1 X160.459 Y108.966 E.04893
G1 X160.459 Y108.459 E.01483
G1 X159.277 Y109.641 E.04891
G1 X159.277 Y109.133 E.01486
G1 X160.459 Y107.951 E.04891
G1 X160.459 Y107.443 E.01486
G1 X159.277 Y108.626 E.04893
G1 X159.277 Y108.118 E.01486
G1 X160.459 Y106.935 E.04893
G1 X160.459 Y106.427 E.01486
G1 X159.277 Y107.61 E.04893
G1 X159.277 Y107.102 E.01486
G1 X160.459 Y105.92 E.04891
G1 X160.459 Y105.412 E.01486
G1 X159.277 Y106.594 E.04891
G1 X159.277 Y106.087 E.01483
G1 X160.459 Y104.904 E.04893
G1 X160.459 Y104.396 E.01486
G1 X159.277 Y105.579 E.04893
G1 X159.277 Y105.071 E.01486
G1 X160.459 Y103.888 E.04893
G1 X160.459 Y103.651 E.00693
G1 X160.189 Y103.651 E.0079
G1 X159.277 Y104.563 E.03774
G1 X159.277 Y104.055 E.01486
G1 X159.842 Y103.49 E.02338
;WIPE_START
G1 F23040
G1 X159.277 Y104.055 E-.11861
G1 X159.277 Y104.563 E-.07541
G1 X160.189 Y103.651 E-.19145
G1 X160.459 Y103.651 E-.04008
G1 X160.459 Y103.888 E-.03518
G1 X159.277 Y105.071 E-.24823
G1 X159.277 Y105.579 E-.07541
G1 X160.459 Y104.396 E-.24823
G1 X160.459 Y104.904 E-.07541
G1 X159.277 Y106.087 E-.24823
G1 X159.277 Y106.594 E-.07526
G1 X160.459 Y105.412 E-.24813
G1 X160.459 Y105.92 E-.07541
G1 X159.292 Y107.087 E-.24496
;WIPE_END
G1 Z2 F28800
G1 X99.177 Y104.661
G1 Z1.6
G1 E2 F1800
;TYPE:Internal infill
;WIDTH:0.45
G1 F8843.478
G1 X96.735 Y104.661 E.08101
G1 X88.144 Y136.721 E1.10101
G1 X88.144 Y139.09 E.07858
G1 X157.572 Y120.487 E2.3843
G1 X157.572 Y123.031 E.08439
G1 X139.203 Y104.661 E.86175
G1 X138.879 Y104.661 E.01075
G1 X128.226 Y144.415 E1.36524
G1 X131.182 Y144.415 E.09806
G1 X157.572 Y137.344 E.90628
G1 X157.572 Y134.545 E.09285
G1 X127.689 Y104.661 E1.4019
G1 X130.45 Y104.661 E.09159
G1 X119.798 Y144.415 E1.36523
G1 X121.388 Y144.415 E.05274
G1 X88.144 Y111.172 E1.55952
G1 X88.144 Y113.803 E.08728
G1 X122.264 Y104.661 E1.17175
G1 X122.021 Y104.661 E.00806
G1 X111.369 Y144.415 E1.36523
G1 X109.874 Y144.415 E.04959
G1 X88.144 Y122.686 E1.01938
G1 X88.144 Y122.232 E.01506
G1 X153.72 Y104.661 E2.25201
G1 X155.736 Y104.661 E.06687
G1 X145.084 Y144.415 E1.36523
G1 X144.415 Y144.415 E.02219
G1 X104.661 Y104.661 E1.86494
G1 X105.163 Y104.661 E.01665
G1 X94.511 Y144.415 E1.36523
G1 X92.069 Y144.415 E.08101
;WIPE_START
G1 F23040
G1 X94.511 Y144.415 E-.36248
G1 X97.366 Y133.759 E-1.63752
;WIPE_END
G1 Z2 F28800
G1 X105.383 Y144.415
G1 Z1.6
G1 E2 F1800
G1 F8843.478
G1 X102.94 Y144.415 E.08104
G1 X113.592 Y104.661 E1.36523
G1 X116.175 Y104.661 E.08568
G1 X155.929 Y144.415 E1.86494
G1 X153.513 Y144.415 E.08014
G1 X157.572 Y129.265 E.52028
G1 X157.572 Y128.915 E.01161
G1 X99.726 Y144.415 E1.98655
G1 X98.36 Y144.415 E.04531
G1 X88.144 Y134.2 E.47923
G1 X88.144 Y130.661 E.1174
G1 X157.572 Y112.058 E2.3843
G1 X157.572 Y111.517 E.01795
G1 X150.717 Y104.661 E.32161
G1 X147.307 Y104.661 E.11312
G1 X136.655 Y144.415 E1.36523
G1 X132.901 Y144.415 E.12453
G1 X93.147 Y104.661 E1.86494
G1 X90.807 Y104.661 E.07762
G1 X88.144 Y105.375 E.09146
G1 X88.423 Y104.223 E.03932
G1 X88.144 Y103.874 E.01482
G1 X88.144 Y105.061 E.03937
;WIPE_START
G1 F23040
G1 X88.144 Y103.874 E-.1762
G1 X88.423 Y104.223 E-.06632
G1 X88.144 Y105.375 E-.17594
G1 X90.807 Y104.661 E-.40925
G1 X93.147 Y104.661 E-.34734
G1 X97.077 Y108.591 E-.82495
;WIPE_END
G1 Z2 F28800
G1 X88.318 Y103.46
G1 Z1.6
G1 E2 F1800
;TYPE:Solid infill
;WIDTH:0.465617
G1 F8516.746
G1 X88.241 Y103.421 E.00297
;WIDTH:0.50663
G1 F7763.484
G1 X88.163 Y103.381 E.00331
;WIDTH:0.547642
G1 F7132.639
G1 X88.086 Y103.341 E.00357
;WIDTH:0.592173
G1 F6554.357
G1 X88.042 Y103.333 E.002
;WIDTH:0.636704
G1 F6062.811
G1 X87.998 Y103.325 E.00216
;WIDTH:0.681235
G1 F5639.849
G1 X87.955 Y103.317 E.00228
;WIDTH:0.725766
G1 F5272.052
G1 X87.911 Y103.308 E.0025
G1 X87.888 Y103.24 E.00399
;WIDTH:0.679857
G1 F5652.05
G1 X87.865 Y103.171 E.00377
;WIDTH:0.633948
G1 F6091.082
G1 X87.842 Y103.102 E.0035
;WIDTH:0.588039
G1 F6604.063
G1 X87.819 Y103.034 E.00319
G1 X87.842 Y103.102 E.00319
;WIDTH:0.633948
G1 F6091.082
G1 X87.865 Y103.171 E.0035
;WIDTH:0.679857
G1 F5652.05
G1 X87.888 Y103.24 E.00377
;WIDTH:0.725766
G1 F5272.052
G1 X87.911 Y103.308 E.00399
G1 X87.889 Y103.359 E.00309
;WIDTH:0.681245
G1 F5639.76
G1 X87.866 Y103.409 E.00286
;WIDTH:0.636725
G1 F6062.603
G1 X87.844 Y103.459 E.00264
;WIDTH:0.592204
G1 F6553.993
G1 X87.822 Y103.509 E.00245
;WIDTH:0.547683
G1 F7132.066
G1 X87.8 Y103.559 E.00225
;WIDTH:0.503162
G1 F7821.976
G1 X87.777 Y103.61 E.0021
;WIDTH:0.458641
G1 F8659.657
G1 X87.755 Y103.66 E.00185
;WIDTH:0.41412
G1 F9698.276
G1 X87.755 Y145.423 E1.26325
;WIDTH:0.460356
G1 F8624.09
G1 X87.778 Y145.478 E.00203
;WIDTH:0.506593
G1 F7764.098
G1 X87.801 Y145.532 E.00222
;WIDTH:0.55283
G1 F7060.07
G1 X87.824 Y145.587 E.00248
;WIDTH:0.599068
G1 F6473.105
G1 X87.847 Y145.641 E.00266
;WIDTH:0.645305
G1 F5976.247
G1 X87.871 Y145.696 E.00295
;WIDTH:0.691542
G1 F5550.228
G1 X87.894 Y145.75 E.0031
G1 X87.872 Y145.823 E.00403
;WIDTH:0.648375
G1 F5945.947
G1 X87.851 Y145.896 E.00375
;WIDTH:0.605207
G1 F6402.425
G1 X87.829 Y145.969 E.00349
;WIDTH:0.56204
G1 F6934.819
G1 X87.807 Y146.042 E.00323
G1 X87.829 Y145.969 E.00323
;WIDTH:0.605207
G1 F6402.425
G1 X87.851 Y145.896 E.00349
;WIDTH:0.648375
G1 F5945.947
G1 X87.872 Y145.823 E.00375
;WIDTH:0.691542
G1 F5550.228
G1 X87.894 Y145.75 E.00403
G1 X87.953 Y145.736 E.00321
;WIDTH:0.643508
G1 F5994.133
G1 X88.013 Y145.722 E.00302
;WIDTH:0.595473
G1 F6515.216
G1 X88.072 Y145.707 E.00274
;WIDTH:0.547438
G1 F7135.524
G1 X88.132 Y145.693 E.00253
;WIDTH:0.499404
G1 F7886.377
G1 X88.192 Y145.678 E.0023
;WIDTH:0.451369
G1 F8813.837
G1 X88.251 Y145.664 E.00202
;WIDTH:0.406626
G1 F9898.105
G1 X88.312 Y145.617 E.00228
;WIPE_START
G1 F23040
G1 X88.251 Y145.664 E-.01143
G1 X88.192 Y145.678 E-.009
G1 X88.132 Y145.693 E-.00918
G1 X88.072 Y145.707 E-.00915
G1 X88.013 Y145.722 E-.00904
G1 X87.953 Y145.736 E-.00915
G1 X87.894 Y145.75 E-.009
G1 X87.872 Y145.823 E-.01132
G1 X87.851 Y145.896 E-.01128
G1 X87.829 Y145.969 E-.01132
G1 X87.807 Y146.042 E-.01132
G1 X87.829 Y145.969 E-.01132
G1 X87.851 Y145.896 E-.01132
G1 X87.872 Y145.823 E-.01128
G1 X87.894 Y145.75 E-.01132
G1 X87.871 Y145.696 E-.00871
G1 X87.847 Y145.641 E-.00891
G1 X87.824 Y145.587 E-.00871
G1 X87.801 Y145.532 E-.00885
G1 X87.778 Y145.478 E-.00871
G1 X87.755 Y145.423 E-.00885
G1 X87.755 Y133.358 E-1.79083
;WIPE_END
G1 Z2 F28800
G1 X89.076 Y103.716
G1 Z1.6
G1 E2 F1800
;WIDTH:0.534633
G1 F7321.344
G1 X88.774 Y103.713 E.0121
G1 X88.523 Y103.651 E.01036
G1 X88.824 Y103.997 E.01838
G1 X89.086 Y104.171 E.0126
G1 X89.279 Y104.21 E.00789
;WIDTH:0.535663
G1 F7306.04
G1 X157.676 Y104.211 E2.7463
G1 X157.813 Y104.331 E.00731
;WIDTH:0.492831
G1 F8001.583
G1 X157.95 Y104.452 E.0067
;WIDTH:0.449999
G1 F8843.491
G1 X157.98 Y104.558 E.00365
G1 X157.98 Y144.519 E1.32558
G1 X157.92 Y144.663 E.00517
;WIDTH:0.494697
G1 F7968.533
G1 X157.819 Y144.763 E.00523
;WIDTH:0.539395
G1 F7251.12
G1 X157.719 Y144.863 E.00572
G1 X157.676 Y144.865 E.00174
;WIDTH:0.535663
G1 F7306.04
G1 X89.267 Y144.865 E2.74678
G1 X89.033 Y144.931 E.00976
G1 X88.812 Y145.095 E.01105
G1 X88.523 Y145.429 E.01773
G1 X88.938 Y145.358 E.01691
G1 X157.676 Y145.358 E2.75999
G1 X157.951 Y145.379 E.01107
;WIDTH:0.49283
G1 F8001.601
G1 X158.226 Y145.401 E.01011
;WIDTH:0.449999
G1 F8843.491
G1 X158.895 Y145.401 E.02219
G1 X158.895 Y103.676 E1.38409
G1 X158.084 Y103.676 E.0269
;WIDTH:0.492831
G1 F8001.583
G1 X157.88 Y103.697 E.00752
;WIDTH:0.535663
G1 F7306.04
G1 X157.676 Y103.719 E.00824
G1 X89.279 Y103.718 E2.7463
;WIPE_START
G1 F23040
G1 X102.753 Y103.718 E-2
;WIPE_END
G1 Z2 F28800
G1 X158.385 Y104.186
G1 Z1.6
G1 E2 F1800
;WIDTH:0.655692
G1 F5874.942
G1 X158.402 Y104.31 E.00625
;WIDTH:0.620772
G1 F6229.969
G1 X158.42 Y104.434 E.0059
;WIDTH:0.585852
G1 F6630.665
G1 X158.437 Y104.558 E.00554
;WIDTH:0.550934
G1 F7086.419
G1 X158.437 Y144.519 E1.65425
;WIDTH:0.585854
G1 F6630.64
G1 X158.42 Y144.643 E.00554
;WIDTH:0.620774
G1 F6229.948
G1 X158.402 Y144.767 E.0059
;WIDTH:0.655694
G1 F5874.923
G1 X158.385 Y144.891 E.00625
;LAYER_CHANGE
;Z:1.8
;HEIGHT:0.2
G92 E0
M971 S11 C10 O0
;WIPE_START
G1 F23040
G1 X158.402 Y144.767 E-.01858
G1 X158.42 Y144.643 E-.0186
G1 X158.437 Y144.519 E-.01858
G1 X158.437 Y131.421 E-1.94424
;WIPE_END
G1 Z1.8 F28800
"G92 E0"
G1 Z2.2
G1 X159.88 Y145.406
G1 Z1.8
G1 E2 F1800
;TYPE:Perimeter
;WIDTH:0.449999
G1 F8843.491
G1 X88.951 Y145.406 E2.35284
G1 X88.741 Y145.447 E.0071
G1 X88.512 Y145.619 E.0095
G1 X87.66 Y146.695 E.04553
G1 X87.325 Y146.741 E.01122
G1 X87.325 Y102.348 E1.4726
G1 X87.663 Y102.392 E.01131
G1 X88.513 Y103.459 E.04525
G1 X88.742 Y103.63 E.00948
G1 X88.951 Y103.67 E.00706
G1 X159.88 Y103.67 E2.35284
G1 X159.88 Y124.538 E.69223
G1 X159.88 Y145.346 E.69024
G1 X159.88 Y145.346 F28800
G1 X160.262 Y145.788
;TYPE:External perimeter
;WIDTH:0.399999
G1 F10081.802
G1 X88.951 Y145.788 E2.07497
G1 X88.811 Y145.856 E.00453
G1 X87.865 Y147.053 E.04439
G1 X86.943 Y147.179 E.02708
G1 X86.943 Y101.913 E1.31712
G1 X87.866 Y102.033 E.02708
G1 X88.812 Y103.221 E.04419
G1 X88.951 Y103.288 E.00449
G1 X160.262 Y103.288 E2.07497
G1 X160.262 Y124.538 E.61832
G1 X160.262 Y145.728 E.61657
;WIPE_START
G1 F23040
G1 X160.262 Y145.788 E-.00891
G1 X146.848 Y145.788 E-1.99109
;WIPE_END
G1 Z2.2 F28800
G1 X156.713 Y140.017
G1 Z1.8
G1 E2 F1800
;TYPE:Internal infill
;WIDTH:0.45
G1 F8843.478
G1 X156.713 Y137.575 E.08101
G1 X132.302 Y144.115 E.83831
G1 X132.601 Y144.115 E.00992
G1 X93.447 Y104.961 E1.83679
G1 X96.654 Y104.961 E.10638
G1 X88.001 Y137.254 E1.10901
G1 X88.001 Y139.128 E.06216
G1 X156.713 Y120.717 E2.35971
G1 X156.713 Y122.171 E.04823
G1 X139.503 Y104.961 E.80736
G1 X138.798 Y104.961 E.02339
G1 X128.307 Y144.115 E1.34462
G1 X125.864 Y144.115 E.08104
;WIPE_START
G1 F23040
G1 X128.307 Y144.115 E-.36263
G1 X131.162 Y133.46 E-1.63737
;WIPE_END
G1 Z2.2 F28800
G1 X139.178 Y144.115
G1 Z1.8
G1 E2 F1800
G1 F8843.478
G1 X136.736 Y144.115 E.08101
G1 X147.227 Y104.961 E1.34462
G1 X151.017 Y104.961 E.12572
G1 X156.713 Y110.657 E.26721
G1 X156.713 Y112.288 E.0541
G1 X88.001 Y130.699 E2.35971
G1 X88.001 Y134.057 E.11139
G1 X98.06 Y144.115 E.47186
G1 X100.845 Y144.115 E.09238
G1 X156.713 Y129.146 E1.91861
G1 X156.713 Y132.474 E.1104
G1 X153.593 Y144.115 E.39978
G1 X155.629 Y144.115 E.06754
G1 X116.475 Y104.961 E1.83679
G1 X113.512 Y104.961 E.09829
G1 X103.02 Y144.115 E1.34463
G1 X105.463 Y144.115 E.08104
;WIPE_START
G1 F23040
G1 X103.02 Y144.115 E-.36263
G1 X105.875 Y133.46 E-1.63737
;WIPE_END
G1 Z2.2 F28800
G1 X92.149 Y144.115
G1 Z1.8
G1 E2 F1800
G1 F8843.478
G1 X94.592 Y144.115 E.08104
G1 X105.083 Y104.961 E1.34462
G1 X104.961 Y104.961 E.00405
G1 X144.115 Y144.115 E1.83679
G1 X145.164 Y144.115 E.0348
G1 X155.656 Y104.961 E1.34463
G1 X152.601 Y104.961 E.10134
G1 X88.001 Y122.271 E2.2185
G1 X88.001 Y122.543 E.00902
G1 X109.574 Y144.115 E1.01201
G1 X111.449 Y144.115 E.0622
G1 X121.941 Y104.961 E1.34463
G1 X121.144 Y104.961 E.02644
G1 X88.001 Y113.842 E1.1382
G1 X88.001 Y111.029 E.09331
G1 X121.088 Y144.115 E1.55216
G1 X119.878 Y144.115 E.04014
G1 X130.369 Y104.961 E1.34462
G1 X127.989 Y104.961 E.07895
G1 X156.713 Y133.685 E1.3475
;WIPE_START
G1 F23040
G1 X147.186 Y124.158 E-2
;WIPE_END
G1 Z2.2 F28800
G1 X159.76 Y104.514
G1 Z1.8
G1 E2 F1800
;TYPE:Top solid infill
;WIDTH:0.401231
G1 F10047.137
G1 X159.196 Y103.951 E.02327
G1 X158.69 Y103.951 E.01477
G1 X159.599 Y104.86 E.03753
G1 X159.599 Y105.367 E.0148
G1 X158.417 Y104.185 E.04881
G1 X158.417 Y104.691 E.01477
G1 X159.599 Y105.874 E.04883
G1 X159.599 Y106.381 E.0148
G1 X158.417 Y105.198 E.04883
G1 X158.417 Y105.705 E.0148
G1 X159.599 Y106.887 E.04881
G1 X159.599 Y107.394 E.0148
G1 X158.417 Y106.212 E.04881
G1 X158.417 Y106.718 E.01477
G1 X159.599 Y107.901 E.04883
G1 X159.599 Y108.408 E.0148
G1 X158.417 Y107.225 E.04883
G1 X158.417 Y107.732 E.0148
G1 X159.599 Y108.914 E.04881
G1 X159.599 Y109.421 E.0148
G1 X158.417 Y108.238 E.04883
G1 X158.417 Y108.745 E.0148
G1 X159.599 Y109.928 E.04883
G1 X159.599 Y110.434 E.01477
G1 X158.417 Y109.252 E.04881
G1 X158.417 Y109.759 E.0148
G1 X159.599 Y110.941 E.04881
G1 X159.599 Y111.448 E.0148
G1 X158.417 Y110.265 E.04883
G1 X158.417 Y110.772 E.0148
G1 X159.599 Y111.955 E.04883
G1 X159.599 Y112.461 E.01477
G1 X158.417 Y111.279 E.04881
G1 X158.417 Y111.786 E.0148
G1 X159.599 Y112.968 E.04881
G1 X159.599 Y113.475 E.0148
G1 X158.417 Y112.292 E.04883
G1 X158.417 Y112.799 E.0148
G1 X159.599 Y113.982 E.04883
G1 X159.599 Y114.488 E.01477
G1 X158.417 Y113.306 E.04881
G1 X158.417 Y113.812 E.01477
G1 X159.599 Y114.995 E.04883
G1 X159.599 Y115.502 E.0148
G1 X158.417 Y114.319 E.04883
G1 X158.417 Y114.826 E.0148
G1 X159.599 Y116.008 E.04881
G1 X159.599 Y116.515 E.0148
G1 X158.417 Y115.333 E.04881
G1 X158.417 Y115.839 E.01477
G1 X159.599 Y117.022 E.04883
G1 X159.599 Y117.529 E.0148
G1 X158.417 Y116.346 E.04883
G1 X158.417 Y116.853 E.0148
G1 X159.599 Y118.035 E.04881
G1 X159.599 Y118.542 E.0148
G1 X158.417 Y117.36 E.04881
G1 X158.417 Y117.866 E.01477
G1 X159.599 Y119.049 E.04883
G1 X159.599 Y119.556 E.0148
G1 X158.417 Y118.373 E.04883
G1 X158.417 Y118.88 E.0148
G1 X159.599 Y120.062 E.04881
G1 X159.599 Y120.569 E.0148
G1 X158.417 Y119.386 E.04883
G1 X158.417 Y119.893 E.0148
G1 X159.599 Y121.076 E.04883
G1 X159.599 Y121.583 E.0148
G1 X158.417 Y120.4 E.04883
G1 X158.417 Y120.907 E.0148
G1 X159.599 Y122.089 E.04881
G1 X159.599 Y122.596 E.0148
G1 X158.417 Y121.413 E.04883
G1 X158.417 Y121.92 E.0148
G1 X159.599 Y123.103 E.04883
G1 X159.599 Y123.609 E.01477
G1 X158.417 Y122.427 E.04881
G1 X158.417 Y122.934 E.0148
G1 X159.599 Y124.116 E.04881
G1 X159.599 Y124.623 E.0148
G1 X158.417 Y123.44 E.04883
G1 X158.417 Y123.947 E.0148
G1 X159.599 Y125.13 E.04883
G1 X159.599 Y125.636 E.01477
G1 X158.417 Y124.454 E.04881
G1 X158.417 Y124.96 E.01477
G1 X159.599 Y126.143 E.04883
G1 X159.599 Y126.65 E.0148
G1 X158.417 Y125.467 E.04883
G1 X158.417 Y125.974 E.0148
G1 X159.599 Y127.157 E.04883
G1 X159.599 Y127.663 E.01477
G1 X158.417 Y126.481 E.04881
G1 X158.417 Y126.987 E.01477
G1 X159.599 Y128.17 E.04883
G1 X159.599 Y128.677 E.0148
G1 X158.417 Y127.494 E.04883
G1 X158.417 Y128.001 E.0148
G1 X159.599 Y129.183 E.04881
G1 X159.599 Y129.69 E.0148
G1 X158.417 Y128.508 E.04881
G1 X158.417 Y129.014 E.01477
G1 X159.599 Y130.197 E.04883
G1 X159.599 Y130.704 E.0148
G1 X158.417 Y129.521 E.04883
G1 X158.417 Y130.028 E.0148
G1 X159.599 Y131.21 E.04881
G1 X159.599 Y131.717 E.0148
G1 X158.417 Y130.535 E.04881
G1 X158.417 Y131.041 E.01477
G1 X159.599 Y132.224 E.04883
G1 X159.599 Y132.731 E.0148
G1 X158.417 Y131.548 E.04883
G1 X158.417 Y132.055 E.0148
G1 X159.599 Y133.237 E.04881
G1 X159.599 Y133.744 E.0148
G1 X158.417 Y132.561 E.04883
G1 X158.417 Y133.068 E.0148
G1 X159.599 Y134.251 E.04883
G1 X159.599 Y134.757 E.01477
G1 X158.417 Y133.575 E.04881
G1 X158.417 Y134.082 E.0148
G1 X159.599 Y135.264 E.04881
G1 X159.599 Y135.771 E.0148
G1 X158.417 Y134.588 E.04883
G1 X158.417 Y135.095 E.0148
G1 X159.599 Y136.278 E.04883
G1 X159.599 Y136.784 E.01477
G1 X158.417 Y135.602 E.04881
G1 X158.417 Y136.109 E.0148
G1 X159.599 Y137.291 E.04881
G1 X159.599 Y137.798 E.0148
G1 X158.417 Y136.615 E.04883
G1 X158.417 Y137.122 E.0148
G1 X159.599 Y138.305 E.04883
G1 X159.599 Y138.811 E.01477
G1 X158.417 Y137.629 E.04881
G1 X158.417 Y138.135 E.01477
G1 X159.599 Y139.318 E.04883
G1 X159.599 Y139.825 E.0148
G1 X158.417 Y138.642 E.04883
G1 X158.417 Y139.149 E.0148
G1 X159.599 Y140.331 E.04881
G1 X159.599 Y140.838 E.0148
G1 X158.417 Y139.656 E.04881
G1 X158.417 Y140.162 E.01477
G1 X159.599 Y141.345 E.04883
G1 X159.599 Y141.852 E.0148
G1 X158.417 Y140.669 E.04883
G1 X158.417 Y141.176 E.0148
G1 X159.599 Y142.358 E.04881
G1 X159.599 Y142.865 E.0148
